(G-code generated by FlatCAM Evo vUnstable - Version Date: 2022/4/31)

(Name: circuit_protection-B_Cu.gbr_ncc_cnc)
(Type: G-code from Geometry)
(Units: MM)

(Created on Tuesday, 18 April 2023 at 18:52)

(This preprocessor is the default preprocessor.)
(It is made to work with MACH3 compatible motion controllers.)

(TOOL DIAMETER: 1.0 mm)
(Feedrate_XY: 120.0 mm/min)
(Feedrate_Z: 60.0 mm/min)
(Feedrate rapids 1500.0 mm/min)

(Z_Cut: -0.1 mm)
(DepthPerCut: 0.025 mm <=>4 passes)
(Z_Move: 2.0 mm)
(Z Start: None mm)
(Z End: 15.0 mm)
(X,Y End: 0.0000, 0.0000 mm)
(Steps per circle: 16)
(Preprocessor Geometry: default)

(X range:  -38.5977 ...   -0.7273  mm)
(Y range:  -35.5977 ...   -0.7273  mm)

(Spindle Speed: 13000.0 RPM)
G21
G90
G94

G01 F120.00
G00 Z2.0000

M03 S13000.0
G4 P1.0
G01 F120.00
G00 X-1.0017 Y-1.6136
G01 F60.00
G01 Z-0.0250
G01 F120.00
G01 X-1.0151 Y-1.5088
G01 X-1.0643 Y-1.3531
G01 X-1.1249 Y-1.2541
G01 X-1.2097 Y-1.1643
G01 X-1.2848 Y-1.1026
G01 X-1.3771 Y-1.0539
G01 X-1.5136 Y-1.0140
G01 X-1.6166 Y-1.0016
G01 X-37.7005 Y-1.0015
G01 X-37.8027 Y-1.0121
G01 X-37.9346 Y-1.0488
G01 X-38.0181 Y-1.0886
G01 X-38.0990 Y-1.1487
G01 X-38.2001 Y-1.2541
G01 X-38.2607 Y-1.3531
G01 X-38.3110 Y-1.5136
G01 X-38.3235 Y-1.6245
G01 X-38.3235 Y-34.7005
G01 X-38.3129 Y-34.8027
G01 X-38.2762 Y-34.9346
G01 X-38.2364 Y-35.0181
G01 X-38.1763 Y-35.0990
G01 X-38.0709 Y-35.2001
G01 X-37.9719 Y-35.2607
G01 X-37.8114 Y-35.3110
G01 X-37.7005 Y-35.3235
G01 X-1.6245 Y-35.3235
G01 X-1.5223 Y-35.3129
G01 X-1.3904 Y-35.2762
G01 X-1.3069 Y-35.2364
G01 X-1.2260 Y-35.1763
G01 X-1.1249 Y-35.0709
G01 X-1.0643 Y-34.9719
G01 X-1.0151 Y-34.8162
G01 X-1.0016 Y-34.7035
G01 X-1.0016 Y-1.6166
G01 X-1.2738 Y-1.6196
G01 X-1.3054 Y-1.4812
G01 X-1.3567 Y-1.4021
G01 X-1.4198 Y-1.3409
G01 X-1.4595 Y-1.3150
G01 X-1.5658 Y-1.2814
G01 X-1.6196 Y-1.2738
G01 X-37.7005 Y-1.2737
G01 X-37.8326 Y-1.3014
G01 X-37.9143 Y-1.3486
G01 X-37.9764 Y-1.4107
G01 X-38.0100 Y-1.4595
G01 X-38.0448 Y-1.5706
G01 X-38.0513 Y-1.6245
G01 X-38.0513 Y-34.7005
G01 X-38.0459 Y-34.7496
G01 X-38.0196 Y-34.8438
G01 X-37.9683 Y-34.9229
G01 X-37.9052 Y-34.9841
G01 X-37.8655 Y-35.0100
G01 X-37.7544 Y-35.0448
G01 X-37.7005 Y-35.0513
G01 X-1.6245 Y-35.0513
G01 X-1.4924 Y-35.0236
G01 X-1.4107 Y-34.9764
G01 X-1.3486 Y-34.9143
G01 X-1.3150 Y-34.8655
G01 X-1.2802 Y-34.7544
G01 X-1.2737 Y-34.7005
G01 X-1.2738 Y-1.6196
G00 X-1.2738 Y-1.6196
G01 F60.00
G01 Z-0.0500
G01 F120.00
G01 X-1.2737 Y-34.7005
G01 X-1.2802 Y-34.7544
G01 X-1.3150 Y-34.8655
G01 X-1.3486 Y-34.9143
G01 X-1.4107 Y-34.9764
G01 X-1.4924 Y-35.0236
G01 X-1.6245 Y-35.0513
G01 X-37.7005 Y-35.0513
G01 X-37.7496 Y-35.0459
G01 X-37.8438 Y-35.0196
G01 X-37.9229 Y-34.9683
G01 X-37.9841 Y-34.9052
G01 X-38.0100 Y-34.8655
G01 X-38.0448 Y-34.7544
G01 X-38.0513 Y-34.7005
G01 X-38.0513 Y-1.6245
G01 X-38.0448 Y-1.5706
G01 X-38.0100 Y-1.4595
G01 X-37.9764 Y-1.4107
G01 X-37.9143 Y-1.3486
G01 X-37.8326 Y-1.3014
G01 X-37.7005 Y-1.2737
G01 X-1.6196 Y-1.2738
G01 X-1.4812 Y-1.3054
G01 X-1.4021 Y-1.3567
G01 X-1.3409 Y-1.4198
G01 X-1.3150 Y-1.4595
G01 X-1.2814 Y-1.5658
G01 X-1.2738 Y-1.6196
G01 X-1.0016 Y-1.6166
G01 X-1.0016 Y-34.7035
G01 X-1.0151 Y-34.8162
G01 X-1.0643 Y-34.9719
G01 X-1.1249 Y-35.0709
G01 X-1.2260 Y-35.1763
G01 X-1.3069 Y-35.2364
G01 X-1.3904 Y-35.2762
G01 X-1.5223 Y-35.3129
G01 X-1.6245 Y-35.3235
G01 X-37.7005 Y-35.3235
G01 X-37.8114 Y-35.3110
G01 X-37.9719 Y-35.2607
G01 X-38.0709 Y-35.2001
G01 X-38.1763 Y-35.0990
G01 X-38.2364 Y-35.0181
G01 X-38.2762 Y-34.9346
G01 X-38.3129 Y-34.8027
G01 X-38.3235 Y-34.7005
G01 X-38.3235 Y-1.6245
G01 X-38.3110 Y-1.5136
G01 X-38.2607 Y-1.3531
G01 X-38.2001 Y-1.2541
G01 X-38.0990 Y-1.1487
G01 X-38.0181 Y-1.0886
G01 X-37.9346 Y-1.0488
G01 X-37.8027 Y-1.0121
G01 X-37.7005 Y-1.0015
G01 X-1.6166 Y-1.0016
G01 X-1.5136 Y-1.0140
G01 X-1.3771 Y-1.0539
G01 X-1.2848 Y-1.1026
G01 X-1.2097 Y-1.1643
G01 X-1.1249 Y-1.2541
G01 X-1.0643 Y-1.3531
G01 X-1.0151 Y-1.5088
G01 X-1.0017 Y-1.6136
G00 X-1.0017 Y-1.6136
G01 F60.00
G01 Z-0.0750
G01 F120.00
G01 X-1.0151 Y-1.5088
G01 X-1.0643 Y-1.3531
G01 X-1.1249 Y-1.2541
G01 X-1.2097 Y-1.1643
G01 X-1.2848 Y-1.1026
G01 X-1.3771 Y-1.0539
G01 X-1.5136 Y-1.0140
G01 X-1.6166 Y-1.0016
G01 X-37.7005 Y-1.0015
G01 X-37.8027 Y-1.0121
G01 X-37.9346 Y-1.0488
G01 X-38.0181 Y-1.0886
G01 X-38.0990 Y-1.1487
G01 X-38.2001 Y-1.2541
G01 X-38.2607 Y-1.3531
G01 X-38.3110 Y-1.5136
G01 X-38.3235 Y-1.6245
G01 X-38.3235 Y-34.7005
G01 X-38.3129 Y-34.8027
G01 X-38.2762 Y-34.9346
G01 X-38.2364 Y-35.0181
G01 X-38.1763 Y-35.0990
G01 X-38.0709 Y-35.2001
G01 X-37.9719 Y-35.2607
G01 X-37.8114 Y-35.3110
G01 X-37.7005 Y-35.3235
G01 X-1.6245 Y-35.3235
G01 X-1.5223 Y-35.3129
G01 X-1.3904 Y-35.2762
G01 X-1.3069 Y-35.2364
G01 X-1.2260 Y-35.1763
G01 X-1.1249 Y-35.0709
G01 X-1.0643 Y-34.9719
G01 X-1.0151 Y-34.8162
G01 X-1.0016 Y-34.7035
G01 X-1.0016 Y-1.6166
G01 X-1.2738 Y-1.6196
G01 X-1.3054 Y-1.4812
G01 X-1.3567 Y-1.4021
G01 X-1.4198 Y-1.3409
G01 X-1.4595 Y-1.3150
G01 X-1.5658 Y-1.2814
G01 X-1.6196 Y-1.2738
G01 X-37.7005 Y-1.2737
G01 X-37.8326 Y-1.3014
G01 X-37.9143 Y-1.3486
G01 X-37.9764 Y-1.4107
G01 X-38.0100 Y-1.4595
G01 X-38.0448 Y-1.5706
G01 X-38.0513 Y-1.6245
G01 X-38.0513 Y-34.7005
G01 X-38.0459 Y-34.7496
G01 X-38.0196 Y-34.8438
G01 X-37.9683 Y-34.9229
G01 X-37.9052 Y-34.9841
G01 X-37.8655 Y-35.0100
G01 X-37.7544 Y-35.0448
G01 X-37.7005 Y-35.0513
G01 X-1.6245 Y-35.0513
G01 X-1.4924 Y-35.0236
G01 X-1.4107 Y-34.9764
G01 X-1.3486 Y-34.9143
G01 X-1.3150 Y-34.8655
G01 X-1.2802 Y-34.7544
G01 X-1.2737 Y-34.7005
G01 X-1.2738 Y-1.6196
G00 X-1.2738 Y-1.6196
G01 F60.00
G01 Z-0.1000
G01 F120.00
G01 X-1.2737 Y-34.7005
G01 X-1.2802 Y-34.7544
G01 X-1.3150 Y-34.8655
G01 X-1.3486 Y-34.9143
G01 X-1.4107 Y-34.9764
G01 X-1.4924 Y-35.0236
G01 X-1.6245 Y-35.0513
G01 X-37.7005 Y-35.0513
G01 X-37.7496 Y-35.0459
G01 X-37.8438 Y-35.0196
G01 X-37.9229 Y-34.9683
G01 X-37.9841 Y-34.9052
G01 X-38.0100 Y-34.8655
G01 X-38.0448 Y-34.7544
G01 X-38.0513 Y-34.7005
G01 X-38.0513 Y-1.6245
G01 X-38.0448 Y-1.5706
G01 X-38.0100 Y-1.4595
G01 X-37.9764 Y-1.4107
G01 X-37.9143 Y-1.3486
G01 X-37.8326 Y-1.3014
G01 X-37.7005 Y-1.2737
G01 X-1.6196 Y-1.2738
G01 X-1.4812 Y-1.3054
G01 X-1.4021 Y-1.3567
G01 X-1.3409 Y-1.4198
G01 X-1.3150 Y-1.4595
G01 X-1.2814 Y-1.5658
G01 X-1.2738 Y-1.6196
G01 X-1.0016 Y-1.6166
G01 X-1.0016 Y-34.7035
G01 X-1.0151 Y-34.8162
G01 X-1.0643 Y-34.9719
G01 X-1.1249 Y-35.0709
G01 X-1.2260 Y-35.1763
G01 X-1.3069 Y-35.2364
G01 X-1.3904 Y-35.2762
G01 X-1.5223 Y-35.3129
G01 X-1.6245 Y-35.3235
G01 X-37.7005 Y-35.3235
G01 X-37.8114 Y-35.3110
G01 X-37.9719 Y-35.2607
G01 X-38.0709 Y-35.2001
G01 X-38.1763 Y-35.0990
G01 X-38.2364 Y-35.0181
G01 X-38.2762 Y-34.9346
G01 X-38.3129 Y-34.8027
G01 X-38.3235 Y-34.7005
G01 X-38.3235 Y-1.6245
G01 X-38.3110 Y-1.5136
G01 X-38.2607 Y-1.3531
G01 X-38.2001 Y-1.2541
G01 X-38.0990 Y-1.1487
G01 X-38.0181 Y-1.0886
G01 X-37.9346 Y-1.0488
G01 X-37.8027 Y-1.0121
G01 X-37.7005 Y-1.0015
G01 X-1.6166 Y-1.0016
G01 X-1.5136 Y-1.0140
G01 X-1.3771 Y-1.0539
G01 X-1.2848 Y-1.1026
G01 X-1.2097 Y-1.1643
G01 X-1.1249 Y-1.2541
G01 X-1.0643 Y-1.3531
G01 X-1.0151 Y-1.5088
G01 X-1.0017 Y-1.6136
G00 Z2.0000
G00 X-4.2602 Y-4.6330
G01 F60.00
G01 Z-0.0250
G01 F120.00
G01 X-4.3210 Y-4.6799
G01 X-4.3558 Y-4.6962
G01 X-4.4308 Y-4.7129
G01 X-4.4884 Y-4.7108
G01 X-4.5619 Y-4.6887
G01 X-4.6259 Y-4.6463
G01 X-4.6750 Y-4.5873
G01 X-4.6926 Y-4.5531
G01 X-4.7120 Y-4.4788
G01 X-4.7092 Y-4.4021
G01 X-4.6844 Y-4.3295
G01 X-4.6644 Y-4.2966
G01 X-4.6111 Y-4.2414
G01 X-4.5790 Y-4.2201
G01 X-4.5073 Y-4.1927
G01 X-4.4404 Y-4.1871
G01 X-4.3741 Y-4.1976
G01 X-4.3045 Y-4.2302
G01 X-4.2474 Y-4.2814
G01 X-4.2074 Y-4.3469
G01 X-4.1880 Y-4.4212
G01 X-4.1908 Y-4.4979
G01 X-4.2152 Y-4.5696
G01 X-4.2602 Y-4.6330
G01 X-4.0638 Y-4.8224
G01 X-4.1221 Y-4.8746
G01 X-4.1874 Y-4.9178
G01 X-4.2584 Y-4.9511
G01 X-4.3333 Y-4.9737
G01 X-4.4696 Y-4.9851
G01 X-4.6046 Y-4.9637
G01 X-4.6777 Y-4.9358
G01 X-4.7460 Y-4.8974
G01 X-4.8080 Y-4.8496
G01 X-4.8624 Y-4.7932
G01 X-4.9079 Y-4.7295
G01 X-4.9438 Y-4.6598
G01 X-4.9690 Y-4.5857
G01 X-4.9833 Y-4.5087
G01 X-4.9861 Y-4.4304
G01 X-4.9776 Y-4.3526
G01 X-4.9578 Y-4.2768
G01 X-4.9271 Y-4.2047
G01 X-4.8863 Y-4.1378
G01 X-4.8362 Y-4.0776
G01 X-4.7779 Y-4.0254
G01 X-4.7126 Y-3.9822
G01 X-4.6416 Y-3.9489
G01 X-4.5667 Y-3.9263
G01 X-4.4892 Y-3.9149
G01 X-4.3719 Y-3.9192
G01 X-4.2954 Y-3.9363
G01 X-4.2223 Y-3.9642
G01 X-4.1540 Y-4.0026
G01 X-4.0920 Y-4.0504
G01 X-4.0376 Y-4.1068
G01 X-3.9921 Y-4.1705
G01 X-3.9562 Y-4.2402
G01 X-3.9310 Y-4.3143
G01 X-3.9167 Y-4.3913
G01 X-3.9139 Y-4.4696
G01 X-3.9224 Y-4.5474
G01 X-3.9422 Y-4.6232
G01 X-3.9724 Y-4.6941
G01 X-4.0138 Y-4.7624
G01 X-4.0638 Y-4.8224
G01 X-3.8673 Y-5.0118
G01 X-3.9553 Y-5.0906
G01 X-4.0539 Y-5.1558
G01 X-4.1609 Y-5.2060
G01 X-4.2740 Y-5.2400
G01 X-4.3909 Y-5.2572
G01 X-4.5678 Y-5.2508
G01 X-4.6832 Y-5.2251
G01 X-4.7935 Y-5.1829
G01 X-4.8966 Y-5.1250
G01 X-4.9901 Y-5.0528
G01 X-5.0721 Y-4.9677
G01 X-5.1409 Y-4.8716
G01 X-5.1949 Y-4.7666
G01 X-5.2331 Y-4.6547
G01 X-5.2545 Y-4.5385
G01 X-5.2588 Y-4.4204
G01 X-5.2459 Y-4.3030
G01 X-5.2160 Y-4.1887
G01 X-5.1698 Y-4.0799
G01 X-5.1083 Y-3.9791
G01 X-5.0327 Y-3.8882
G01 X-4.9447 Y-3.8094
G01 X-4.8461 Y-3.7442
G01 X-4.7391 Y-3.6940
G01 X-4.6260 Y-3.6600
G01 X-4.5091 Y-3.6428
G01 X-4.3322 Y-3.6492
G01 X-4.2168 Y-3.6749
G01 X-4.1065 Y-3.7171
G01 X-4.0034 Y-3.7750
G01 X-3.9099 Y-3.8472
G01 X-3.8279 Y-3.9323
G01 X-3.7591 Y-4.0284
G01 X-3.7051 Y-4.1335
G01 X-3.6669 Y-4.2453
G01 X-3.6455 Y-4.3615
G01 X-3.6412 Y-4.4796
G01 X-3.6541 Y-4.5970
G01 X-3.6840 Y-4.7113
G01 X-3.7302 Y-4.8201
G01 X-3.7917 Y-4.9209
G01 X-3.8673 Y-5.0118
G01 X-3.6709 Y-5.2012
G01 X-3.7885 Y-5.3066
G01 X-3.9203 Y-5.3938
G01 X-4.0634 Y-5.4609
G01 X-4.2147 Y-5.5064
G01 X-4.3710 Y-5.5294
G01 X-4.6076 Y-5.5207
G01 X-4.7618 Y-5.4864
G01 X-4.9094 Y-5.4299
G01 X-5.0472 Y-5.3526
G01 X-5.1722 Y-5.2560
G01 X-5.2819 Y-5.1423
G01 X-5.3738 Y-5.0138
G01 X-5.4461 Y-4.8733
G01 X-5.4971 Y-4.7237
G01 X-5.5258 Y-4.5684
G01 X-5.5315 Y-4.4105
G01 X-5.5143 Y-4.2534
G01 X-5.4743 Y-4.1006
G01 X-5.4125 Y-3.9551
G01 X-5.3302 Y-3.8203
G01 X-5.2291 Y-3.6988
G01 X-5.1115 Y-3.5934
G01 X-4.9797 Y-3.5062
G01 X-4.8366 Y-3.4391
G01 X-4.6853 Y-3.3936
G01 X-4.5290 Y-3.3706
G01 X-4.2924 Y-3.3793
G01 X-4.1382 Y-3.4136
G01 X-3.9906 Y-3.4701
G01 X-3.8528 Y-3.5474
G01 X-3.7278 Y-3.6440
G01 X-3.6181 Y-3.7577
G01 X-3.5262 Y-3.8862
G01 X-3.4539 Y-4.0267
G01 X-3.4029 Y-4.1763
G01 X-3.3742 Y-4.3316
G01 X-3.3685 Y-4.4895
G01 X-3.3857 Y-4.6466
G01 X-3.4257 Y-4.7994
G01 X-3.4875 Y-4.9449
G01 X-3.5698 Y-5.0797
G01 X-3.6709 Y-5.2012
G01 X-3.4744 Y-5.3906
G01 X-3.6218 Y-5.5226
G01 X-3.7868 Y-5.6318
G01 X-3.9659 Y-5.7157
G01 X-4.1553 Y-5.7727
G01 X-4.3511 Y-5.8015
G01 X-4.4994 Y-5.8015
G01 X-4.6473 Y-5.7907
G01 X-4.8404 Y-5.7477
G01 X-5.0252 Y-5.6770
G01 X-5.1977 Y-5.5802
G01 X-5.3543 Y-5.4593
G01 X-5.4916 Y-5.3169
G01 X-5.6068 Y-5.1560
G01 X-5.6972 Y-4.9800
G01 X-5.7611 Y-4.7928
G01 X-5.7970 Y-4.5982
G01 X-5.8043 Y-4.4005
G01 X-5.7826 Y-4.2039
G01 X-5.7326 Y-4.0124
G01 X-5.6552 Y-3.8304
G01 X-5.5521 Y-3.6615
G01 X-5.4256 Y-3.5094
G01 X-5.2782 Y-3.3774
G01 X-5.1132 Y-3.2682
G01 X-4.9341 Y-3.1843
G01 X-4.7447 Y-3.1273
G01 X-4.5489 Y-3.0985
G01 X-4.4006 Y-3.0985
G01 X-4.2527 Y-3.1093
G01 X-4.0596 Y-3.1523
G01 X-3.8748 Y-3.2230
G01 X-3.7023 Y-3.3198
G01 X-3.5457 Y-3.4407
G01 X-3.4084 Y-3.5831
G01 X-3.2932 Y-3.7440
G01 X-3.2028 Y-3.9200
G01 X-3.1389 Y-4.1072
G01 X-3.1030 Y-4.3018
G01 X-3.0957 Y-4.4995
G01 X-3.1174 Y-4.6961
G01 X-3.1674 Y-4.8876
G01 X-3.2448 Y-5.0696
G01 X-3.3479 Y-5.2385
G01 X-3.4744 Y-5.3906
G01 X-3.2780 Y-5.5800
G01 X-3.4550 Y-5.7386
G01 X-3.6532 Y-5.8697
G01 X-3.8684 Y-5.9706
G01 X-4.0960 Y-6.0391
G01 X-4.3312 Y-6.0737
G01 X-4.5093 Y-6.0737
G01 X-4.6870 Y-6.0607
G01 X-4.9190 Y-6.0090
G01 X-5.1410 Y-5.9241
G01 X-5.3483 Y-5.8078
G01 X-5.5364 Y-5.6625
G01 X-5.7014 Y-5.4914
G01 X-5.8397 Y-5.2981
G01 X-5.9484 Y-5.0867
G01 X-6.0251 Y-4.8618
G01 X-6.0683 Y-4.6281
G01 X-6.0770 Y-4.3905
G01 X-6.0510 Y-4.1543
G01 X-5.9908 Y-3.9243
G01 X-5.8979 Y-3.7056
G01 X-5.7741 Y-3.5027
G01 X-5.6220 Y-3.3200
G01 X-5.4450 Y-3.1614
G01 X-5.2468 Y-3.0303
G01 X-5.0316 Y-2.9294
G01 X-4.8040 Y-2.8609
G01 X-4.5688 Y-2.8263
G01 X-4.3907 Y-2.8263
G01 X-4.2130 Y-2.8393
G01 X-3.9810 Y-2.8910
G01 X-3.7590 Y-2.9759
G01 X-3.5517 Y-3.0922
G01 X-3.3636 Y-3.2375
G01 X-3.1986 Y-3.4086
G01 X-3.0603 Y-3.6019
G01 X-2.9516 Y-3.8133
G01 X-2.8749 Y-4.0382
G01 X-2.8317 Y-4.2719
G01 X-2.8230 Y-4.5095
G01 X-2.8490 Y-4.7457
G01 X-2.9092 Y-4.9757
G01 X-3.0021 Y-5.1944
G01 X-3.1259 Y-5.3973
G01 X-3.2780 Y-5.5800
G00 X-3.2780 Y-5.5800
G01 F60.00
G01 Z-0.0500
G01 F120.00
G01 X-3.1259 Y-5.3973
G01 X-3.0021 Y-5.1944
G01 X-2.9092 Y-4.9757
G01 X-2.8490 Y-4.7457
G01 X-2.8230 Y-4.5095
G01 X-2.8317 Y-4.2719
G01 X-2.8749 Y-4.0382
G01 X-2.9516 Y-3.8133
G01 X-3.0603 Y-3.6019
G01 X-3.1986 Y-3.4086
G01 X-3.3636 Y-3.2375
G01 X-3.5517 Y-3.0922
G01 X-3.7590 Y-2.9759
G01 X-3.9810 Y-2.8910
G01 X-4.2130 Y-2.8393
G01 X-4.3907 Y-2.8263
G01 X-4.5688 Y-2.8263
G01 X-4.8040 Y-2.8609
G01 X-5.0316 Y-2.9294
G01 X-5.2468 Y-3.0303
G01 X-5.4450 Y-3.1614
G01 X-5.6220 Y-3.3200
G01 X-5.7741 Y-3.5027
G01 X-5.8979 Y-3.7056
G01 X-5.9908 Y-3.9243
G01 X-6.0510 Y-4.1543
G01 X-6.0770 Y-4.3905
G01 X-6.0683 Y-4.6281
G01 X-6.0251 Y-4.8618
G01 X-5.9484 Y-5.0867
G01 X-5.8397 Y-5.2981
G01 X-5.7014 Y-5.4914
G01 X-5.5364 Y-5.6625
G01 X-5.3483 Y-5.8078
G01 X-5.1410 Y-5.9241
G01 X-4.9190 Y-6.0090
G01 X-4.6870 Y-6.0607
G01 X-4.5093 Y-6.0737
G01 X-4.3312 Y-6.0737
G01 X-4.0960 Y-6.0391
G01 X-3.8684 Y-5.9706
G01 X-3.6532 Y-5.8697
G01 X-3.4550 Y-5.7386
G01 X-3.2780 Y-5.5800
G01 X-3.4744 Y-5.3906
G01 X-3.3479 Y-5.2385
G01 X-3.2448 Y-5.0696
G01 X-3.1674 Y-4.8876
G01 X-3.1174 Y-4.6961
G01 X-3.0957 Y-4.4995
G01 X-3.1030 Y-4.3018
G01 X-3.1389 Y-4.1072
G01 X-3.2028 Y-3.9200
G01 X-3.2932 Y-3.7440
G01 X-3.4084 Y-3.5831
G01 X-3.5457 Y-3.4407
G01 X-3.7023 Y-3.3198
G01 X-3.8748 Y-3.2230
G01 X-4.0596 Y-3.1523
G01 X-4.2527 Y-3.1093
G01 X-4.4006 Y-3.0985
G01 X-4.5489 Y-3.0985
G01 X-4.7447 Y-3.1273
G01 X-4.9341 Y-3.1843
G01 X-5.1132 Y-3.2682
G01 X-5.2782 Y-3.3774
G01 X-5.4256 Y-3.5094
G01 X-5.5521 Y-3.6615
G01 X-5.6552 Y-3.8304
G01 X-5.7326 Y-4.0124
G01 X-5.7826 Y-4.2039
G01 X-5.8043 Y-4.4005
G01 X-5.7970 Y-4.5982
G01 X-5.7611 Y-4.7928
G01 X-5.6972 Y-4.9800
G01 X-5.6068 Y-5.1560
G01 X-5.4916 Y-5.3169
G01 X-5.3543 Y-5.4593
G01 X-5.1977 Y-5.5802
G01 X-5.0252 Y-5.6770
G01 X-4.8404 Y-5.7477
G01 X-4.6473 Y-5.7907
G01 X-4.4994 Y-5.8015
G01 X-4.3511 Y-5.8015
G01 X-4.1553 Y-5.7727
G01 X-3.9659 Y-5.7157
G01 X-3.7868 Y-5.6318
G01 X-3.6218 Y-5.5226
G01 X-3.4744 Y-5.3906
G01 X-3.6709 Y-5.2012
G01 X-3.5698 Y-5.0797
G01 X-3.4875 Y-4.9449
G01 X-3.4257 Y-4.7994
G01 X-3.3857 Y-4.6466
G01 X-3.3685 Y-4.4895
G01 X-3.3742 Y-4.3316
G01 X-3.4029 Y-4.1763
G01 X-3.4539 Y-4.0267
G01 X-3.5262 Y-3.8862
G01 X-3.6181 Y-3.7577
G01 X-3.7278 Y-3.6440
G01 X-3.8528 Y-3.5474
G01 X-3.9906 Y-3.4701
G01 X-4.1382 Y-3.4136
G01 X-4.2924 Y-3.3793
G01 X-4.5290 Y-3.3706
G01 X-4.6853 Y-3.3936
G01 X-4.8366 Y-3.4391
G01 X-4.9797 Y-3.5062
G01 X-5.1115 Y-3.5934
G01 X-5.2291 Y-3.6988
G01 X-5.3302 Y-3.8203
G01 X-5.4125 Y-3.9551
G01 X-5.4743 Y-4.1006
G01 X-5.5143 Y-4.2534
G01 X-5.5315 Y-4.4105
G01 X-5.5258 Y-4.5684
G01 X-5.4971 Y-4.7237
G01 X-5.4461 Y-4.8733
G01 X-5.3738 Y-5.0138
G01 X-5.2819 Y-5.1423
G01 X-5.1722 Y-5.2560
G01 X-5.0472 Y-5.3526
G01 X-4.9094 Y-5.4299
G01 X-4.7618 Y-5.4864
G01 X-4.6076 Y-5.5207
G01 X-4.3710 Y-5.5294
G01 X-4.2147 Y-5.5064
G01 X-4.0634 Y-5.4609
G01 X-3.9203 Y-5.3938
G01 X-3.7885 Y-5.3066
G01 X-3.6709 Y-5.2012
G01 X-3.8673 Y-5.0118
G01 X-3.7917 Y-4.9209
G01 X-3.7302 Y-4.8201
G01 X-3.6840 Y-4.7113
G01 X-3.6541 Y-4.5970
G01 X-3.6412 Y-4.4796
G01 X-3.6455 Y-4.3615
G01 X-3.6669 Y-4.2453
G01 X-3.7051 Y-4.1335
G01 X-3.7591 Y-4.0284
G01 X-3.8279 Y-3.9323
G01 X-3.9099 Y-3.8472
G01 X-4.0034 Y-3.7750
G01 X-4.1065 Y-3.7171
G01 X-4.2168 Y-3.6749
G01 X-4.3322 Y-3.6492
G01 X-4.5091 Y-3.6428
G01 X-4.6260 Y-3.6600
G01 X-4.7391 Y-3.6940
G01 X-4.8461 Y-3.7442
G01 X-4.9447 Y-3.8094
G01 X-5.0327 Y-3.8882
G01 X-5.1083 Y-3.9791
G01 X-5.1698 Y-4.0799
G01 X-5.2160 Y-4.1887
G01 X-5.2459 Y-4.3030
G01 X-5.2588 Y-4.4204
G01 X-5.2545 Y-4.5385
G01 X-5.2331 Y-4.6547
G01 X-5.1949 Y-4.7666
G01 X-5.1409 Y-4.8716
G01 X-5.0721 Y-4.9677
G01 X-4.9901 Y-5.0528
G01 X-4.8966 Y-5.1250
G01 X-4.7935 Y-5.1829
G01 X-4.6832 Y-5.2251
G01 X-4.5678 Y-5.2508
G01 X-4.3909 Y-5.2572
G01 X-4.2740 Y-5.2400
G01 X-4.1609 Y-5.2060
G01 X-4.0539 Y-5.1558
G01 X-3.9553 Y-5.0906
G01 X-3.8673 Y-5.0118
G01 X-4.0638 Y-4.8224
G01 X-4.0138 Y-4.7624
G01 X-3.9724 Y-4.6941
G01 X-3.9422 Y-4.6232
G01 X-3.9224 Y-4.5474
G01 X-3.9139 Y-4.4696
G01 X-3.9167 Y-4.3913
G01 X-3.9310 Y-4.3143
G01 X-3.9562 Y-4.2402
G01 X-3.9921 Y-4.1705
G01 X-4.0376 Y-4.1068
G01 X-4.0920 Y-4.0504
G01 X-4.1540 Y-4.0026
G01 X-4.2223 Y-3.9642
G01 X-4.2954 Y-3.9363
G01 X-4.3719 Y-3.9192
G01 X-4.4892 Y-3.9149
G01 X-4.5667 Y-3.9263
G01 X-4.6416 Y-3.9489
G01 X-4.7126 Y-3.9822
G01 X-4.7779 Y-4.0254
G01 X-4.8362 Y-4.0776
G01 X-4.8863 Y-4.1378
G01 X-4.9271 Y-4.2047
G01 X-4.9578 Y-4.2768
G01 X-4.9776 Y-4.3526
G01 X-4.9861 Y-4.4304
G01 X-4.9833 Y-4.5087
G01 X-4.9690 Y-4.5857
G01 X-4.9438 Y-4.6598
G01 X-4.9079 Y-4.7295
G01 X-4.8624 Y-4.7932
G01 X-4.8080 Y-4.8496
G01 X-4.7460 Y-4.8974
G01 X-4.6777 Y-4.9358
G01 X-4.6046 Y-4.9637
G01 X-4.4696 Y-4.9851
G01 X-4.3333 Y-4.9737
G01 X-4.2584 Y-4.9511
G01 X-4.1874 Y-4.9178
G01 X-4.1221 Y-4.8746
G01 X-4.0638 Y-4.8224
G01 X-4.2602 Y-4.6330
G01 X-4.2152 Y-4.5696
G01 X-4.1908 Y-4.4979
G01 X-4.1880 Y-4.4212
G01 X-4.2074 Y-4.3469
G01 X-4.2474 Y-4.2814
G01 X-4.3045 Y-4.2302
G01 X-4.3741 Y-4.1976
G01 X-4.4404 Y-4.1871
G01 X-4.5073 Y-4.1927
G01 X-4.5790 Y-4.2201
G01 X-4.6111 Y-4.2414
G01 X-4.6644 Y-4.2966
G01 X-4.6844 Y-4.3295
G01 X-4.7092 Y-4.4021
G01 X-4.7120 Y-4.4788
G01 X-4.6926 Y-4.5531
G01 X-4.6750 Y-4.5873
G01 X-4.6259 Y-4.6463
G01 X-4.5619 Y-4.6887
G01 X-4.4884 Y-4.7108
G01 X-4.4308 Y-4.7129
G01 X-4.3558 Y-4.6962
G01 X-4.3210 Y-4.6799
G01 X-4.2602 Y-4.6330
G00 X-4.2602 Y-4.6330
G01 F60.00
G01 Z-0.0750
G01 F120.00
G01 X-4.3210 Y-4.6799
G01 X-4.3558 Y-4.6962
G01 X-4.4308 Y-4.7129
G01 X-4.4884 Y-4.7108
G01 X-4.5619 Y-4.6887
G01 X-4.6259 Y-4.6463
G01 X-4.6750 Y-4.5873
G01 X-4.6926 Y-4.5531
G01 X-4.7120 Y-4.4788
G01 X-4.7092 Y-4.4021
G01 X-4.6844 Y-4.3295
G01 X-4.6644 Y-4.2966
G01 X-4.6111 Y-4.2414
G01 X-4.5790 Y-4.2201
G01 X-4.5073 Y-4.1927
G01 X-4.4404 Y-4.1871
G01 X-4.3741 Y-4.1976
G01 X-4.3045 Y-4.2302
G01 X-4.2474 Y-4.2814
G01 X-4.2074 Y-4.3469
G01 X-4.1880 Y-4.4212
G01 X-4.1908 Y-4.4979
G01 X-4.2152 Y-4.5696
G01 X-4.2602 Y-4.6330
G01 X-4.0638 Y-4.8224
G01 X-4.1221 Y-4.8746
G01 X-4.1874 Y-4.9178
G01 X-4.2584 Y-4.9511
G01 X-4.3333 Y-4.9737
G01 X-4.4696 Y-4.9851
G01 X-4.6046 Y-4.9637
G01 X-4.6777 Y-4.9358
G01 X-4.7460 Y-4.8974
G01 X-4.8080 Y-4.8496
G01 X-4.8624 Y-4.7932
G01 X-4.9079 Y-4.7295
G01 X-4.9438 Y-4.6598
G01 X-4.9690 Y-4.5857
G01 X-4.9833 Y-4.5087
G01 X-4.9861 Y-4.4304
G01 X-4.9776 Y-4.3526
G01 X-4.9578 Y-4.2768
G01 X-4.9271 Y-4.2047
G01 X-4.8863 Y-4.1378
G01 X-4.8362 Y-4.0776
G01 X-4.7779 Y-4.0254
G01 X-4.7126 Y-3.9822
G01 X-4.6416 Y-3.9489
G01 X-4.5667 Y-3.9263
G01 X-4.4892 Y-3.9149
G01 X-4.3719 Y-3.9192
G01 X-4.2954 Y-3.9363
G01 X-4.2223 Y-3.9642
G01 X-4.1540 Y-4.0026
G01 X-4.0920 Y-4.0504
G01 X-4.0376 Y-4.1068
G01 X-3.9921 Y-4.1705
G01 X-3.9562 Y-4.2402
G01 X-3.9310 Y-4.3143
G01 X-3.9167 Y-4.3913
G01 X-3.9139 Y-4.4696
G01 X-3.9224 Y-4.5474
G01 X-3.9422 Y-4.6232
G01 X-3.9724 Y-4.6941
G01 X-4.0138 Y-4.7624
G01 X-4.0638 Y-4.8224
G01 X-3.8673 Y-5.0118
G01 X-3.9553 Y-5.0906
G01 X-4.0539 Y-5.1558
G01 X-4.1609 Y-5.2060
G01 X-4.2740 Y-5.2400
G01 X-4.3909 Y-5.2572
G01 X-4.5678 Y-5.2508
G01 X-4.6832 Y-5.2251
G01 X-4.7935 Y-5.1829
G01 X-4.8966 Y-5.1250
G01 X-4.9901 Y-5.0528
G01 X-5.0721 Y-4.9677
G01 X-5.1409 Y-4.8716
G01 X-5.1949 Y-4.7666
G01 X-5.2331 Y-4.6547
G01 X-5.2545 Y-4.5385
G01 X-5.2588 Y-4.4204
G01 X-5.2459 Y-4.3030
G01 X-5.2160 Y-4.1887
G01 X-5.1698 Y-4.0799
G01 X-5.1083 Y-3.9791
G01 X-5.0327 Y-3.8882
G01 X-4.9447 Y-3.8094
G01 X-4.8461 Y-3.7442
G01 X-4.7391 Y-3.6940
G01 X-4.6260 Y-3.6600
G01 X-4.5091 Y-3.6428
G01 X-4.3322 Y-3.6492
G01 X-4.2168 Y-3.6749
G01 X-4.1065 Y-3.7171
G01 X-4.0034 Y-3.7750
G01 X-3.9099 Y-3.8472
G01 X-3.8279 Y-3.9323
G01 X-3.7591 Y-4.0284
G01 X-3.7051 Y-4.1335
G01 X-3.6669 Y-4.2453
G01 X-3.6455 Y-4.3615
G01 X-3.6412 Y-4.4796
G01 X-3.6541 Y-4.5970
G01 X-3.6840 Y-4.7113
G01 X-3.7302 Y-4.8201
G01 X-3.7917 Y-4.9209
G01 X-3.8673 Y-5.0118
G01 X-3.6709 Y-5.2012
G01 X-3.7885 Y-5.3066
G01 X-3.9203 Y-5.3938
G01 X-4.0634 Y-5.4609
G01 X-4.2147 Y-5.5064
G01 X-4.3710 Y-5.5294
G01 X-4.6076 Y-5.5207
G01 X-4.7618 Y-5.4864
G01 X-4.9094 Y-5.4299
G01 X-5.0472 Y-5.3526
G01 X-5.1722 Y-5.2560
G01 X-5.2819 Y-5.1423
G01 X-5.3738 Y-5.0138
G01 X-5.4461 Y-4.8733
G01 X-5.4971 Y-4.7237
G01 X-5.5258 Y-4.5684
G01 X-5.5315 Y-4.4105
G01 X-5.5143 Y-4.2534
G01 X-5.4743 Y-4.1006
G01 X-5.4125 Y-3.9551
G01 X-5.3302 Y-3.8203
G01 X-5.2291 Y-3.6988
G01 X-5.1115 Y-3.5934
G01 X-4.9797 Y-3.5062
G01 X-4.8366 Y-3.4391
G01 X-4.6853 Y-3.3936
G01 X-4.5290 Y-3.3706
G01 X-4.2924 Y-3.3793
G01 X-4.1382 Y-3.4136
G01 X-3.9906 Y-3.4701
G01 X-3.8528 Y-3.5474
G01 X-3.7278 Y-3.6440
G01 X-3.6181 Y-3.7577
G01 X-3.5262 Y-3.8862
G01 X-3.4539 Y-4.0267
G01 X-3.4029 Y-4.1763
G01 X-3.3742 Y-4.3316
G01 X-3.3685 Y-4.4895
G01 X-3.3857 Y-4.6466
G01 X-3.4257 Y-4.7994
G01 X-3.4875 Y-4.9449
G01 X-3.5698 Y-5.0797
G01 X-3.6709 Y-5.2012
G01 X-3.4744 Y-5.3906
G01 X-3.6218 Y-5.5226
G01 X-3.7868 Y-5.6318
G01 X-3.9659 Y-5.7157
G01 X-4.1553 Y-5.7727
G01 X-4.3511 Y-5.8015
G01 X-4.4994 Y-5.8015
G01 X-4.6473 Y-5.7907
G01 X-4.8404 Y-5.7477
G01 X-5.0252 Y-5.6770
G01 X-5.1977 Y-5.5802
G01 X-5.3543 Y-5.4593
G01 X-5.4916 Y-5.3169
G01 X-5.6068 Y-5.1560
G01 X-5.6972 Y-4.9800
G01 X-5.7611 Y-4.7928
G01 X-5.7970 Y-4.5982
G01 X-5.8043 Y-4.4005
G01 X-5.7826 Y-4.2039
G01 X-5.7326 Y-4.0124
G01 X-5.6552 Y-3.8304
G01 X-5.5521 Y-3.6615
G01 X-5.4256 Y-3.5094
G01 X-5.2782 Y-3.3774
G01 X-5.1132 Y-3.2682
G01 X-4.9341 Y-3.1843
G01 X-4.7447 Y-3.1273
G01 X-4.5489 Y-3.0985
G01 X-4.4006 Y-3.0985
G01 X-4.2527 Y-3.1093
G01 X-4.0596 Y-3.1523
G01 X-3.8748 Y-3.2230
G01 X-3.7023 Y-3.3198
G01 X-3.5457 Y-3.4407
G01 X-3.4084 Y-3.5831
G01 X-3.2932 Y-3.7440
G01 X-3.2028 Y-3.9200
G01 X-3.1389 Y-4.1072
G01 X-3.1030 Y-4.3018
G01 X-3.0957 Y-4.4995
G01 X-3.1174 Y-4.6961
G01 X-3.1674 Y-4.8876
G01 X-3.2448 Y-5.0696
G01 X-3.3479 Y-5.2385
G01 X-3.4744 Y-5.3906
G01 X-3.2780 Y-5.5800
G01 X-3.4550 Y-5.7386
G01 X-3.6532 Y-5.8697
G01 X-3.8684 Y-5.9706
G01 X-4.0960 Y-6.0391
G01 X-4.3312 Y-6.0737
G01 X-4.5093 Y-6.0737
G01 X-4.6870 Y-6.0607
G01 X-4.9190 Y-6.0090
G01 X-5.1410 Y-5.9241
G01 X-5.3483 Y-5.8078
G01 X-5.5364 Y-5.6625
G01 X-5.7014 Y-5.4914
G01 X-5.8397 Y-5.2981
G01 X-5.9484 Y-5.0867
G01 X-6.0251 Y-4.8618
G01 X-6.0683 Y-4.6281
G01 X-6.0770 Y-4.3905
G01 X-6.0510 Y-4.1543
G01 X-5.9908 Y-3.9243
G01 X-5.8979 Y-3.7056
G01 X-5.7741 Y-3.5027
G01 X-5.6220 Y-3.3200
G01 X-5.4450 Y-3.1614
G01 X-5.2468 Y-3.0303
G01 X-5.0316 Y-2.9294
G01 X-4.8040 Y-2.8609
G01 X-4.5688 Y-2.8263
G01 X-4.3907 Y-2.8263
G01 X-4.2130 Y-2.8393
G01 X-3.9810 Y-2.8910
G01 X-3.7590 Y-2.9759
G01 X-3.5517 Y-3.0922
G01 X-3.3636 Y-3.2375
G01 X-3.1986 Y-3.4086
G01 X-3.0603 Y-3.6019
G01 X-2.9516 Y-3.8133
G01 X-2.8749 Y-4.0382
G01 X-2.8317 Y-4.2719
G01 X-2.8230 Y-4.5095
G01 X-2.8490 Y-4.7457
G01 X-2.9092 Y-4.9757
G01 X-3.0021 Y-5.1944
G01 X-3.1259 Y-5.3973
G01 X-3.2780 Y-5.5800
G00 X-3.2780 Y-5.5800
G01 F60.00
G01 Z-0.1000
G01 F120.00
G01 X-3.1259 Y-5.3973
G01 X-3.0021 Y-5.1944
G01 X-2.9092 Y-4.9757
G01 X-2.8490 Y-4.7457
G01 X-2.8230 Y-4.5095
G01 X-2.8317 Y-4.2719
G01 X-2.8749 Y-4.0382
G01 X-2.9516 Y-3.8133
G01 X-3.0603 Y-3.6019
G01 X-3.1986 Y-3.4086
G01 X-3.3636 Y-3.2375
G01 X-3.5517 Y-3.0922
G01 X-3.7590 Y-2.9759
G01 X-3.9810 Y-2.8910
G01 X-4.2130 Y-2.8393
G01 X-4.3907 Y-2.8263
G01 X-4.5688 Y-2.8263
G01 X-4.8040 Y-2.8609
G01 X-5.0316 Y-2.9294
G01 X-5.2468 Y-3.0303
G01 X-5.4450 Y-3.1614
G01 X-5.6220 Y-3.3200
G01 X-5.7741 Y-3.5027
G01 X-5.8979 Y-3.7056
G01 X-5.9908 Y-3.9243
G01 X-6.0510 Y-4.1543
G01 X-6.0770 Y-4.3905
G01 X-6.0683 Y-4.6281
G01 X-6.0251 Y-4.8618
G01 X-5.9484 Y-5.0867
G01 X-5.8397 Y-5.2981
G01 X-5.7014 Y-5.4914
G01 X-5.5364 Y-5.6625
G01 X-5.3483 Y-5.8078
G01 X-5.1410 Y-5.9241
G01 X-4.9190 Y-6.0090
G01 X-4.6870 Y-6.0607
G01 X-4.5093 Y-6.0737
G01 X-4.3312 Y-6.0737
G01 X-4.0960 Y-6.0391
G01 X-3.8684 Y-5.9706
G01 X-3.6532 Y-5.8697
G01 X-3.4550 Y-5.7386
G01 X-3.2780 Y-5.5800
G01 X-3.4744 Y-5.3906
G01 X-3.3479 Y-5.2385
G01 X-3.2448 Y-5.0696
G01 X-3.1674 Y-4.8876
G01 X-3.1174 Y-4.6961
G01 X-3.0957 Y-4.4995
G01 X-3.1030 Y-4.3018
G01 X-3.1389 Y-4.1072
G01 X-3.2028 Y-3.9200
G01 X-3.2932 Y-3.7440
G01 X-3.4084 Y-3.5831
G01 X-3.5457 Y-3.4407
G01 X-3.7023 Y-3.3198
G01 X-3.8748 Y-3.2230
G01 X-4.0596 Y-3.1523
G01 X-4.2527 Y-3.1093
G01 X-4.4006 Y-3.0985
G01 X-4.5489 Y-3.0985
G01 X-4.7447 Y-3.1273
G01 X-4.9341 Y-3.1843
G01 X-5.1132 Y-3.2682
G01 X-5.2782 Y-3.3774
G01 X-5.4256 Y-3.5094
G01 X-5.5521 Y-3.6615
G01 X-5.6552 Y-3.8304
G01 X-5.7326 Y-4.0124
G01 X-5.7826 Y-4.2039
G01 X-5.8043 Y-4.4005
G01 X-5.7970 Y-4.5982
G01 X-5.7611 Y-4.7928
G01 X-5.6972 Y-4.9800
G01 X-5.6068 Y-5.1560
G01 X-5.4916 Y-5.3169
G01 X-5.3543 Y-5.4593
G01 X-5.1977 Y-5.5802
G01 X-5.0252 Y-5.6770
G01 X-4.8404 Y-5.7477
G01 X-4.6473 Y-5.7907
G01 X-4.4994 Y-5.8015
G01 X-4.3511 Y-5.8015
G01 X-4.1553 Y-5.7727
G01 X-3.9659 Y-5.7157
G01 X-3.7868 Y-5.6318
G01 X-3.6218 Y-5.5226
G01 X-3.4744 Y-5.3906
G01 X-3.6709 Y-5.2012
G01 X-3.5698 Y-5.0797
G01 X-3.4875 Y-4.9449
G01 X-3.4257 Y-4.7994
G01 X-3.3857 Y-4.6466
G01 X-3.3685 Y-4.4895
G01 X-3.3742 Y-4.3316
G01 X-3.4029 Y-4.1763
G01 X-3.4539 Y-4.0267
G01 X-3.5262 Y-3.8862
G01 X-3.6181 Y-3.7577
G01 X-3.7278 Y-3.6440
G01 X-3.8528 Y-3.5474
G01 X-3.9906 Y-3.4701
G01 X-4.1382 Y-3.4136
G01 X-4.2924 Y-3.3793
G01 X-4.5290 Y-3.3706
G01 X-4.6853 Y-3.3936
G01 X-4.8366 Y-3.4391
G01 X-4.9797 Y-3.5062
G01 X-5.1115 Y-3.5934
G01 X-5.2291 Y-3.6988
G01 X-5.3302 Y-3.8203
G01 X-5.4125 Y-3.9551
G01 X-5.4743 Y-4.1006
G01 X-5.5143 Y-4.2534
G01 X-5.5315 Y-4.4105
G01 X-5.5258 Y-4.5684
G01 X-5.4971 Y-4.7237
G01 X-5.4461 Y-4.8733
G01 X-5.3738 Y-5.0138
G01 X-5.2819 Y-5.1423
G01 X-5.1722 Y-5.2560
G01 X-5.0472 Y-5.3526
G01 X-4.9094 Y-5.4299
G01 X-4.7618 Y-5.4864
G01 X-4.6076 Y-5.5207
G01 X-4.3710 Y-5.5294
G01 X-4.2147 Y-5.5064
G01 X-4.0634 Y-5.4609
G01 X-3.9203 Y-5.3938
G01 X-3.7885 Y-5.3066
G01 X-3.6709 Y-5.2012
G01 X-3.8673 Y-5.0118
G01 X-3.7917 Y-4.9209
G01 X-3.7302 Y-4.8201
G01 X-3.6840 Y-4.7113
G01 X-3.6541 Y-4.5970
G01 X-3.6412 Y-4.4796
G01 X-3.6455 Y-4.3615
G01 X-3.6669 Y-4.2453
G01 X-3.7051 Y-4.1335
G01 X-3.7591 Y-4.0284
G01 X-3.8279 Y-3.9323
G01 X-3.9099 Y-3.8472
G01 X-4.0034 Y-3.7750
G01 X-4.1065 Y-3.7171
G01 X-4.2168 Y-3.6749
G01 X-4.3322 Y-3.6492
G01 X-4.5091 Y-3.6428
G01 X-4.6260 Y-3.6600
G01 X-4.7391 Y-3.6940
G01 X-4.8461 Y-3.7442
G01 X-4.9447 Y-3.8094
G01 X-5.0327 Y-3.8882
G01 X-5.1083 Y-3.9791
G01 X-5.1698 Y-4.0799
G01 X-5.2160 Y-4.1887
G01 X-5.2459 Y-4.3030
G01 X-5.2588 Y-4.4204
G01 X-5.2545 Y-4.5385
G01 X-5.2331 Y-4.6547
G01 X-5.1949 Y-4.7666
G01 X-5.1409 Y-4.8716
G01 X-5.0721 Y-4.9677
G01 X-4.9901 Y-5.0528
G01 X-4.8966 Y-5.1250
G01 X-4.7935 Y-5.1829
G01 X-4.6832 Y-5.2251
G01 X-4.5678 Y-5.2508
G01 X-4.3909 Y-5.2572
G01 X-4.2740 Y-5.2400
G01 X-4.1609 Y-5.2060
G01 X-4.0539 Y-5.1558
G01 X-3.9553 Y-5.0906
G01 X-3.8673 Y-5.0118
G01 X-4.0638 Y-4.8224
G01 X-4.0138 Y-4.7624
G01 X-3.9724 Y-4.6941
G01 X-3.9422 Y-4.6232
G01 X-3.9224 Y-4.5474
G01 X-3.9139 Y-4.4696
G01 X-3.9167 Y-4.3913
G01 X-3.9310 Y-4.3143
G01 X-3.9562 Y-4.2402
G01 X-3.9921 Y-4.1705
G01 X-4.0376 Y-4.1068
G01 X-4.0920 Y-4.0504
G01 X-4.1540 Y-4.0026
G01 X-4.2223 Y-3.9642
G01 X-4.2954 Y-3.9363
G01 X-4.3719 Y-3.9192
G01 X-4.4892 Y-3.9149
G01 X-4.5667 Y-3.9263
G01 X-4.6416 Y-3.9489
G01 X-4.7126 Y-3.9822
G01 X-4.7779 Y-4.0254
G01 X-4.8362 Y-4.0776
G01 X-4.8863 Y-4.1378
G01 X-4.9271 Y-4.2047
G01 X-4.9578 Y-4.2768
G01 X-4.9776 Y-4.3526
G01 X-4.9861 Y-4.4304
G01 X-4.9833 Y-4.5087
G01 X-4.9690 Y-4.5857
G01 X-4.9438 Y-4.6598
G01 X-4.9079 Y-4.7295
G01 X-4.8624 Y-4.7932
G01 X-4.8080 Y-4.8496
G01 X-4.7460 Y-4.8974
G01 X-4.6777 Y-4.9358
G01 X-4.6046 Y-4.9637
G01 X-4.4696 Y-4.9851
G01 X-4.3333 Y-4.9737
G01 X-4.2584 Y-4.9511
G01 X-4.1874 Y-4.9178
G01 X-4.1221 Y-4.8746
G01 X-4.0638 Y-4.8224
G01 X-4.2602 Y-4.6330
G01 X-4.2152 Y-4.5696
G01 X-4.1908 Y-4.4979
G01 X-4.1880 Y-4.4212
G01 X-4.2074 Y-4.3469
G01 X-4.2474 Y-4.2814
G01 X-4.3045 Y-4.2302
G01 X-4.3741 Y-4.1976
G01 X-4.4404 Y-4.1871
G01 X-4.5073 Y-4.1927
G01 X-4.5790 Y-4.2201
G01 X-4.6111 Y-4.2414
G01 X-4.6644 Y-4.2966
G01 X-4.6844 Y-4.3295
G01 X-4.7092 Y-4.4021
G01 X-4.7120 Y-4.4788
G01 X-4.6926 Y-4.5531
G01 X-4.6750 Y-4.5873
G01 X-4.6259 Y-4.6463
G01 X-4.5619 Y-4.6887
G01 X-4.4884 Y-4.7108
G01 X-4.4308 Y-4.7129
G01 X-4.3558 Y-4.6962
G01 X-4.3210 Y-4.6799
G01 X-4.2602 Y-4.6330
G00 Z2.0000
G00 X-14.2502 Y-7.8482
G01 F60.00
G01 Z-0.0250
G01 F120.00
G01 X-14.3037 Y-7.8229
G01 X-14.3750 Y-7.8035
G01 X-14.5482 Y-7.7982
G01 X-14.5482 Y-7.7518
G01 X-14.3760 Y-7.7522
G01 X-14.2681 Y-7.7835
G01 X-14.1658 Y-7.8482
G01 X-14.2502 Y-7.8482
G00 X-14.2502 Y-7.8482
G01 F60.00
G01 Z-0.0500
G01 F120.00
G01 X-14.1658 Y-7.8482
G01 X-14.2681 Y-7.7835
G01 X-14.3760 Y-7.7522
G01 X-14.5482 Y-7.7518
G01 X-14.5482 Y-7.7982
G01 X-14.3750 Y-7.8035
G01 X-14.3037 Y-7.8229
G01 X-14.2502 Y-7.8482
G00 X-14.2502 Y-7.8482
G01 F60.00
G01 Z-0.0750
G01 F120.00
G01 X-14.3037 Y-7.8229
G01 X-14.3750 Y-7.8035
G01 X-14.5482 Y-7.7982
G01 X-14.5482 Y-7.7518
G01 X-14.3760 Y-7.7522
G01 X-14.2681 Y-7.7835
G01 X-14.1658 Y-7.8482
G01 X-14.2502 Y-7.8482
G00 X-14.2502 Y-7.8482
G01 F60.00
G01 Z-0.1000
G01 F120.00
G01 X-14.1658 Y-7.8482
G01 X-14.2681 Y-7.7835
G01 X-14.3760 Y-7.7522
G01 X-14.5482 Y-7.7518
G01 X-14.5482 Y-7.7982
G01 X-14.3750 Y-7.8035
G01 X-14.3037 Y-7.8229
G01 X-14.2502 Y-7.8482
G00 Z2.0000
G00 X-14.5482 Y-8.8518
G01 F60.00
G01 Z-0.0250
G01 F120.00
G01 X-14.3895 Y-8.8486
G01 X-14.3176 Y-8.8321
G01 X-14.2502 Y-8.8018
G01 X-14.1658 Y-8.8018
G01 X-14.2681 Y-8.8665
G01 X-14.3760 Y-8.8978
G01 X-14.5482 Y-8.8982
G01 X-14.5482 Y-8.8518
G00 X-14.5482 Y-8.8518
G01 F60.00
G01 Z-0.0500
G01 F120.00
G01 X-14.5482 Y-8.8982
G01 X-14.3760 Y-8.8978
G01 X-14.2681 Y-8.8665
G01 X-14.1658 Y-8.8018
G01 X-14.2502 Y-8.8018
G01 X-14.3176 Y-8.8321
G01 X-14.3895 Y-8.8486
G01 X-14.5482 Y-8.8518
G00 X-14.5482 Y-8.8518
G01 F60.00
G01 Z-0.0750
G01 F120.00
G01 X-14.3895 Y-8.8486
G01 X-14.3176 Y-8.8321
G01 X-14.2502 Y-8.8018
G01 X-14.1658 Y-8.8018
G01 X-14.2681 Y-8.8665
G01 X-14.3760 Y-8.8978
G01 X-14.5482 Y-8.8982
G01 X-14.5482 Y-8.8518
G00 X-14.5482 Y-8.8518
G01 F60.00
G01 Z-0.1000
G01 F120.00
G01 X-14.5482 Y-8.8982
G01 X-14.3760 Y-8.8978
G01 X-14.2681 Y-8.8665
G01 X-14.1658 Y-8.8018
G01 X-14.2502 Y-8.8018
G01 X-14.3176 Y-8.8321
G01 X-14.3895 Y-8.8486
G01 X-14.5482 Y-8.8518
G00 Z2.0000
G00 X-15.9731 Y-6.6844
G01 F60.00
G01 Z-0.0250
G01 F120.00
G01 X-15.9258 Y-6.7843
G01 X-15.8600 Y-6.8590
G01 X-15.7669 Y-6.9186
G01 X-15.6750 Y-6.9465
G01 X-15.6125 Y-6.9518
G01 X-14.4375 Y-6.9518
G01 X-14.3388 Y-6.9385
G01 X-14.2599 Y-6.9073
G01 X-14.1791 Y-6.8491
G01 X-14.1242 Y-6.7843
G01 X-14.0804 Y-6.6949
G01 X-14.0608 Y-6.5806
G01 X-14.0608 Y-6.2694
G01 X-14.0740 Y-6.1763
G01 X-14.1182 Y-6.0751
G01 X-14.1791 Y-6.0009
G01 X-14.2698 Y-5.9377
G01 X-14.3750 Y-5.9035
G01 X-14.4375 Y-5.8982
G01 X-15.6125 Y-5.8982
G01 X-15.7112 Y-5.9115
G01 X-15.7901 Y-5.9427
G01 X-15.8709 Y-6.0009
G01 X-15.9258 Y-6.0657
G01 X-15.9696 Y-6.1551
G01 X-15.9893 Y-6.2750
G01 X-15.9890 Y-6.5861
G01 X-15.9731 Y-6.6844
G00 X-15.9731 Y-6.6844
G01 F60.00
G01 Z-0.0500
G01 F120.00
G01 X-15.9890 Y-6.5861
G01 X-15.9893 Y-6.2750
G01 X-15.9696 Y-6.1551
G01 X-15.9258 Y-6.0657
G01 X-15.8709 Y-6.0009
G01 X-15.7901 Y-5.9427
G01 X-15.7112 Y-5.9115
G01 X-15.6125 Y-5.8982
G01 X-14.4375 Y-5.8982
G01 X-14.3750 Y-5.9035
G01 X-14.2698 Y-5.9377
G01 X-14.1791 Y-6.0009
G01 X-14.1182 Y-6.0751
G01 X-14.0740 Y-6.1763
G01 X-14.0608 Y-6.2694
G01 X-14.0608 Y-6.5806
G01 X-14.0804 Y-6.6949
G01 X-14.1242 Y-6.7843
G01 X-14.1791 Y-6.8491
G01 X-14.2599 Y-6.9073
G01 X-14.3388 Y-6.9385
G01 X-14.4375 Y-6.9518
G01 X-15.6125 Y-6.9518
G01 X-15.6750 Y-6.9465
G01 X-15.7669 Y-6.9186
G01 X-15.8600 Y-6.8590
G01 X-15.9258 Y-6.7843
G01 X-15.9731 Y-6.6844
G00 X-15.9731 Y-6.6844
G01 F60.00
G01 Z-0.0750
G01 F120.00
G01 X-15.9258 Y-6.7843
G01 X-15.8600 Y-6.8590
G01 X-15.7669 Y-6.9186
G01 X-15.6750 Y-6.9465
G01 X-15.6125 Y-6.9518
G01 X-14.4375 Y-6.9518
G01 X-14.3388 Y-6.9385
G01 X-14.2599 Y-6.9073
G01 X-14.1791 Y-6.8491
G01 X-14.1242 Y-6.7843
G01 X-14.0804 Y-6.6949
G01 X-14.0608 Y-6.5806
G01 X-14.0608 Y-6.2694
G01 X-14.0740 Y-6.1763
G01 X-14.1182 Y-6.0751
G01 X-14.1791 Y-6.0009
G01 X-14.2698 Y-5.9377
G01 X-14.3750 Y-5.9035
G01 X-14.4375 Y-5.8982
G01 X-15.6125 Y-5.8982
G01 X-15.7112 Y-5.9115
G01 X-15.7901 Y-5.9427
G01 X-15.8709 Y-6.0009
G01 X-15.9258 Y-6.0657
G01 X-15.9696 Y-6.1551
G01 X-15.9893 Y-6.2750
G01 X-15.9890 Y-6.5861
G01 X-15.9731 Y-6.6844
G00 X-15.9731 Y-6.6844
G01 F60.00
G01 Z-0.1000
G01 F120.00
G01 X-15.9890 Y-6.5861
G01 X-15.9893 Y-6.2750
G01 X-15.9696 Y-6.1551
G01 X-15.9258 Y-6.0657
G01 X-15.8709 Y-6.0009
G01 X-15.7901 Y-5.9427
G01 X-15.7112 Y-5.9115
G01 X-15.6125 Y-5.8982
G01 X-14.4375 Y-5.8982
G01 X-14.3750 Y-5.9035
G01 X-14.2698 Y-5.9377
G01 X-14.1791 Y-6.0009
G01 X-14.1182 Y-6.0751
G01 X-14.0740 Y-6.1763
G01 X-14.0608 Y-6.2694
G01 X-14.0608 Y-6.5806
G01 X-14.0804 Y-6.6949
G01 X-14.1242 Y-6.7843
G01 X-14.1791 Y-6.8491
G01 X-14.2599 Y-6.9073
G01 X-14.3388 Y-6.9385
G01 X-14.4375 Y-6.9518
G01 X-15.6125 Y-6.9518
G01 X-15.6750 Y-6.9465
G01 X-15.7669 Y-6.9186
G01 X-15.8600 Y-6.8590
G01 X-15.9258 Y-6.7843
G01 X-15.9731 Y-6.6844
G00 Z2.0000
G00 X-19.8657 Y-7.2616
G01 F60.00
G01 Z-0.0250
G01 F120.00
G01 X-19.7496 Y-7.2609
G01 X-19.4973 Y-7.3986
G01 X-19.4959 Y-7.5970
G01 X-19.4838 Y-7.7569
G01 X-19.4565 Y-7.9273
G01 X-19.4161 Y-8.0900
G01 X-19.8254 Y-8.0900
G01 X-19.8600 Y-8.0809
G01 X-19.8657 Y-7.2616
G01 X-20.1626 Y-7.0185
G01 X-20.1460 Y-6.9910
G01 X-19.6717 Y-6.9883
G01 X-19.4615 Y-7.1130
G01 X-19.2251 Y-7.2212
G01 X-19.2232 Y-7.6027
G01 X-19.1947 Y-7.8484
G01 X-19.1629 Y-7.9854
G01 X-19.1207 Y-8.1176
G01 X-19.0712 Y-8.2396
G01 X-19.0100 Y-8.3622
G01 X-19.8635 Y-8.3622
G01 X-20.0026 Y-8.3267
G01 X-20.1374 Y-8.3034
G01 X-20.1377 Y-7.2712
G01 X-20.1458 Y-7.1377
G01 X-20.1626 Y-7.0185
G01 X-20.4535 Y-6.9632
G01 X-20.3731 Y-6.8405
G01 X-20.3078 Y-6.7156
G01 X-19.5863 Y-6.7156
G01 X-19.4764 Y-6.7900
G01 X-19.3046 Y-6.8874
G01 X-19.1394 Y-6.9625
G01 X-18.9400 Y-7.0314
G01 X-18.9526 Y-7.1961
G01 X-18.9527 Y-7.5514
G01 X-18.9445 Y-7.6819
G01 X-18.9234 Y-7.8174
G01 X-18.8772 Y-7.9896
G01 X-18.8079 Y-8.1604
G01 X-18.7196 Y-8.3182
G01 X-18.6171 Y-8.4584
G01 X-18.6165 Y-8.6344
G01 X-19.9052 Y-8.6344
G01 X-20.0358 Y-8.5981
G01 X-20.1624 Y-8.5748
G01 X-20.4096 Y-8.5596
G01 X-20.4098 Y-7.2800
G01 X-20.4181 Y-7.1511
G01 X-20.4376 Y-7.0303
G01 X-20.4535 Y-6.9632
G01 X-20.7587 Y-6.9070
G01 X-20.6670 Y-6.7940
G01 X-20.5948 Y-6.6801
G01 X-20.5377 Y-6.5628
G01 X-20.4927 Y-6.4363
G01 X-20.3567 Y-6.4434
G01 X-19.4959 Y-6.4435
G01 X-19.3796 Y-6.5289
G01 X-19.2620 Y-6.6012
G01 X-19.0707 Y-6.6964
G01 X-18.8658 Y-6.7695
G01 X-18.7259 Y-6.8044
G01 X-18.6111 Y-6.8237
G01 X-18.6558 Y-6.9824
G01 X-18.6776 Y-7.1391
G01 X-18.6807 Y-7.5350
G01 X-18.6713 Y-7.6746
G01 X-18.6313 Y-7.8650
G01 X-18.5607 Y-8.0463
G01 X-18.4683 Y-8.2045
G01 X-18.3436 Y-8.3562
G01 X-18.3435 Y-8.9065
G01 X-19.9509 Y-8.9065
G01 X-20.1004 Y-8.8626
G01 X-20.2465 Y-8.8384
G01 X-20.6817 Y-8.8317
G01 X-20.6818 Y-7.2933
G01 X-20.6987 Y-7.1129
G01 X-20.7238 Y-7.0068
G01 X-20.7587 Y-6.9070
G01 X-21.0537 Y-6.9207
G01 X-21.0537 Y-6.8124
G01 X-21.0480 Y-6.8077
G01 X-21.0429 Y-6.8034
G01 X-21.0345 Y-6.7962
G01 X-21.0136 Y-6.7774
G01 X-20.9815 Y-6.7466
G01 X-20.9171 Y-6.6739
G01 X-20.8584 Y-6.5911
G01 X-20.8096 Y-6.5034
G01 X-20.7729 Y-6.4172
G01 X-20.7416 Y-6.3134
G01 X-20.7237 Y-6.2146
G01 X-20.7165 Y-6.1123
G01 X-20.5654 Y-6.1513
G01 X-20.3862 Y-6.1705
G01 X-19.3957 Y-6.1713
G01 X-19.2430 Y-6.2924
G01 X-19.1023 Y-6.3792
G01 X-18.9574 Y-6.4489
G01 X-18.7997 Y-6.5053
G01 X-18.6499 Y-6.5422
G01 X-18.4796 Y-6.5655
G01 X-18.3222 Y-6.5706
G01 X-18.1171 Y-6.5528
G01 X-18.1952 Y-6.6355
G01 X-18.2684 Y-6.7367
G01 X-18.3287 Y-6.8500
G01 X-18.3708 Y-6.9640
G01 X-18.3934 Y-7.0584
G01 X-18.4064 Y-7.1625
G01 X-18.4086 Y-7.5317
G01 X-18.4027 Y-7.6286
G01 X-18.3850 Y-7.7319
G01 X-18.3571 Y-7.8283
G01 X-18.3169 Y-7.9254
G01 X-18.2666 Y-8.0161
G01 X-18.2079 Y-8.0989
G01 X-18.1435 Y-8.1716
G01 X-18.0714 Y-8.2373
G01 X-18.0713 Y-9.1648
G01 X-18.0852 Y-9.1787
G01 X-20.0015 Y-9.1787
G01 X-20.1584 Y-9.1285
G01 X-20.3142 Y-9.1060
G01 X-20.7973 Y-9.1042
G01 X-20.9637 Y-9.1225
G01 X-20.9539 Y-9.0000
G01 X-20.9546 Y-7.2688
G01 X-20.9633 Y-7.1803
G01 X-20.9834 Y-7.0890
G01 X-21.0152 Y-6.9988
G01 X-21.0537 Y-6.9207
G01 X-20.9886 Y-5.7968
G01 X-20.7622 Y-5.7990
G01 X-20.6046 Y-5.8623
G01 X-20.5189 Y-5.8831
G01 X-20.4137 Y-5.8966
G01 X-19.2868 Y-5.8992
G01 X-19.1547 Y-6.0192
G01 X-19.0661 Y-6.0837
G01 X-18.9405 Y-6.1566
G01 X-18.8409 Y-6.2026
G01 X-18.7207 Y-6.2449
G01 X-18.5968 Y-6.2752
G01 X-18.4707 Y-6.2933
G01 X-18.3433 Y-6.2989
G01 X-18.2293 Y-6.2933
G01 X-18.1032 Y-6.2752
G01 X-17.9901 Y-6.2479
G01 X-17.8591 Y-6.2026
G01 X-17.7535 Y-6.1537
G01 X-17.5892 Y-6.0517
G01 X-17.5892 Y-6.5842
G01 X-17.6823 Y-6.6060
G01 X-17.7875 Y-6.6496
G01 X-17.8681 Y-6.6995
G01 X-17.9510 Y-6.7709
G01 X-18.0169 Y-6.8498
G01 X-18.0708 Y-6.9410
G01 X-18.1104 Y-7.0430
G01 X-18.1326 Y-7.1548
G01 X-18.1351 Y-7.5642
G01 X-18.1252 Y-7.6450
G01 X-18.1008 Y-7.7366
G01 X-18.0566 Y-7.8368
G01 X-17.9849 Y-7.9418
G01 X-17.8940 Y-8.0308
G01 X-17.7992 Y-8.0942
G01 X-17.7992 Y-9.2776
G01 X-17.9724 Y-9.4508
G01 X-20.0607 Y-9.4508
G01 X-20.1785 Y-9.4043
G01 X-20.3131 Y-9.3788
G01 X-20.8191 Y-9.3776
G01 X-20.9715 Y-9.4043
G01 X-21.0986 Y-9.4555
G01 X-21.2235 Y-9.5390
G01 X-21.3258 Y-9.6450
G01 X-21.3258 Y-9.2993
G01 X-21.2819 Y-9.2293
G01 X-21.2530 Y-9.1618
G01 X-21.2325 Y-9.0798
G01 X-21.2260 Y-9.0000
G01 X-21.2264 Y-7.2822
G01 X-21.2344 Y-7.2092
G01 X-21.2530 Y-7.1382
G01 X-21.2819 Y-7.0707
G01 X-21.3258 Y-7.0007
G01 X-21.3258 Y-6.6692
G01 X-21.2310 Y-6.6058
G01 X-21.1518 Y-6.5302
G01 X-21.0883 Y-6.4455
G01 X-21.0355 Y-6.3421
G01 X-21.0185 Y-6.2948
G01 X-21.0146 Y-6.2820
G01 X-21.0117 Y-6.2712
G01 X-21.0064 Y-6.2505
G01 X-20.9911 Y-6.1570
G01 X-20.9886 Y-5.7968
G00 X-20.9886 Y-5.7968
G01 F60.00
G01 Z-0.0500
G01 F120.00
G01 X-20.9911 Y-6.1570
G01 X-21.0064 Y-6.2505
G01 X-21.0117 Y-6.2712
G01 X-21.0146 Y-6.2820
G01 X-21.0185 Y-6.2948
G01 X-21.0355 Y-6.3421
G01 X-21.0883 Y-6.4455
G01 X-21.1518 Y-6.5302
G01 X-21.2310 Y-6.6058
G01 X-21.3258 Y-6.6692
G01 X-21.3258 Y-7.0007
G01 X-21.2819 Y-7.0707
G01 X-21.2530 Y-7.1382
G01 X-21.2344 Y-7.2092
G01 X-21.2264 Y-7.2822
G01 X-21.2260 Y-9.0000
G01 X-21.2325 Y-9.0798
G01 X-21.2530 Y-9.1618
G01 X-21.2819 Y-9.2293
G01 X-21.3258 Y-9.2993
G01 X-21.3258 Y-9.6450
G01 X-21.2235 Y-9.5390
G01 X-21.0986 Y-9.4555
G01 X-20.9715 Y-9.4043
G01 X-20.8191 Y-9.3776
G01 X-20.3131 Y-9.3788
G01 X-20.1785 Y-9.4043
G01 X-20.0607 Y-9.4508
G01 X-17.9724 Y-9.4508
G01 X-17.7992 Y-9.2776
G01 X-17.7992 Y-8.0942
G01 X-17.8940 Y-8.0308
G01 X-17.9849 Y-7.9418
G01 X-18.0566 Y-7.8368
G01 X-18.1008 Y-7.7366
G01 X-18.1252 Y-7.6450
G01 X-18.1351 Y-7.5642
G01 X-18.1326 Y-7.1548
G01 X-18.1104 Y-7.0430
G01 X-18.0708 Y-6.9410
G01 X-18.0169 Y-6.8498
G01 X-17.9510 Y-6.7709
G01 X-17.8681 Y-6.6995
G01 X-17.7875 Y-6.6496
G01 X-17.6823 Y-6.6060
G01 X-17.5892 Y-6.5842
G01 X-17.5892 Y-6.0517
G01 X-17.7535 Y-6.1537
G01 X-17.8591 Y-6.2026
G01 X-17.9901 Y-6.2479
G01 X-18.1032 Y-6.2752
G01 X-18.2293 Y-6.2933
G01 X-18.3433 Y-6.2989
G01 X-18.4707 Y-6.2933
G01 X-18.5968 Y-6.2752
G01 X-18.7207 Y-6.2449
G01 X-18.8409 Y-6.2026
G01 X-18.9405 Y-6.1566
G01 X-19.0661 Y-6.0837
G01 X-19.1547 Y-6.0192
G01 X-19.2868 Y-5.8992
G01 X-20.4137 Y-5.8966
G01 X-20.5189 Y-5.8831
G01 X-20.6046 Y-5.8623
G01 X-20.7622 Y-5.7990
G01 X-20.9886 Y-5.7968
G01 X-21.0537 Y-6.9207
G01 X-21.0152 Y-6.9988
G01 X-20.9834 Y-7.0890
G01 X-20.9633 Y-7.1803
G01 X-20.9546 Y-7.2688
G01 X-20.9539 Y-9.0000
G01 X-20.9637 Y-9.1225
G01 X-20.7973 Y-9.1042
G01 X-20.3142 Y-9.1060
G01 X-20.1584 Y-9.1285
G01 X-20.0015 Y-9.1787
G01 X-18.0852 Y-9.1787
G01 X-18.0713 Y-9.1648
G01 X-18.0714 Y-8.2373
G01 X-18.1435 Y-8.1716
G01 X-18.2079 Y-8.0989
G01 X-18.2666 Y-8.0161
G01 X-18.3169 Y-7.9254
G01 X-18.3571 Y-7.8283
G01 X-18.3850 Y-7.7319
G01 X-18.4027 Y-7.6286
G01 X-18.4086 Y-7.5317
G01 X-18.4064 Y-7.1625
G01 X-18.3934 Y-7.0584
G01 X-18.3708 Y-6.9640
G01 X-18.3287 Y-6.8500
G01 X-18.2684 Y-6.7367
G01 X-18.1952 Y-6.6355
G01 X-18.1171 Y-6.5528
G01 X-18.3222 Y-6.5706
G01 X-18.4796 Y-6.5655
G01 X-18.6499 Y-6.5422
G01 X-18.7997 Y-6.5053
G01 X-18.9574 Y-6.4489
G01 X-19.1023 Y-6.3792
G01 X-19.2430 Y-6.2924
G01 X-19.3957 Y-6.1713
G01 X-20.3862 Y-6.1705
G01 X-20.5654 Y-6.1513
G01 X-20.7165 Y-6.1123
G01 X-20.7237 Y-6.2146
G01 X-20.7416 Y-6.3134
G01 X-20.7729 Y-6.4172
G01 X-20.8096 Y-6.5034
G01 X-20.8584 Y-6.5911
G01 X-20.9171 Y-6.6739
G01 X-20.9815 Y-6.7466
G01 X-21.0136 Y-6.7774
G01 X-21.0345 Y-6.7962
G01 X-21.0429 Y-6.8034
G01 X-21.0480 Y-6.8077
G01 X-21.0537 Y-6.8124
G01 X-21.0537 Y-6.9207
G01 X-20.7587 Y-6.9070
G01 X-20.7238 Y-7.0068
G01 X-20.6987 Y-7.1129
G01 X-20.6818 Y-7.2933
G01 X-20.6817 Y-8.8317
G01 X-20.2465 Y-8.8384
G01 X-20.1004 Y-8.8626
G01 X-19.9509 Y-8.9065
G01 X-18.3435 Y-8.9065
G01 X-18.3436 Y-8.3562
G01 X-18.4683 Y-8.2045
G01 X-18.5607 Y-8.0463
G01 X-18.6313 Y-7.8650
G01 X-18.6713 Y-7.6746
G01 X-18.6807 Y-7.5350
G01 X-18.6776 Y-7.1391
G01 X-18.6558 Y-6.9824
G01 X-18.6111 Y-6.8237
G01 X-18.7259 Y-6.8044
G01 X-18.8658 Y-6.7695
G01 X-19.0707 Y-6.6964
G01 X-19.2620 Y-6.6012
G01 X-19.3796 Y-6.5289
G01 X-19.4959 Y-6.4435
G01 X-20.3567 Y-6.4434
G01 X-20.4927 Y-6.4363
G01 X-20.5377 Y-6.5628
G01 X-20.5948 Y-6.6801
G01 X-20.6670 Y-6.7940
G01 X-20.7587 Y-6.9070
G01 X-20.4535 Y-6.9632
G01 X-20.4376 Y-7.0303
G01 X-20.4181 Y-7.1511
G01 X-20.4098 Y-7.2800
G01 X-20.4096 Y-8.5596
G01 X-20.1624 Y-8.5748
G01 X-20.0358 Y-8.5981
G01 X-19.9052 Y-8.6344
G01 X-18.6165 Y-8.6344
G01 X-18.6171 Y-8.4584
G01 X-18.7196 Y-8.3182
G01 X-18.8079 Y-8.1604
G01 X-18.8772 Y-7.9896
G01 X-18.9234 Y-7.8174
G01 X-18.9445 Y-7.6819
G01 X-18.9527 Y-7.5514
G01 X-18.9526 Y-7.1961
G01 X-18.9400 Y-7.0314
G01 X-19.1394 Y-6.9625
G01 X-19.3046 Y-6.8874
G01 X-19.4764 Y-6.7900
G01 X-19.5863 Y-6.7156
G01 X-20.3078 Y-6.7156
G01 X-20.3731 Y-6.8405
G01 X-20.4535 Y-6.9632
G01 X-20.1626 Y-7.0185
G01 X-20.1458 Y-7.1377
G01 X-20.1377 Y-7.2712
G01 X-20.1374 Y-8.3034
G01 X-20.0026 Y-8.3267
G01 X-19.8635 Y-8.3622
G01 X-19.0100 Y-8.3622
G01 X-19.0712 Y-8.2396
G01 X-19.1207 Y-8.1176
G01 X-19.1629 Y-7.9854
G01 X-19.1947 Y-7.8484
G01 X-19.2232 Y-7.6027
G01 X-19.2251 Y-7.2212
G01 X-19.4615 Y-7.1130
G01 X-19.6717 Y-6.9883
G01 X-20.1460 Y-6.9910
G01 X-20.1626 Y-7.0185
G01 X-19.8657 Y-7.2616
G01 X-19.8600 Y-8.0809
G01 X-19.8254 Y-8.0900
G01 X-19.4161 Y-8.0900
G01 X-19.4565 Y-7.9273
G01 X-19.4838 Y-7.7569
G01 X-19.4959 Y-7.5970
G01 X-19.4973 Y-7.3986
G01 X-19.7496 Y-7.2609
G01 X-19.8657 Y-7.2616
G00 X-19.8657 Y-7.2616
G01 F60.00
G01 Z-0.0750
G01 F120.00
G01 X-19.7496 Y-7.2609
G01 X-19.4973 Y-7.3986
G01 X-19.4959 Y-7.5970
G01 X-19.4838 Y-7.7569
G01 X-19.4565 Y-7.9273
G01 X-19.4161 Y-8.0900
G01 X-19.8254 Y-8.0900
G01 X-19.8600 Y-8.0809
G01 X-19.8657 Y-7.2616
G01 X-20.1626 Y-7.0185
G01 X-20.1460 Y-6.9910
G01 X-19.6717 Y-6.9883
G01 X-19.4615 Y-7.1130
G01 X-19.2251 Y-7.2212
G01 X-19.2232 Y-7.6027
G01 X-19.1947 Y-7.8484
G01 X-19.1629 Y-7.9854
G01 X-19.1207 Y-8.1176
G01 X-19.0712 Y-8.2396
G01 X-19.0100 Y-8.3622
G01 X-19.8635 Y-8.3622
G01 X-20.0026 Y-8.3267
G01 X-20.1374 Y-8.3034
G01 X-20.1377 Y-7.2712
G01 X-20.1458 Y-7.1377
G01 X-20.1626 Y-7.0185
G01 X-20.4535 Y-6.9632
G01 X-20.3731 Y-6.8405
G01 X-20.3078 Y-6.7156
G01 X-19.5863 Y-6.7156
G01 X-19.4764 Y-6.7900
G01 X-19.3046 Y-6.8874
G01 X-19.1394 Y-6.9625
G01 X-18.9400 Y-7.0314
G01 X-18.9526 Y-7.1961
G01 X-18.9527 Y-7.5514
G01 X-18.9445 Y-7.6819
G01 X-18.9234 Y-7.8174
G01 X-18.8772 Y-7.9896
G01 X-18.8079 Y-8.1604
G01 X-18.7196 Y-8.3182
G01 X-18.6171 Y-8.4584
G01 X-18.6165 Y-8.6344
G01 X-19.9052 Y-8.6344
G01 X-20.0358 Y-8.5981
G01 X-20.1624 Y-8.5748
G01 X-20.4096 Y-8.5596
G01 X-20.4098 Y-7.2800
G01 X-20.4181 Y-7.1511
G01 X-20.4376 Y-7.0303
G01 X-20.4535 Y-6.9632
G01 X-20.7587 Y-6.9070
G01 X-20.6670 Y-6.7940
G01 X-20.5948 Y-6.6801
G01 X-20.5377 Y-6.5628
G01 X-20.4927 Y-6.4363
G01 X-20.3567 Y-6.4434
G01 X-19.4959 Y-6.4435
G01 X-19.3796 Y-6.5289
G01 X-19.2620 Y-6.6012
G01 X-19.0707 Y-6.6964
G01 X-18.8658 Y-6.7695
G01 X-18.7259 Y-6.8044
G01 X-18.6111 Y-6.8237
G01 X-18.6558 Y-6.9824
G01 X-18.6776 Y-7.1391
G01 X-18.6807 Y-7.5350
G01 X-18.6713 Y-7.6746
G01 X-18.6313 Y-7.8650
G01 X-18.5607 Y-8.0463
G01 X-18.4683 Y-8.2045
G01 X-18.3436 Y-8.3562
G01 X-18.3435 Y-8.9065
G01 X-19.9509 Y-8.9065
G01 X-20.1004 Y-8.8626
G01 X-20.2465 Y-8.8384
G01 X-20.6817 Y-8.8317
G01 X-20.6818 Y-7.2933
G01 X-20.6987 Y-7.1129
G01 X-20.7238 Y-7.0068
G01 X-20.7587 Y-6.9070
G01 X-21.0537 Y-6.9207
G01 X-21.0537 Y-6.8124
G01 X-21.0480 Y-6.8077
G01 X-21.0429 Y-6.8034
G01 X-21.0345 Y-6.7962
G01 X-21.0136 Y-6.7774
G01 X-20.9815 Y-6.7466
G01 X-20.9171 Y-6.6739
G01 X-20.8584 Y-6.5911
G01 X-20.8096 Y-6.5034
G01 X-20.7729 Y-6.4172
G01 X-20.7416 Y-6.3134
G01 X-20.7237 Y-6.2146
G01 X-20.7165 Y-6.1123
G01 X-20.5654 Y-6.1513
G01 X-20.3862 Y-6.1705
G01 X-19.3957 Y-6.1713
G01 X-19.2430 Y-6.2924
G01 X-19.1023 Y-6.3792
G01 X-18.9574 Y-6.4489
G01 X-18.7997 Y-6.5053
G01 X-18.6499 Y-6.5422
G01 X-18.4796 Y-6.5655
G01 X-18.3222 Y-6.5706
G01 X-18.1171 Y-6.5528
G01 X-18.1952 Y-6.6355
G01 X-18.2684 Y-6.7367
G01 X-18.3287 Y-6.8500
G01 X-18.3708 Y-6.9640
G01 X-18.3934 Y-7.0584
G01 X-18.4064 Y-7.1625
G01 X-18.4086 Y-7.5317
G01 X-18.4027 Y-7.6286
G01 X-18.3850 Y-7.7319
G01 X-18.3571 Y-7.8283
G01 X-18.3169 Y-7.9254
G01 X-18.2666 Y-8.0161
G01 X-18.2079 Y-8.0989
G01 X-18.1435 Y-8.1716
G01 X-18.0714 Y-8.2373
G01 X-18.0713 Y-9.1648
G01 X-18.0852 Y-9.1787
G01 X-20.0015 Y-9.1787
G01 X-20.1584 Y-9.1285
G01 X-20.3142 Y-9.1060
G01 X-20.7973 Y-9.1042
G01 X-20.9637 Y-9.1225
G01 X-20.9539 Y-9.0000
G01 X-20.9546 Y-7.2688
G01 X-20.9633 Y-7.1803
G01 X-20.9834 Y-7.0890
G01 X-21.0152 Y-6.9988
G01 X-21.0537 Y-6.9207
G01 X-20.9886 Y-5.7968
G01 X-20.7622 Y-5.7990
G01 X-20.6046 Y-5.8623
G01 X-20.5189 Y-5.8831
G01 X-20.4137 Y-5.8966
G01 X-19.2868 Y-5.8992
G01 X-19.1547 Y-6.0192
G01 X-19.0661 Y-6.0837
G01 X-18.9405 Y-6.1566
G01 X-18.8409 Y-6.2026
G01 X-18.7207 Y-6.2449
G01 X-18.5968 Y-6.2752
G01 X-18.4707 Y-6.2933
G01 X-18.3433 Y-6.2989
G01 X-18.2293 Y-6.2933
G01 X-18.1032 Y-6.2752
G01 X-17.9901 Y-6.2479
G01 X-17.8591 Y-6.2026
G01 X-17.7535 Y-6.1537
G01 X-17.5892 Y-6.0517
G01 X-17.5892 Y-6.5842
G01 X-17.6823 Y-6.6060
G01 X-17.7875 Y-6.6496
G01 X-17.8681 Y-6.6995
G01 X-17.9510 Y-6.7709
G01 X-18.0169 Y-6.8498
G01 X-18.0708 Y-6.9410
G01 X-18.1104 Y-7.0430
G01 X-18.1326 Y-7.1548
G01 X-18.1351 Y-7.5642
G01 X-18.1252 Y-7.6450
G01 X-18.1008 Y-7.7366
G01 X-18.0566 Y-7.8368
G01 X-17.9849 Y-7.9418
G01 X-17.8940 Y-8.0308
G01 X-17.7992 Y-8.0942
G01 X-17.7992 Y-9.2776
G01 X-17.9724 Y-9.4508
G01 X-20.0607 Y-9.4508
G01 X-20.1785 Y-9.4043
G01 X-20.3131 Y-9.3788
G01 X-20.8191 Y-9.3776
G01 X-20.9715 Y-9.4043
G01 X-21.0986 Y-9.4555
G01 X-21.2235 Y-9.5390
G01 X-21.3258 Y-9.6450
G01 X-21.3258 Y-9.2993
G01 X-21.2819 Y-9.2293
G01 X-21.2530 Y-9.1618
G01 X-21.2325 Y-9.0798
G01 X-21.2260 Y-9.0000
G01 X-21.2264 Y-7.2822
G01 X-21.2344 Y-7.2092
G01 X-21.2530 Y-7.1382
G01 X-21.2819 Y-7.0707
G01 X-21.3258 Y-7.0007
G01 X-21.3258 Y-6.6692
G01 X-21.2310 Y-6.6058
G01 X-21.1518 Y-6.5302
G01 X-21.0883 Y-6.4455
G01 X-21.0355 Y-6.3421
G01 X-21.0185 Y-6.2948
G01 X-21.0146 Y-6.2820
G01 X-21.0117 Y-6.2712
G01 X-21.0064 Y-6.2505
G01 X-20.9911 Y-6.1570
G01 X-20.9886 Y-5.7968
G00 X-20.9886 Y-5.7968
G01 F60.00
G01 Z-0.1000
G01 F120.00
G01 X-20.9911 Y-6.1570
G01 X-21.0064 Y-6.2505
G01 X-21.0117 Y-6.2712
G01 X-21.0146 Y-6.2820
G01 X-21.0185 Y-6.2948
G01 X-21.0355 Y-6.3421
G01 X-21.0883 Y-6.4455
G01 X-21.1518 Y-6.5302
G01 X-21.2310 Y-6.6058
G01 X-21.3258 Y-6.6692
G01 X-21.3258 Y-7.0007
G01 X-21.2819 Y-7.0707
G01 X-21.2530 Y-7.1382
G01 X-21.2344 Y-7.2092
G01 X-21.2264 Y-7.2822
G01 X-21.2260 Y-9.0000
G01 X-21.2325 Y-9.0798
G01 X-21.2530 Y-9.1618
G01 X-21.2819 Y-9.2293
G01 X-21.3258 Y-9.2993
G01 X-21.3258 Y-9.6450
G01 X-21.2235 Y-9.5390
G01 X-21.0986 Y-9.4555
G01 X-20.9715 Y-9.4043
G01 X-20.8191 Y-9.3776
G01 X-20.3131 Y-9.3788
G01 X-20.1785 Y-9.4043
G01 X-20.0607 Y-9.4508
G01 X-17.9724 Y-9.4508
G01 X-17.7992 Y-9.2776
G01 X-17.7992 Y-8.0942
G01 X-17.8940 Y-8.0308
G01 X-17.9849 Y-7.9418
G01 X-18.0566 Y-7.8368
G01 X-18.1008 Y-7.7366
G01 X-18.1252 Y-7.6450
G01 X-18.1351 Y-7.5642
G01 X-18.1326 Y-7.1548
G01 X-18.1104 Y-7.0430
G01 X-18.0708 Y-6.9410
G01 X-18.0169 Y-6.8498
G01 X-17.9510 Y-6.7709
G01 X-17.8681 Y-6.6995
G01 X-17.7875 Y-6.6496
G01 X-17.6823 Y-6.6060
G01 X-17.5892 Y-6.5842
G01 X-17.5892 Y-6.0517
G01 X-17.7535 Y-6.1537
G01 X-17.8591 Y-6.2026
G01 X-17.9901 Y-6.2479
G01 X-18.1032 Y-6.2752
G01 X-18.2293 Y-6.2933
G01 X-18.3433 Y-6.2989
G01 X-18.4707 Y-6.2933
G01 X-18.5968 Y-6.2752
G01 X-18.7207 Y-6.2449
G01 X-18.8409 Y-6.2026
G01 X-18.9405 Y-6.1566
G01 X-19.0661 Y-6.0837
G01 X-19.1547 Y-6.0192
G01 X-19.2868 Y-5.8992
G01 X-20.4137 Y-5.8966
G01 X-20.5189 Y-5.8831
G01 X-20.6046 Y-5.8623
G01 X-20.7622 Y-5.7990
G01 X-20.9886 Y-5.7968
G01 X-21.0537 Y-6.9207
G01 X-21.0152 Y-6.9988
G01 X-20.9834 Y-7.0890
G01 X-20.9633 Y-7.1803
G01 X-20.9546 Y-7.2688
G01 X-20.9539 Y-9.0000
G01 X-20.9637 Y-9.1225
G01 X-20.7973 Y-9.1042
G01 X-20.3142 Y-9.1060
G01 X-20.1584 Y-9.1285
G01 X-20.0015 Y-9.1787
G01 X-18.0852 Y-9.1787
G01 X-18.0713 Y-9.1648
G01 X-18.0714 Y-8.2373
G01 X-18.1435 Y-8.1716
G01 X-18.2079 Y-8.0989
G01 X-18.2666 Y-8.0161
G01 X-18.3169 Y-7.9254
G01 X-18.3571 Y-7.8283
G01 X-18.3850 Y-7.7319
G01 X-18.4027 Y-7.6286
G01 X-18.4086 Y-7.5317
G01 X-18.4064 Y-7.1625
G01 X-18.3934 Y-7.0584
G01 X-18.3708 Y-6.9640
G01 X-18.3287 Y-6.8500
G01 X-18.2684 Y-6.7367
G01 X-18.1952 Y-6.6355
G01 X-18.1171 Y-6.5528
G01 X-18.3222 Y-6.5706
G01 X-18.4796 Y-6.5655
G01 X-18.6499 Y-6.5422
G01 X-18.7997 Y-6.5053
G01 X-18.9574 Y-6.4489
G01 X-19.1023 Y-6.3792
G01 X-19.2430 Y-6.2924
G01 X-19.3957 Y-6.1713
G01 X-20.3862 Y-6.1705
G01 X-20.5654 Y-6.1513
G01 X-20.7165 Y-6.1123
G01 X-20.7237 Y-6.2146
G01 X-20.7416 Y-6.3134
G01 X-20.7729 Y-6.4172
G01 X-20.8096 Y-6.5034
G01 X-20.8584 Y-6.5911
G01 X-20.9171 Y-6.6739
G01 X-20.9815 Y-6.7466
G01 X-21.0136 Y-6.7774
G01 X-21.0345 Y-6.7962
G01 X-21.0429 Y-6.8034
G01 X-21.0480 Y-6.8077
G01 X-21.0537 Y-6.8124
G01 X-21.0537 Y-6.9207
G01 X-20.7587 Y-6.9070
G01 X-20.7238 Y-7.0068
G01 X-20.6987 Y-7.1129
G01 X-20.6818 Y-7.2933
G01 X-20.6817 Y-8.8317
G01 X-20.2465 Y-8.8384
G01 X-20.1004 Y-8.8626
G01 X-19.9509 Y-8.9065
G01 X-18.3435 Y-8.9065
G01 X-18.3436 Y-8.3562
G01 X-18.4683 Y-8.2045
G01 X-18.5607 Y-8.0463
G01 X-18.6313 Y-7.8650
G01 X-18.6713 Y-7.6746
G01 X-18.6807 Y-7.5350
G01 X-18.6776 Y-7.1391
G01 X-18.6558 Y-6.9824
G01 X-18.6111 Y-6.8237
G01 X-18.7259 Y-6.8044
G01 X-18.8658 Y-6.7695
G01 X-19.0707 Y-6.6964
G01 X-19.2620 Y-6.6012
G01 X-19.3796 Y-6.5289
G01 X-19.4959 Y-6.4435
G01 X-20.3567 Y-6.4434
G01 X-20.4927 Y-6.4363
G01 X-20.5377 Y-6.5628
G01 X-20.5948 Y-6.6801
G01 X-20.6670 Y-6.7940
G01 X-20.7587 Y-6.9070
G01 X-20.4535 Y-6.9632
G01 X-20.4376 Y-7.0303
G01 X-20.4181 Y-7.1511
G01 X-20.4098 Y-7.2800
G01 X-20.4096 Y-8.5596
G01 X-20.1624 Y-8.5748
G01 X-20.0358 Y-8.5981
G01 X-19.9052 Y-8.6344
G01 X-18.6165 Y-8.6344
G01 X-18.6171 Y-8.4584
G01 X-18.7196 Y-8.3182
G01 X-18.8079 Y-8.1604
G01 X-18.8772 Y-7.9896
G01 X-18.9234 Y-7.8174
G01 X-18.9445 Y-7.6819
G01 X-18.9527 Y-7.5514
G01 X-18.9526 Y-7.1961
G01 X-18.9400 Y-7.0314
G01 X-19.1394 Y-6.9625
G01 X-19.3046 Y-6.8874
G01 X-19.4764 Y-6.7900
G01 X-19.5863 Y-6.7156
G01 X-20.3078 Y-6.7156
G01 X-20.3731 Y-6.8405
G01 X-20.4535 Y-6.9632
G01 X-20.1626 Y-7.0185
G01 X-20.1458 Y-7.1377
G01 X-20.1377 Y-7.2712
G01 X-20.1374 Y-8.3034
G01 X-20.0026 Y-8.3267
G01 X-19.8635 Y-8.3622
G01 X-19.0100 Y-8.3622
G01 X-19.0712 Y-8.2396
G01 X-19.1207 Y-8.1176
G01 X-19.1629 Y-7.9854
G01 X-19.1947 Y-7.8484
G01 X-19.2232 Y-7.6027
G01 X-19.2251 Y-7.2212
G01 X-19.4615 Y-7.1130
G01 X-19.6717 Y-6.9883
G01 X-20.1460 Y-6.9910
G01 X-20.1626 Y-7.0185
G01 X-19.8657 Y-7.2616
G01 X-19.8600 Y-8.0809
G01 X-19.8254 Y-8.0900
G01 X-19.4161 Y-8.0900
G01 X-19.4565 Y-7.9273
G01 X-19.4838 Y-7.7569
G01 X-19.4959 Y-7.5970
G01 X-19.4973 Y-7.3986
G01 X-19.7496 Y-7.2609
G01 X-19.8657 Y-7.2616
G00 Z2.0000
G00 X-20.6897 Y-5.5268
G01 F60.00
G01 Z-0.0250
G01 F120.00
G01 X-20.6356 Y-5.5580
G01 X-20.5426 Y-5.5965
G01 X-20.4004 Y-5.6248
G01 X-19.1622 Y-5.6270
G01 X-19.0761 Y-5.7261
G01 X-18.9926 Y-5.8006
G01 X-18.8437 Y-5.9001
G01 X-18.7326 Y-5.9526
G01 X-18.5612 Y-6.0046
G01 X-18.4506 Y-6.0219
G01 X-18.2605 Y-6.0227
G01 X-18.1497 Y-6.0071
G01 X-17.9571 Y-5.9486
G01 X-17.7795 Y-5.8538
G01 X-17.6239 Y-5.7261
G01 X-17.4962 Y-5.5705
G01 X-17.4014 Y-5.3929
G01 X-17.3429 Y-5.2003
G01 X-17.3232 Y-5.0000
G01 X-17.3429 Y-4.7997
G01 X-17.3974 Y-4.6174
G01 X-17.4499 Y-4.5063
G01 X-17.5563 Y-4.3486
G01 X-17.6902 Y-4.2135
G01 X-17.7889 Y-4.1403
G01 X-17.9571 Y-4.0514
G01 X-18.1388 Y-3.9954
G01 X-18.2494 Y-3.9781
G01 X-18.3500 Y-3.9732
G01 X-18.4617 Y-3.9795
G01 X-18.6373 Y-4.0144
G01 X-18.7429 Y-4.0514
G01 X-18.8437 Y-4.0999
G01 X-18.9926 Y-4.1994
G01 X-19.0761 Y-4.2739
G01 X-19.1622 Y-4.3730
G01 X-20.4004 Y-4.3752
G01 X-20.5426 Y-4.4035
G01 X-20.6356 Y-4.4420
G01 X-20.6897 Y-4.4732
G01 X-20.9633 Y-4.4742
G01 X-21.0713 Y-4.4979
G01 X-21.1468 Y-4.5367
G01 X-21.2116 Y-4.5916
G01 X-21.2643 Y-4.6627
G01 X-21.2981 Y-4.7406
G01 X-21.3140 Y-4.8389
G01 X-21.3142 Y-5.1556
G01 X-21.3071 Y-5.2235
G01 X-21.2896 Y-5.2838
G01 X-21.2508 Y-5.3593
G01 X-21.2039 Y-5.4164
G01 X-21.1468 Y-5.4633
G01 X-21.0817 Y-5.4981
G01 X-20.9633 Y-5.5258
G01 X-20.6897 Y-5.5268
G00 X-20.6897 Y-5.5268
G01 F60.00
G01 Z-0.0500
G01 F120.00
G01 X-20.9633 Y-5.5258
G01 X-21.0817 Y-5.4981
G01 X-21.1468 Y-5.4633
G01 X-21.2039 Y-5.4164
G01 X-21.2508 Y-5.3593
G01 X-21.2896 Y-5.2838
G01 X-21.3071 Y-5.2235
G01 X-21.3142 Y-5.1556
G01 X-21.3140 Y-4.8389
G01 X-21.2981 Y-4.7406
G01 X-21.2643 Y-4.6627
G01 X-21.2116 Y-4.5916
G01 X-21.1468 Y-4.5367
G01 X-21.0713 Y-4.4979
G01 X-20.9633 Y-4.4742
G01 X-20.6897 Y-4.4732
G01 X-20.6356 Y-4.4420
G01 X-20.5426 Y-4.4035
G01 X-20.4004 Y-4.3752
G01 X-19.1622 Y-4.3730
G01 X-19.0761 Y-4.2739
G01 X-18.9926 Y-4.1994
G01 X-18.8437 Y-4.0999
G01 X-18.7429 Y-4.0514
G01 X-18.6373 Y-4.0144
G01 X-18.4617 Y-3.9795
G01 X-18.3500 Y-3.9732
G01 X-18.2494 Y-3.9781
G01 X-18.1388 Y-3.9954
G01 X-17.9571 Y-4.0514
G01 X-17.7889 Y-4.1403
G01 X-17.6902 Y-4.2135
G01 X-17.5563 Y-4.3486
G01 X-17.4499 Y-4.5063
G01 X-17.3974 Y-4.6174
G01 X-17.3429 Y-4.7997
G01 X-17.3232 Y-5.0000
G01 X-17.3429 Y-5.2003
G01 X-17.4014 Y-5.3929
G01 X-17.4962 Y-5.5705
G01 X-17.6239 Y-5.7261
G01 X-17.7795 Y-5.8538
G01 X-17.9571 Y-5.9486
G01 X-18.1497 Y-6.0071
G01 X-18.2605 Y-6.0227
G01 X-18.4506 Y-6.0219
G01 X-18.5612 Y-6.0046
G01 X-18.7326 Y-5.9526
G01 X-18.8437 Y-5.9001
G01 X-18.9926 Y-5.8006
G01 X-19.0761 Y-5.7261
G01 X-19.1622 Y-5.6270
G01 X-20.4004 Y-5.6248
G01 X-20.5426 Y-5.5965
G01 X-20.6356 Y-5.5580
G01 X-20.6897 Y-5.5268
G00 X-20.6897 Y-5.5268
G01 F60.00
G01 Z-0.0750
G01 F120.00
G01 X-20.6356 Y-5.5580
G01 X-20.5426 Y-5.5965
G01 X-20.4004 Y-5.6248
G01 X-19.1622 Y-5.6270
G01 X-19.0761 Y-5.7261
G01 X-18.9926 Y-5.8006
G01 X-18.8437 Y-5.9001
G01 X-18.7326 Y-5.9526
G01 X-18.5612 Y-6.0046
G01 X-18.4506 Y-6.0219
G01 X-18.2605 Y-6.0227
G01 X-18.1497 Y-6.0071
G01 X-17.9571 Y-5.9486
G01 X-17.7795 Y-5.8538
G01 X-17.6239 Y-5.7261
G01 X-17.4962 Y-5.5705
G01 X-17.4014 Y-5.3929
G01 X-17.3429 Y-5.2003
G01 X-17.3232 Y-5.0000
G01 X-17.3429 Y-4.7997
G01 X-17.3974 Y-4.6174
G01 X-17.4499 Y-4.5063
G01 X-17.5563 Y-4.3486
G01 X-17.6902 Y-4.2135
G01 X-17.7889 Y-4.1403
G01 X-17.9571 Y-4.0514
G01 X-18.1388 Y-3.9954
G01 X-18.2494 Y-3.9781
G01 X-18.3500 Y-3.9732
G01 X-18.4617 Y-3.9795
G01 X-18.6373 Y-4.0144
G01 X-18.7429 Y-4.0514
G01 X-18.8437 Y-4.0999
G01 X-18.9926 Y-4.1994
G01 X-19.0761 Y-4.2739
G01 X-19.1622 Y-4.3730
G01 X-20.4004 Y-4.3752
G01 X-20.5426 Y-4.4035
G01 X-20.6356 Y-4.4420
G01 X-20.6897 Y-4.4732
G01 X-20.9633 Y-4.4742
G01 X-21.0713 Y-4.4979
G01 X-21.1468 Y-4.5367
G01 X-21.2116 Y-4.5916
G01 X-21.2643 Y-4.6627
G01 X-21.2981 Y-4.7406
G01 X-21.3140 Y-4.8389
G01 X-21.3142 Y-5.1556
G01 X-21.3071 Y-5.2235
G01 X-21.2896 Y-5.2838
G01 X-21.2508 Y-5.3593
G01 X-21.2039 Y-5.4164
G01 X-21.1468 Y-5.4633
G01 X-21.0817 Y-5.4981
G01 X-20.9633 Y-5.5258
G01 X-20.6897 Y-5.5268
G00 X-20.6897 Y-5.5268
G01 F60.00
G01 Z-0.1000
G01 F120.00
G01 X-20.9633 Y-5.5258
G01 X-21.0817 Y-5.4981
G01 X-21.1468 Y-5.4633
G01 X-21.2039 Y-5.4164
G01 X-21.2508 Y-5.3593
G01 X-21.2896 Y-5.2838
G01 X-21.3071 Y-5.2235
G01 X-21.3142 Y-5.1556
G01 X-21.3140 Y-4.8389
G01 X-21.2981 Y-4.7406
G01 X-21.2643 Y-4.6627
G01 X-21.2116 Y-4.5916
G01 X-21.1468 Y-4.5367
G01 X-21.0713 Y-4.4979
G01 X-20.9633 Y-4.4742
G01 X-20.6897 Y-4.4732
G01 X-20.6356 Y-4.4420
G01 X-20.5426 Y-4.4035
G01 X-20.4004 Y-4.3752
G01 X-19.1622 Y-4.3730
G01 X-19.0761 Y-4.2739
G01 X-18.9926 Y-4.1994
G01 X-18.8437 Y-4.0999
G01 X-18.7429 Y-4.0514
G01 X-18.6373 Y-4.0144
G01 X-18.4617 Y-3.9795
G01 X-18.3500 Y-3.9732
G01 X-18.2494 Y-3.9781
G01 X-18.1388 Y-3.9954
G01 X-17.9571 Y-4.0514
G01 X-17.7889 Y-4.1403
G01 X-17.6902 Y-4.2135
G01 X-17.5563 Y-4.3486
G01 X-17.4499 Y-4.5063
G01 X-17.3974 Y-4.6174
G01 X-17.3429 Y-4.7997
G01 X-17.3232 Y-5.0000
G01 X-17.3429 Y-5.2003
G01 X-17.4014 Y-5.3929
G01 X-17.4962 Y-5.5705
G01 X-17.6239 Y-5.7261
G01 X-17.7795 Y-5.8538
G01 X-17.9571 Y-5.9486
G01 X-18.1497 Y-6.0071
G01 X-18.2605 Y-6.0227
G01 X-18.4506 Y-6.0219
G01 X-18.5612 Y-6.0046
G01 X-18.7326 Y-5.9526
G01 X-18.8437 Y-5.9001
G01 X-18.9926 Y-5.8006
G01 X-19.0761 Y-5.7261
G01 X-19.1622 Y-5.6270
G01 X-20.4004 Y-5.6248
G01 X-20.5426 Y-5.5965
G01 X-20.6356 Y-5.5580
G01 X-20.6897 Y-5.5268
G00 Z2.0000
G00 X-21.9926 Y-5.0818
G01 F60.00
G01 Z-0.0250
G01 F120.00
G01 X-21.9933 Y-4.9184
G01 X-21.8975 Y-4.8872
G01 X-21.8135 Y-4.8493
G01 X-21.5864 Y-4.8468
G01 X-21.5864 Y-5.1532
G01 X-21.8128 Y-5.1510
G01 X-21.8975 Y-5.1128
G01 X-21.9926 Y-5.0818
G00 X-21.9926 Y-5.0818
G01 F60.00
G01 Z-0.0500
G01 F120.00
G01 X-21.8975 Y-5.1128
G01 X-21.8128 Y-5.1510
G01 X-21.5864 Y-5.1532
G01 X-21.5864 Y-4.8468
G01 X-21.8135 Y-4.8493
G01 X-21.8975 Y-4.8872
G01 X-21.9933 Y-4.9184
G01 X-21.9926 Y-5.0818
G00 X-21.9926 Y-5.0818
G01 F60.00
G01 Z-0.0750
G01 F120.00
G01 X-21.9933 Y-4.9184
G01 X-21.8975 Y-4.8872
G01 X-21.8135 Y-4.8493
G01 X-21.5864 Y-4.8468
G01 X-21.5864 Y-5.1532
G01 X-21.8128 Y-5.1510
G01 X-21.8975 Y-5.1128
G01 X-21.9926 Y-5.0818
G00 X-21.9926 Y-5.0818
G01 F60.00
G01 Z-0.1000
G01 F120.00
G01 X-21.8975 Y-5.1128
G01 X-21.8128 Y-5.1510
G01 X-21.5864 Y-5.1532
G01 X-21.5864 Y-4.8468
G01 X-21.8135 Y-4.8493
G01 X-21.8975 Y-4.8872
G01 X-21.9933 Y-4.9184
G01 X-21.9926 Y-5.0818
G00 Z2.0000
G00 X-22.5647 Y-4.5768
G01 F60.00
G01 Z-0.0250
G01 F120.00
G01 X-22.4751 Y-4.6248
G01 X-22.4070 Y-4.6500
G01 X-22.2975 Y-4.6726
G01 X-22.2139 Y-4.6767
G01 X-22.1136 Y-4.6669
G01 X-22.0430 Y-4.6500
G01 X-21.9749 Y-4.6248
G01 X-21.8853 Y-4.5768
G01 X-21.6006 Y-4.5750
G01 X-21.4831 Y-4.5436
G01 X-21.4282 Y-4.5133
G01 X-21.3711 Y-4.4664
G01 X-21.3242 Y-4.4093
G01 X-21.2894 Y-4.3442
G01 X-21.2625 Y-4.2369
G01 X-21.2607 Y-3.9724
G01 X-21.2403 Y-3.9520
G01 X-17.9371 Y-3.9520
G01 X-17.3170 Y-4.5721
G01 X-17.3170 Y-6.8482
G01 X-17.5500 Y-6.8535
G01 X-17.6317 Y-6.8769
G01 X-17.6968 Y-6.9117
G01 X-17.7715 Y-6.9775
G01 X-17.8198 Y-7.0474
G01 X-17.8510 Y-7.1263
G01 X-17.8640 Y-7.2139
G01 X-17.8625 Y-7.5619
G01 X-17.8481 Y-7.6344
G01 X-17.8248 Y-7.6927
G01 X-17.7715 Y-7.7725
G01 X-17.6968 Y-7.8383
G01 X-17.6213 Y-7.8771
G01 X-17.5270 Y-7.8997
G01 X-17.5270 Y-9.3903
G01 X-17.8597 Y-9.7230
G01 X-20.1338 Y-9.7230
G01 X-20.2405 Y-9.6701
G01 X-20.3443 Y-9.6494
G01 X-20.7806 Y-9.6483
G01 X-20.9095 Y-9.6701
G01 X-21.0027 Y-9.7142
G01 X-21.0768 Y-9.7732
G01 X-21.1459 Y-9.8641
G01 X-21.1834 Y-9.9511
G01 X-21.2017 Y-10.0694
G01 X-21.2017 Y-10.6306
G01 X-21.1936 Y-10.7083
G01 X-21.1693 Y-10.7883
G01 X-21.1299 Y-10.8621
G01 X-21.0845 Y-10.9187
G01 X-21.0212 Y-10.9735
G01 X-20.9662 Y-11.0064
G01 X-20.8882 Y-11.0364
G01 X-20.8057 Y-11.0506
G01 X-20.3332 Y-11.0497
G01 X-20.2221 Y-11.0233
G01 X-20.1361 Y-10.9786
G01 X-17.5496 Y-10.9748
G01 X-17.4668 Y-10.9625
G01 X-17.3601 Y-10.9293
G01 X-17.2947 Y-10.8975
G01 X-17.2022 Y-10.8347
G01 X-16.4528 Y-10.0894
G01 X-16.3787 Y-9.9983
G01 X-16.3207 Y-9.8899
G01 X-16.2850 Y-9.7723
G01 X-16.2731 Y-9.6556
G01 X-16.2730 Y-7.8997
G01 X-16.2031 Y-7.8856
G01 X-16.1448 Y-7.8623
G01 X-16.0461 Y-7.7914
G01 X-15.9752 Y-7.6927
G01 X-15.9519 Y-7.6344
G01 X-15.9389 Y-7.5730
G01 X-15.9357 Y-7.2250
G01 X-15.9429 Y-7.1515
G01 X-15.9857 Y-7.0377
G01 X-16.0212 Y-6.9860
G01 X-16.0630 Y-6.9428
G01 X-16.0652 Y-4.2620
G01 X-16.0775 Y-4.1792
G01 X-16.1107 Y-4.0725
G01 X-16.1425 Y-4.0072
G01 X-16.2053 Y-3.9146
G01 X-17.2712 Y-2.8476
G01 X-17.3918 Y-2.7670
G01 X-17.5442 Y-2.7125
G01 X-17.6774 Y-2.6980
G01 X-21.5615 Y-2.7010
G01 X-21.6713 Y-2.7220
G01 X-21.7399 Y-2.7457
G01 X-21.8389 Y-2.7977
G01 X-21.8978 Y-2.8403
G01 X-22.5849 Y-3.5232
G01 X-22.8383 Y-3.5242
G01 X-22.9324 Y-3.5429
G01 X-22.9901 Y-3.5677
G01 X-23.0515 Y-3.6087
G01 X-23.1038 Y-3.6610
G01 X-23.1448 Y-3.7224
G01 X-23.1731 Y-3.7906
G01 X-23.1875 Y-3.8631
G01 X-23.1892 Y-4.2056
G01 X-23.1731 Y-4.3094
G01 X-23.1258 Y-4.4093
G01 X-23.0789 Y-4.4664
G01 X-23.0309 Y-4.5069
G01 X-22.9219 Y-4.5606
G01 X-22.8236 Y-4.5765
G01 X-22.5647 Y-4.5768
G00 X-22.5647 Y-4.5768
G01 F60.00
G01 Z-0.0500
G01 F120.00
G01 X-22.8236 Y-4.5765
G01 X-22.9219 Y-4.5606
G01 X-23.0309 Y-4.5069
G01 X-23.0789 Y-4.4664
G01 X-23.1258 Y-4.4093
G01 X-23.1731 Y-4.3094
G01 X-23.1892 Y-4.2056
G01 X-23.1875 Y-3.8631
G01 X-23.1731 Y-3.7906
G01 X-23.1448 Y-3.7224
G01 X-23.1038 Y-3.6610
G01 X-23.0515 Y-3.6087
G01 X-22.9901 Y-3.5677
G01 X-22.9324 Y-3.5429
G01 X-22.8383 Y-3.5242
G01 X-22.5849 Y-3.5232
G01 X-21.8978 Y-2.8403
G01 X-21.8389 Y-2.7977
G01 X-21.7399 Y-2.7457
G01 X-21.6713 Y-2.7220
G01 X-21.5615 Y-2.7010
G01 X-17.6774 Y-2.6980
G01 X-17.5442 Y-2.7125
G01 X-17.3918 Y-2.7670
G01 X-17.2712 Y-2.8476
G01 X-16.2053 Y-3.9146
G01 X-16.1425 Y-4.0072
G01 X-16.1107 Y-4.0725
G01 X-16.0775 Y-4.1792
G01 X-16.0652 Y-4.2620
G01 X-16.0630 Y-6.9428
G01 X-16.0212 Y-6.9860
G01 X-15.9857 Y-7.0377
G01 X-15.9429 Y-7.1515
G01 X-15.9357 Y-7.2250
G01 X-15.9389 Y-7.5730
G01 X-15.9519 Y-7.6344
G01 X-15.9752 Y-7.6927
G01 X-16.0461 Y-7.7914
G01 X-16.1448 Y-7.8623
G01 X-16.2031 Y-7.8856
G01 X-16.2730 Y-7.8997
G01 X-16.2731 Y-9.6556
G01 X-16.2850 Y-9.7723
G01 X-16.3207 Y-9.8899
G01 X-16.3787 Y-9.9983
G01 X-16.4528 Y-10.0894
G01 X-17.2022 Y-10.8347
G01 X-17.2947 Y-10.8975
G01 X-17.3601 Y-10.9293
G01 X-17.4668 Y-10.9625
G01 X-17.5496 Y-10.9748
G01 X-20.1361 Y-10.9786
G01 X-20.2221 Y-11.0233
G01 X-20.3332 Y-11.0497
G01 X-20.8057 Y-11.0506
G01 X-20.8882 Y-11.0364
G01 X-20.9662 Y-11.0064
G01 X-21.0212 Y-10.9735
G01 X-21.0845 Y-10.9187
G01 X-21.1299 Y-10.8621
G01 X-21.1693 Y-10.7883
G01 X-21.1936 Y-10.7083
G01 X-21.2017 Y-10.6306
G01 X-21.2017 Y-10.0694
G01 X-21.1834 Y-9.9511
G01 X-21.1459 Y-9.8641
G01 X-21.0768 Y-9.7732
G01 X-21.0027 Y-9.7142
G01 X-20.9095 Y-9.6701
G01 X-20.7806 Y-9.6483
G01 X-20.3443 Y-9.6494
G01 X-20.2405 Y-9.6701
G01 X-20.1338 Y-9.7230
G01 X-17.8597 Y-9.7230
G01 X-17.5270 Y-9.3903
G01 X-17.5270 Y-7.8997
G01 X-17.6213 Y-7.8771
G01 X-17.6968 Y-7.8383
G01 X-17.7715 Y-7.7725
G01 X-17.8248 Y-7.6927
G01 X-17.8481 Y-7.6344
G01 X-17.8625 Y-7.5619
G01 X-17.8640 Y-7.2139
G01 X-17.8510 Y-7.1263
G01 X-17.8198 Y-7.0474
G01 X-17.7715 Y-6.9775
G01 X-17.6968 Y-6.9117
G01 X-17.6317 Y-6.8769
G01 X-17.5500 Y-6.8535
G01 X-17.3170 Y-6.8482
G01 X-17.3170 Y-4.5721
G01 X-17.9371 Y-3.9520
G01 X-21.2403 Y-3.9520
G01 X-21.2607 Y-3.9724
G01 X-21.2625 Y-4.2369
G01 X-21.2894 Y-4.3442
G01 X-21.3242 Y-4.4093
G01 X-21.3711 Y-4.4664
G01 X-21.4282 Y-4.5133
G01 X-21.4831 Y-4.5436
G01 X-21.6006 Y-4.5750
G01 X-21.8853 Y-4.5768
G01 X-21.9749 Y-4.6248
G01 X-22.0430 Y-4.6500
G01 X-22.1136 Y-4.6669
G01 X-22.2139 Y-4.6767
G01 X-22.2975 Y-4.6726
G01 X-22.4070 Y-4.6500
G01 X-22.4751 Y-4.6248
G01 X-22.5647 Y-4.5768
G00 X-22.5647 Y-4.5768
G01 F60.00
G01 Z-0.0750
G01 F120.00
G01 X-22.4751 Y-4.6248
G01 X-22.4070 Y-4.6500
G01 X-22.2975 Y-4.6726
G01 X-22.2139 Y-4.6767
G01 X-22.1136 Y-4.6669
G01 X-22.0430 Y-4.6500
G01 X-21.9749 Y-4.6248
G01 X-21.8853 Y-4.5768
G01 X-21.6006 Y-4.5750
G01 X-21.4831 Y-4.5436
G01 X-21.4282 Y-4.5133
G01 X-21.3711 Y-4.4664
G01 X-21.3242 Y-4.4093
G01 X-21.2894 Y-4.3442
G01 X-21.2625 Y-4.2369
G01 X-21.2607 Y-3.9724
G01 X-21.2403 Y-3.9520
G01 X-17.9371 Y-3.9520
G01 X-17.3170 Y-4.5721
G01 X-17.3170 Y-6.8482
G01 X-17.5500 Y-6.8535
G01 X-17.6317 Y-6.8769
G01 X-17.6968 Y-6.9117
G01 X-17.7715 Y-6.9775
G01 X-17.8198 Y-7.0474
G01 X-17.8510 Y-7.1263
G01 X-17.8640 Y-7.2139
G01 X-17.8625 Y-7.5619
G01 X-17.8481 Y-7.6344
G01 X-17.8248 Y-7.6927
G01 X-17.7715 Y-7.7725
G01 X-17.6968 Y-7.8383
G01 X-17.6213 Y-7.8771
G01 X-17.5270 Y-7.8997
G01 X-17.5270 Y-9.3903
G01 X-17.8597 Y-9.7230
G01 X-20.1338 Y-9.7230
G01 X-20.2405 Y-9.6701
G01 X-20.3443 Y-9.6494
G01 X-20.7806 Y-9.6483
G01 X-20.9095 Y-9.6701
G01 X-21.0027 Y-9.7142
G01 X-21.0768 Y-9.7732
G01 X-21.1459 Y-9.8641
G01 X-21.1834 Y-9.9511
G01 X-21.2017 Y-10.0694
G01 X-21.2017 Y-10.6306
G01 X-21.1936 Y-10.7083
G01 X-21.1693 Y-10.7883
G01 X-21.1299 Y-10.8621
G01 X-21.0845 Y-10.9187
G01 X-21.0212 Y-10.9735
G01 X-20.9662 Y-11.0064
G01 X-20.8882 Y-11.0364
G01 X-20.8057 Y-11.0506
G01 X-20.3332 Y-11.0497
G01 X-20.2221 Y-11.0233
G01 X-20.1361 Y-10.9786
G01 X-17.5496 Y-10.9748
G01 X-17.4668 Y-10.9625
G01 X-17.3601 Y-10.9293
G01 X-17.2947 Y-10.8975
G01 X-17.2022 Y-10.8347
G01 X-16.4528 Y-10.0894
G01 X-16.3787 Y-9.9983
G01 X-16.3207 Y-9.8899
G01 X-16.2850 Y-9.7723
G01 X-16.2731 Y-9.6556
G01 X-16.2730 Y-7.8997
G01 X-16.2031 Y-7.8856
G01 X-16.1448 Y-7.8623
G01 X-16.0461 Y-7.7914
G01 X-15.9752 Y-7.6927
G01 X-15.9519 Y-7.6344
G01 X-15.9389 Y-7.5730
G01 X-15.9357 Y-7.2250
G01 X-15.9429 Y-7.1515
G01 X-15.9857 Y-7.0377
G01 X-16.0212 Y-6.9860
G01 X-16.0630 Y-6.9428
G01 X-16.0652 Y-4.2620
G01 X-16.0775 Y-4.1792
G01 X-16.1107 Y-4.0725
G01 X-16.1425 Y-4.0072
G01 X-16.2053 Y-3.9146
G01 X-17.2712 Y-2.8476
G01 X-17.3918 Y-2.7670
G01 X-17.5442 Y-2.7125
G01 X-17.6774 Y-2.6980
G01 X-21.5615 Y-2.7010
G01 X-21.6713 Y-2.7220
G01 X-21.7399 Y-2.7457
G01 X-21.8389 Y-2.7977
G01 X-21.8978 Y-2.8403
G01 X-22.5849 Y-3.5232
G01 X-22.8383 Y-3.5242
G01 X-22.9324 Y-3.5429
G01 X-22.9901 Y-3.5677
G01 X-23.0515 Y-3.6087
G01 X-23.1038 Y-3.6610
G01 X-23.1448 Y-3.7224
G01 X-23.1731 Y-3.7906
G01 X-23.1875 Y-3.8631
G01 X-23.1892 Y-4.2056
G01 X-23.1731 Y-4.3094
G01 X-23.1258 Y-4.4093
G01 X-23.0789 Y-4.4664
G01 X-23.0309 Y-4.5069
G01 X-22.9219 Y-4.5606
G01 X-22.8236 Y-4.5765
G01 X-22.5647 Y-4.5768
G00 X-22.5647 Y-4.5768
G01 F60.00
G01 Z-0.1000
G01 F120.00
G01 X-22.8236 Y-4.5765
G01 X-22.9219 Y-4.5606
G01 X-23.0309 Y-4.5069
G01 X-23.0789 Y-4.4664
G01 X-23.1258 Y-4.4093
G01 X-23.1731 Y-4.3094
G01 X-23.1892 Y-4.2056
G01 X-23.1875 Y-3.8631
G01 X-23.1731 Y-3.7906
G01 X-23.1448 Y-3.7224
G01 X-23.1038 Y-3.6610
G01 X-23.0515 Y-3.6087
G01 X-22.9901 Y-3.5677
G01 X-22.9324 Y-3.5429
G01 X-22.8383 Y-3.5242
G01 X-22.5849 Y-3.5232
G01 X-21.8978 Y-2.8403
G01 X-21.8389 Y-2.7977
G01 X-21.7399 Y-2.7457
G01 X-21.6713 Y-2.7220
G01 X-21.5615 Y-2.7010
G01 X-17.6774 Y-2.6980
G01 X-17.5442 Y-2.7125
G01 X-17.3918 Y-2.7670
G01 X-17.2712 Y-2.8476
G01 X-16.2053 Y-3.9146
G01 X-16.1425 Y-4.0072
G01 X-16.1107 Y-4.0725
G01 X-16.0775 Y-4.1792
G01 X-16.0652 Y-4.2620
G01 X-16.0630 Y-6.9428
G01 X-16.0212 Y-6.9860
G01 X-15.9857 Y-7.0377
G01 X-15.9429 Y-7.1515
G01 X-15.9357 Y-7.2250
G01 X-15.9389 Y-7.5730
G01 X-15.9519 Y-7.6344
G01 X-15.9752 Y-7.6927
G01 X-16.0461 Y-7.7914
G01 X-16.1448 Y-7.8623
G01 X-16.2031 Y-7.8856
G01 X-16.2730 Y-7.8997
G01 X-16.2731 Y-9.6556
G01 X-16.2850 Y-9.7723
G01 X-16.3207 Y-9.8899
G01 X-16.3787 Y-9.9983
G01 X-16.4528 Y-10.0894
G01 X-17.2022 Y-10.8347
G01 X-17.2947 Y-10.8975
G01 X-17.3601 Y-10.9293
G01 X-17.4668 Y-10.9625
G01 X-17.5496 Y-10.9748
G01 X-20.1361 Y-10.9786
G01 X-20.2221 Y-11.0233
G01 X-20.3332 Y-11.0497
G01 X-20.8057 Y-11.0506
G01 X-20.8882 Y-11.0364
G01 X-20.9662 Y-11.0064
G01 X-21.0212 Y-10.9735
G01 X-21.0845 Y-10.9187
G01 X-21.1299 Y-10.8621
G01 X-21.1693 Y-10.7883
G01 X-21.1936 Y-10.7083
G01 X-21.2017 Y-10.6306
G01 X-21.2017 Y-10.0694
G01 X-21.1834 Y-9.9511
G01 X-21.1459 Y-9.8641
G01 X-21.0768 Y-9.7732
G01 X-21.0027 Y-9.7142
G01 X-20.9095 Y-9.6701
G01 X-20.7806 Y-9.6483
G01 X-20.3443 Y-9.6494
G01 X-20.2405 Y-9.6701
G01 X-20.1338 Y-9.7230
G01 X-17.8597 Y-9.7230
G01 X-17.5270 Y-9.3903
G01 X-17.5270 Y-7.8997
G01 X-17.6213 Y-7.8771
G01 X-17.6968 Y-7.8383
G01 X-17.7715 Y-7.7725
G01 X-17.8248 Y-7.6927
G01 X-17.8481 Y-7.6344
G01 X-17.8625 Y-7.5619
G01 X-17.8640 Y-7.2139
G01 X-17.8510 Y-7.1263
G01 X-17.8198 Y-7.0474
G01 X-17.7715 Y-6.9775
G01 X-17.6968 Y-6.9117
G01 X-17.6317 Y-6.8769
G01 X-17.5500 Y-6.8535
G01 X-17.3170 Y-6.8482
G01 X-17.3170 Y-4.5721
G01 X-17.9371 Y-3.9520
G01 X-21.2403 Y-3.9520
G01 X-21.2607 Y-3.9724
G01 X-21.2625 Y-4.2369
G01 X-21.2894 Y-4.3442
G01 X-21.3242 Y-4.4093
G01 X-21.3711 Y-4.4664
G01 X-21.4282 Y-4.5133
G01 X-21.4831 Y-4.5436
G01 X-21.6006 Y-4.5750
G01 X-21.8853 Y-4.5768
G01 X-21.9749 Y-4.6248
G01 X-22.0430 Y-4.6500
G01 X-22.1136 Y-4.6669
G01 X-22.2139 Y-4.6767
G01 X-22.2975 Y-4.6726
G01 X-22.4070 Y-4.6500
G01 X-22.4751 Y-4.6248
G01 X-22.5647 Y-4.5768
G00 Z2.0000
G00 X-25.0482 Y-3.7690
G01 F60.00
G01 Z-0.0250
G01 F120.00
G01 X-24.9560 Y-3.8248
G01 X-24.8644 Y-3.9232
G01 X-24.9253 Y-3.9232
G01 X-24.9792 Y-3.8701
G01 X-25.0482 Y-3.8239
G01 X-25.0482 Y-3.7690
G00 X-25.0482 Y-3.7690
G01 F60.00
G01 Z-0.0500
G01 F120.00
G01 X-25.0482 Y-3.8239
G01 X-24.9792 Y-3.8701
G01 X-24.9253 Y-3.9232
G01 X-24.8644 Y-3.9232
G01 X-24.9560 Y-3.8248
G01 X-25.0482 Y-3.7690
G00 X-25.0482 Y-3.7690
G01 F60.00
G01 Z-0.0750
G01 F120.00
G01 X-24.9560 Y-3.8248
G01 X-24.8644 Y-3.9232
G01 X-24.9253 Y-3.9232
G01 X-24.9792 Y-3.8701
G01 X-25.0482 Y-3.8239
G01 X-25.0482 Y-3.7690
G00 X-25.0482 Y-3.7690
G01 F60.00
G01 Z-0.1000
G01 F120.00
G01 X-25.0482 Y-3.8239
G01 X-24.9792 Y-3.8701
G01 X-24.9253 Y-3.9232
G01 X-24.8644 Y-3.9232
G01 X-24.9560 Y-3.8248
G01 X-25.0482 Y-3.7690
G00 Z2.0000
G00 X-22.8520 Y-9.1879
G01 F60.00
G01 Z-0.0250
G01 F120.00
G01 X-22.8520 Y-11.0982
G01 X-24.5306 Y-11.1001
G01 X-24.6443 Y-11.1299
G01 X-24.7191 Y-11.1771
G01 X-24.8048 Y-11.2736
G01 X-24.8453 Y-11.3951
G01 X-24.8518 Y-11.4490
G01 X-24.8517 Y-16.6309
G01 X-24.8441 Y-16.6847
G01 X-24.8105 Y-16.7910
G01 X-24.7769 Y-16.8398
G01 X-24.7057 Y-16.9096
G01 X-24.6331 Y-16.9491
G01 X-24.5059 Y-16.9767
G01 X-21.4691 Y-16.9767
G01 X-21.4153 Y-16.9691
G01 X-21.3090 Y-16.9355
G01 X-21.2693 Y-16.9096
G01 X-21.2062 Y-16.8484
G01 X-21.1549 Y-16.7693
G01 X-21.1233 Y-16.6309
G01 X-21.1232 Y-13.3018
G01 X-20.9518 Y-13.3018
G01 X-20.9420 Y-13.3908
G01 X-20.9003 Y-13.4689
G01 X-20.8319 Y-13.5250
G01 X-20.7472 Y-13.5507
G01 X-19.0250 Y-13.5518
G01 X-18.9699 Y-13.5450
G01 X-18.9280 Y-13.5300
G01 X-18.8570 Y-13.4773
G01 X-18.8115 Y-13.4014
G01 X-18.8007 Y-13.3583
G01 X-18.7982 Y-13.3018
G01 X-17.3518 Y-13.3018
G01 X-17.3516 Y-16.6359
G01 X-17.3441 Y-16.6847
G01 X-17.3105 Y-16.7910
G01 X-17.2769 Y-16.8398
G01 X-17.2191 Y-16.8979
G01 X-17.1443 Y-16.9451
G01 X-17.0059 Y-16.9767
G01 X-13.9691 Y-16.9767
G01 X-13.9153 Y-16.9691
G01 X-13.8090 Y-16.9355
G01 X-13.7602 Y-16.9019
G01 X-13.6904 Y-16.8307
G01 X-13.6509 Y-16.7581
G01 X-13.6233 Y-16.6309
G01 X-13.6233 Y-11.4441
G01 X-13.6309 Y-11.3903
G01 X-13.6645 Y-11.2840
G01 X-13.6981 Y-11.2352
G01 X-13.7693 Y-11.1654
G01 X-13.8419 Y-11.1259
G01 X-13.9740 Y-11.0982
G01 X-21.5980 Y-11.0982
G01 X-21.5980 Y-9.1879
G01 X-21.5570 Y-9.1523
G01 X-21.5250 Y-9.1069
G01 X-21.5080 Y-9.0658
G01 X-21.4985 Y-9.0111
G01 X-21.4982 Y-7.3000
G01 X-21.5050 Y-7.2449
G01 X-21.5250 Y-7.1931
G01 X-21.5570 Y-7.1477
G01 X-21.5980 Y-7.1121
G01 X-21.5980 Y-6.4747
G01 X-21.5281 Y-6.4606
G01 X-21.4599 Y-6.4323
G01 X-21.3985 Y-6.3913
G01 X-21.3535 Y-6.3475
G01 X-21.3107 Y-6.2873
G01 X-21.2854 Y-6.2338
G01 X-21.2679 Y-6.1735
G01 X-21.2607 Y-6.1000
G01 X-21.2617 Y-5.7742
G01 X-21.2740 Y-5.7013
G01 X-21.2939 Y-5.6456
G01 X-21.3394 Y-5.5697
G01 X-21.3985 Y-5.5087
G01 X-21.4698 Y-5.4627
G01 X-21.5640 Y-5.4304
G01 X-21.6319 Y-5.4233
G01 X-21.8853 Y-5.4232
G01 X-21.9851 Y-5.3707
G01 X-22.1027 Y-5.3350
G01 X-22.2250 Y-5.3230
G01 X-22.3364 Y-5.3331
G01 X-22.4649 Y-5.3707
G01 X-22.5647 Y-5.4232
G01 X-22.8383 Y-5.4242
G01 X-22.9567 Y-5.4519
G01 X-23.0218 Y-5.4867
G01 X-23.0866 Y-5.5416
G01 X-23.1393 Y-5.6127
G01 X-23.1696 Y-5.6801
G01 X-23.1890 Y-5.7889
G01 X-23.1892 Y-6.1056
G01 X-23.1821 Y-6.1735
G01 X-23.1606 Y-6.2442
G01 X-23.1106 Y-6.3303
G01 X-23.0428 Y-6.3981
G01 X-22.9567 Y-6.4481
G01 X-22.8520 Y-6.4747
G01 X-22.8520 Y-7.1121
G01 X-22.8930 Y-7.1477
G01 X-22.9250 Y-7.1931
G01 X-22.9450 Y-7.2449
G01 X-22.9518 Y-7.3000
G01 X-22.9515 Y-9.0111
G01 X-22.9450 Y-9.0551
G01 X-22.9250 Y-9.1069
G01 X-22.8930 Y-9.1523
G01 X-22.8520 Y-9.1879
G00 X-22.8520 Y-9.1879
G01 F60.00
G01 Z-0.0500
G01 F120.00
G01 X-22.8930 Y-9.1523
G01 X-22.9250 Y-9.1069
G01 X-22.9450 Y-9.0551
G01 X-22.9515 Y-9.0111
G01 X-22.9518 Y-7.3000
G01 X-22.9450 Y-7.2449
G01 X-22.9250 Y-7.1931
G01 X-22.8930 Y-7.1477
G01 X-22.8520 Y-7.1121
G01 X-22.8520 Y-6.4747
G01 X-22.9567 Y-6.4481
G01 X-23.0428 Y-6.3981
G01 X-23.1106 Y-6.3303
G01 X-23.1606 Y-6.2442
G01 X-23.1821 Y-6.1735
G01 X-23.1892 Y-6.1056
G01 X-23.1890 Y-5.7889
G01 X-23.1696 Y-5.6801
G01 X-23.1393 Y-5.6127
G01 X-23.0866 Y-5.5416
G01 X-23.0218 Y-5.4867
G01 X-22.9567 Y-5.4519
G01 X-22.8383 Y-5.4242
G01 X-22.5647 Y-5.4232
G01 X-22.4649 Y-5.3707
G01 X-22.3364 Y-5.3331
G01 X-22.2250 Y-5.3230
G01 X-22.1027 Y-5.3350
G01 X-21.9851 Y-5.3707
G01 X-21.8853 Y-5.4232
G01 X-21.6319 Y-5.4233
G01 X-21.5640 Y-5.4304
G01 X-21.4698 Y-5.4627
G01 X-21.3985 Y-5.5087
G01 X-21.3394 Y-5.5697
G01 X-21.2939 Y-5.6456
G01 X-21.2740 Y-5.7013
G01 X-21.2617 Y-5.7742
G01 X-21.2607 Y-6.1000
G01 X-21.2679 Y-6.1735
G01 X-21.2854 Y-6.2338
G01 X-21.3107 Y-6.2873
G01 X-21.3535 Y-6.3475
G01 X-21.3985 Y-6.3913
G01 X-21.4599 Y-6.4323
G01 X-21.5281 Y-6.4606
G01 X-21.5980 Y-6.4747
G01 X-21.5980 Y-7.1121
G01 X-21.5570 Y-7.1477
G01 X-21.5250 Y-7.1931
G01 X-21.5050 Y-7.2449
G01 X-21.4982 Y-7.3000
G01 X-21.4985 Y-9.0111
G01 X-21.5080 Y-9.0658
G01 X-21.5250 Y-9.1069
G01 X-21.5570 Y-9.1523
G01 X-21.5980 Y-9.1879
G01 X-21.5980 Y-11.0982
G01 X-13.9740 Y-11.0982
G01 X-13.8419 Y-11.1259
G01 X-13.7693 Y-11.1654
G01 X-13.6981 Y-11.2352
G01 X-13.6645 Y-11.2840
G01 X-13.6309 Y-11.3903
G01 X-13.6233 Y-11.4441
G01 X-13.6233 Y-16.6309
G01 X-13.6509 Y-16.7581
G01 X-13.6904 Y-16.8307
G01 X-13.7602 Y-16.9019
G01 X-13.8090 Y-16.9355
G01 X-13.9153 Y-16.9691
G01 X-13.9691 Y-16.9767
G01 X-17.0059 Y-16.9767
G01 X-17.1443 Y-16.9451
G01 X-17.2191 Y-16.8979
G01 X-17.2769 Y-16.8398
G01 X-17.3105 Y-16.7910
G01 X-17.3441 Y-16.6847
G01 X-17.3516 Y-16.6359
G01 X-17.3518 Y-13.3018
G01 X-18.7982 Y-13.3018
G01 X-18.8007 Y-13.3583
G01 X-18.8115 Y-13.4014
G01 X-18.8570 Y-13.4773
G01 X-18.9280 Y-13.5300
G01 X-18.9699 Y-13.5450
G01 X-19.0250 Y-13.5518
G01 X-20.7472 Y-13.5507
G01 X-20.8319 Y-13.5250
G01 X-20.9003 Y-13.4689
G01 X-20.9420 Y-13.3908
G01 X-20.9518 Y-13.3018
G01 X-21.1232 Y-13.3018
G01 X-21.1233 Y-16.6309
G01 X-21.1549 Y-16.7693
G01 X-21.2062 Y-16.8484
G01 X-21.2693 Y-16.9096
G01 X-21.3090 Y-16.9355
G01 X-21.4153 Y-16.9691
G01 X-21.4691 Y-16.9767
G01 X-24.5059 Y-16.9767
G01 X-24.6331 Y-16.9491
G01 X-24.7057 Y-16.9096
G01 X-24.7769 Y-16.8398
G01 X-24.8105 Y-16.7910
G01 X-24.8441 Y-16.6847
G01 X-24.8517 Y-16.6309
G01 X-24.8518 Y-11.4490
G01 X-24.8453 Y-11.3951
G01 X-24.8048 Y-11.2736
G01 X-24.7191 Y-11.1771
G01 X-24.6443 Y-11.1299
G01 X-24.5306 Y-11.1001
G01 X-22.8520 Y-11.0982
G01 X-22.8520 Y-9.1879
G00 X-22.8520 Y-9.1879
G01 F60.00
G01 Z-0.0750
G01 F120.00
G01 X-22.8520 Y-11.0982
G01 X-24.5306 Y-11.1001
G01 X-24.6443 Y-11.1299
G01 X-24.7191 Y-11.1771
G01 X-24.8048 Y-11.2736
G01 X-24.8453 Y-11.3951
G01 X-24.8518 Y-11.4490
G01 X-24.8517 Y-16.6309
G01 X-24.8441 Y-16.6847
G01 X-24.8105 Y-16.7910
G01 X-24.7769 Y-16.8398
G01 X-24.7057 Y-16.9096
G01 X-24.6331 Y-16.9491
G01 X-24.5059 Y-16.9767
G01 X-21.4691 Y-16.9767
G01 X-21.4153 Y-16.9691
G01 X-21.3090 Y-16.9355
G01 X-21.2693 Y-16.9096
G01 X-21.2062 Y-16.8484
G01 X-21.1549 Y-16.7693
G01 X-21.1233 Y-16.6309
G01 X-21.1232 Y-13.3018
G01 X-20.9518 Y-13.3018
G01 X-20.9420 Y-13.3908
G01 X-20.9003 Y-13.4689
G01 X-20.8319 Y-13.5250
G01 X-20.7472 Y-13.5507
G01 X-19.0250 Y-13.5518
G01 X-18.9699 Y-13.5450
G01 X-18.9280 Y-13.5300
G01 X-18.8570 Y-13.4773
G01 X-18.8115 Y-13.4014
G01 X-18.8007 Y-13.3583
G01 X-18.7982 Y-13.3018
G01 X-17.3518 Y-13.3018
G01 X-17.3516 Y-16.6359
G01 X-17.3441 Y-16.6847
G01 X-17.3105 Y-16.7910
G01 X-17.2769 Y-16.8398
G01 X-17.2191 Y-16.8979
G01 X-17.1443 Y-16.9451
G01 X-17.0059 Y-16.9767
G01 X-13.9691 Y-16.9767
G01 X-13.9153 Y-16.9691
G01 X-13.8090 Y-16.9355
G01 X-13.7602 Y-16.9019
G01 X-13.6904 Y-16.8307
G01 X-13.6509 Y-16.7581
G01 X-13.6233 Y-16.6309
G01 X-13.6233 Y-11.4441
G01 X-13.6309 Y-11.3903
G01 X-13.6645 Y-11.2840
G01 X-13.6981 Y-11.2352
G01 X-13.7693 Y-11.1654
G01 X-13.8419 Y-11.1259
G01 X-13.9740 Y-11.0982
G01 X-21.5980 Y-11.0982
G01 X-21.5980 Y-9.1879
G01 X-21.5570 Y-9.1523
G01 X-21.5250 Y-9.1069
G01 X-21.5080 Y-9.0658
G01 X-21.4985 Y-9.0111
G01 X-21.4982 Y-7.3000
G01 X-21.5050 Y-7.2449
G01 X-21.5250 Y-7.1931
G01 X-21.5570 Y-7.1477
G01 X-21.5980 Y-7.1121
G01 X-21.5980 Y-6.4747
G01 X-21.5281 Y-6.4606
G01 X-21.4599 Y-6.4323
G01 X-21.3985 Y-6.3913
G01 X-21.3535 Y-6.3475
G01 X-21.3107 Y-6.2873
G01 X-21.2854 Y-6.2338
G01 X-21.2679 Y-6.1735
G01 X-21.2607 Y-6.1000
G01 X-21.2617 Y-5.7742
G01 X-21.2740 Y-5.7013
G01 X-21.2939 Y-5.6456
G01 X-21.3394 Y-5.5697
G01 X-21.3985 Y-5.5087
G01 X-21.4698 Y-5.4627
G01 X-21.5640 Y-5.4304
G01 X-21.6319 Y-5.4233
G01 X-21.8853 Y-5.4232
G01 X-21.9851 Y-5.3707
G01 X-22.1027 Y-5.3350
G01 X-22.2250 Y-5.3230
G01 X-22.3364 Y-5.3331
G01 X-22.4649 Y-5.3707
G01 X-22.5647 Y-5.4232
G01 X-22.8383 Y-5.4242
G01 X-22.9567 Y-5.4519
G01 X-23.0218 Y-5.4867
G01 X-23.0866 Y-5.5416
G01 X-23.1393 Y-5.6127
G01 X-23.1696 Y-5.6801
G01 X-23.1890 Y-5.7889
G01 X-23.1892 Y-6.1056
G01 X-23.1821 Y-6.1735
G01 X-23.1606 Y-6.2442
G01 X-23.1106 Y-6.3303
G01 X-23.0428 Y-6.3981
G01 X-22.9567 Y-6.4481
G01 X-22.8520 Y-6.4747
G01 X-22.8520 Y-7.1121
G01 X-22.8930 Y-7.1477
G01 X-22.9250 Y-7.1931
G01 X-22.9450 Y-7.2449
G01 X-22.9518 Y-7.3000
G01 X-22.9515 Y-9.0111
G01 X-22.9450 Y-9.0551
G01 X-22.9250 Y-9.1069
G01 X-22.8930 Y-9.1523
G01 X-22.8520 Y-9.1879
G00 X-22.8520 Y-9.1879
G01 F60.00
G01 Z-0.1000
G01 F120.00
G01 X-22.8930 Y-9.1523
G01 X-22.9250 Y-9.1069
G01 X-22.9450 Y-9.0551
G01 X-22.9515 Y-9.0111
G01 X-22.9518 Y-7.3000
G01 X-22.9450 Y-7.2449
G01 X-22.9250 Y-7.1931
G01 X-22.8930 Y-7.1477
G01 X-22.8520 Y-7.1121
G01 X-22.8520 Y-6.4747
G01 X-22.9567 Y-6.4481
G01 X-23.0428 Y-6.3981
G01 X-23.1106 Y-6.3303
G01 X-23.1606 Y-6.2442
G01 X-23.1821 Y-6.1735
G01 X-23.1892 Y-6.1056
G01 X-23.1890 Y-5.7889
G01 X-23.1696 Y-5.6801
G01 X-23.1393 Y-5.6127
G01 X-23.0866 Y-5.5416
G01 X-23.0218 Y-5.4867
G01 X-22.9567 Y-5.4519
G01 X-22.8383 Y-5.4242
G01 X-22.5647 Y-5.4232
G01 X-22.4649 Y-5.3707
G01 X-22.3364 Y-5.3331
G01 X-22.2250 Y-5.3230
G01 X-22.1027 Y-5.3350
G01 X-21.9851 Y-5.3707
G01 X-21.8853 Y-5.4232
G01 X-21.6319 Y-5.4233
G01 X-21.5640 Y-5.4304
G01 X-21.4698 Y-5.4627
G01 X-21.3985 Y-5.5087
G01 X-21.3394 Y-5.5697
G01 X-21.2939 Y-5.6456
G01 X-21.2740 Y-5.7013
G01 X-21.2617 Y-5.7742
G01 X-21.2607 Y-6.1000
G01 X-21.2679 Y-6.1735
G01 X-21.2854 Y-6.2338
G01 X-21.3107 Y-6.2873
G01 X-21.3535 Y-6.3475
G01 X-21.3985 Y-6.3913
G01 X-21.4599 Y-6.4323
G01 X-21.5281 Y-6.4606
G01 X-21.5980 Y-6.4747
G01 X-21.5980 Y-7.1121
G01 X-21.5570 Y-7.1477
G01 X-21.5250 Y-7.1931
G01 X-21.5050 Y-7.2449
G01 X-21.4982 Y-7.3000
G01 X-21.4985 Y-9.0111
G01 X-21.5080 Y-9.0658
G01 X-21.5250 Y-9.1069
G01 X-21.5570 Y-9.1523
G01 X-21.5980 Y-9.1879
G01 X-21.5980 Y-11.0982
G01 X-13.9740 Y-11.0982
G01 X-13.8419 Y-11.1259
G01 X-13.7693 Y-11.1654
G01 X-13.6981 Y-11.2352
G01 X-13.6645 Y-11.2840
G01 X-13.6309 Y-11.3903
G01 X-13.6233 Y-11.4441
G01 X-13.6233 Y-16.6309
G01 X-13.6509 Y-16.7581
G01 X-13.6904 Y-16.8307
G01 X-13.7602 Y-16.9019
G01 X-13.8090 Y-16.9355
G01 X-13.9153 Y-16.9691
G01 X-13.9691 Y-16.9767
G01 X-17.0059 Y-16.9767
G01 X-17.1443 Y-16.9451
G01 X-17.2191 Y-16.8979
G01 X-17.2769 Y-16.8398
G01 X-17.3105 Y-16.7910
G01 X-17.3441 Y-16.6847
G01 X-17.3516 Y-16.6359
G01 X-17.3518 Y-13.3018
G01 X-18.7982 Y-13.3018
G01 X-18.8007 Y-13.3583
G01 X-18.8115 Y-13.4014
G01 X-18.8570 Y-13.4773
G01 X-18.9280 Y-13.5300
G01 X-18.9699 Y-13.5450
G01 X-19.0250 Y-13.5518
G01 X-20.7472 Y-13.5507
G01 X-20.8319 Y-13.5250
G01 X-20.9003 Y-13.4689
G01 X-20.9420 Y-13.3908
G01 X-20.9518 Y-13.3018
G01 X-21.1232 Y-13.3018
G01 X-21.1233 Y-16.6309
G01 X-21.1549 Y-16.7693
G01 X-21.2062 Y-16.8484
G01 X-21.2693 Y-16.9096
G01 X-21.3090 Y-16.9355
G01 X-21.4153 Y-16.9691
G01 X-21.4691 Y-16.9767
G01 X-24.5059 Y-16.9767
G01 X-24.6331 Y-16.9491
G01 X-24.7057 Y-16.9096
G01 X-24.7769 Y-16.8398
G01 X-24.8105 Y-16.7910
G01 X-24.8441 Y-16.6847
G01 X-24.8517 Y-16.6309
G01 X-24.8518 Y-11.4490
G01 X-24.8453 Y-11.3951
G01 X-24.8048 Y-11.2736
G01 X-24.7191 Y-11.1771
G01 X-24.6443 Y-11.1299
G01 X-24.5306 Y-11.1001
G01 X-22.8520 Y-11.0982
G01 X-22.8520 Y-9.1879
G00 Z2.0000
G00 X-20.9515 Y-12.3139
G01 F60.00
G01 Z-0.0250
G01 F120.00
G01 X-20.9518 Y-12.3482
G01 X-20.9982 Y-12.3482
G01 X-20.9961 Y-12.2702
G01 X-20.9672 Y-12.1927
G01 X-20.9202 Y-12.1298
G01 X-20.8573 Y-12.0828
G01 X-20.7607 Y-12.0518
G01 X-20.3518 Y-12.0518
G01 X-20.3518 Y-12.0982
G01 X-20.7361 Y-12.0985
G01 X-20.8118 Y-12.1155
G01 X-20.8689 Y-12.1497
G01 X-20.9136 Y-12.1990
G01 X-20.9420 Y-12.2592
G01 X-20.9515 Y-12.3139
G00 X-20.9515 Y-12.3139
G01 F60.00
G01 Z-0.0500
G01 F120.00
G01 X-20.9420 Y-12.2592
G01 X-20.9136 Y-12.1990
G01 X-20.8689 Y-12.1497
G01 X-20.8118 Y-12.1155
G01 X-20.7361 Y-12.0985
G01 X-20.3518 Y-12.0982
G01 X-20.3518 Y-12.0518
G01 X-20.7607 Y-12.0518
G01 X-20.8573 Y-12.0828
G01 X-20.9202 Y-12.1298
G01 X-20.9672 Y-12.1927
G01 X-20.9961 Y-12.2702
G01 X-20.9982 Y-12.3482
G01 X-20.9518 Y-12.3482
G01 X-20.9515 Y-12.3139
G00 X-20.9515 Y-12.3139
G01 F60.00
G01 Z-0.0750
G01 F120.00
G01 X-20.9518 Y-12.3482
G01 X-20.9982 Y-12.3482
G01 X-20.9961 Y-12.2702
G01 X-20.9672 Y-12.1927
G01 X-20.9202 Y-12.1298
G01 X-20.8573 Y-12.0828
G01 X-20.7607 Y-12.0518
G01 X-20.3518 Y-12.0518
G01 X-20.3518 Y-12.0982
G01 X-20.7361 Y-12.0985
G01 X-20.8118 Y-12.1155
G01 X-20.8689 Y-12.1497
G01 X-20.9136 Y-12.1990
G01 X-20.9420 Y-12.2592
G01 X-20.9515 Y-12.3139
G00 X-20.9515 Y-12.3139
G01 F60.00
G01 Z-0.1000
G01 F120.00
G01 X-20.9420 Y-12.2592
G01 X-20.9136 Y-12.1990
G01 X-20.8689 Y-12.1497
G01 X-20.8118 Y-12.1155
G01 X-20.7361 Y-12.0985
G01 X-20.3518 Y-12.0982
G01 X-20.3518 Y-12.0518
G01 X-20.7607 Y-12.0518
G01 X-20.8573 Y-12.0828
G01 X-20.9202 Y-12.1298
G01 X-20.9672 Y-12.1927
G01 X-20.9961 Y-12.2702
G01 X-20.9982 Y-12.3482
G01 X-20.9518 Y-12.3482
G01 X-20.9515 Y-12.3139
G00 Z2.0000
G00 X-19.0139 Y-12.0985
G01 F60.00
G01 Z-0.0250
G01 F120.00
G01 X-19.3982 Y-12.0982
G01 X-19.3982 Y-12.0518
G01 X-18.9893 Y-12.0518
G01 X-18.8927 Y-12.0828
G01 X-18.8298 Y-12.1298
G01 X-18.7828 Y-12.1927
G01 X-18.7539 Y-12.2702
G01 X-18.7518 Y-12.3482
G01 X-18.7982 Y-12.3482
G01 X-18.8007 Y-12.2917
G01 X-18.8115 Y-12.2486
G01 X-18.8305 Y-12.2084
G01 X-18.8646 Y-12.1646
G01 X-18.9382 Y-12.1155
G01 X-19.0139 Y-12.0985
G00 X-19.0139 Y-12.0985
G01 F60.00
G01 Z-0.0500
G01 F120.00
G01 X-18.9382 Y-12.1155
G01 X-18.8646 Y-12.1646
G01 X-18.8305 Y-12.2084
G01 X-18.8115 Y-12.2486
G01 X-18.8007 Y-12.2917
G01 X-18.7982 Y-12.3482
G01 X-18.7518 Y-12.3482
G01 X-18.7539 Y-12.2702
G01 X-18.7828 Y-12.1927
G01 X-18.8298 Y-12.1298
G01 X-18.8927 Y-12.0828
G01 X-18.9893 Y-12.0518
G01 X-19.3982 Y-12.0518
G01 X-19.3982 Y-12.0982
G01 X-19.0139 Y-12.0985
G00 X-19.0139 Y-12.0985
G01 F60.00
G01 Z-0.0750
G01 F120.00
G01 X-19.3982 Y-12.0982
G01 X-19.3982 Y-12.0518
G01 X-18.9893 Y-12.0518
G01 X-18.8927 Y-12.0828
G01 X-18.8298 Y-12.1298
G01 X-18.7828 Y-12.1927
G01 X-18.7539 Y-12.2702
G01 X-18.7518 Y-12.3482
G01 X-18.7982 Y-12.3482
G01 X-18.8007 Y-12.2917
G01 X-18.8115 Y-12.2486
G01 X-18.8305 Y-12.2084
G01 X-18.8646 Y-12.1646
G01 X-18.9382 Y-12.1155
G01 X-19.0139 Y-12.0985
G00 X-19.0139 Y-12.0985
G01 F60.00
G01 Z-0.1000
G01 F120.00
G01 X-18.9382 Y-12.1155
G01 X-18.8646 Y-12.1646
G01 X-18.8305 Y-12.2084
G01 X-18.8115 Y-12.2486
G01 X-18.8007 Y-12.2917
G01 X-18.7982 Y-12.3482
G01 X-18.7518 Y-12.3482
G01 X-18.7539 Y-12.2702
G01 X-18.7828 Y-12.1927
G01 X-18.8298 Y-12.1298
G01 X-18.8927 Y-12.0828
G01 X-18.9893 Y-12.0518
G01 X-19.3982 Y-12.0518
G01 X-19.3982 Y-12.0982
G01 X-19.0139 Y-12.0985
G00 Z2.0000
G00 X-20.3067 Y-14.5817
G01 F60.00
G01 Z-0.0250
G01 F120.00
G01 X-20.3067 Y-14.3683
G01 X-19.0233 Y-14.3683
G01 X-18.9061 Y-14.3614
G01 X-18.7554 Y-14.3328
G01 X-18.6104 Y-14.2823
G01 X-18.4744 Y-14.2111
G01 X-18.3491 Y-14.1197
G01 X-18.1683 Y-14.1193
G01 X-18.1683 Y-14.5067
G01 X-18.3445 Y-14.5090
G01 X-18.4796 Y-14.5261
G01 X-18.6242 Y-14.5638
G01 X-18.7553 Y-14.6172
G01 X-18.8818 Y-14.5916
G01 X-19.0050 Y-14.5820
G01 X-20.3067 Y-14.5817
G01 X-20.5789 Y-14.8539
G01 X-20.5789 Y-14.0961
G01 X-18.9561 Y-14.0930
G01 X-18.8140 Y-14.0666
G01 X-18.6833 Y-14.0162
G01 X-18.5603 Y-13.9403
G01 X-18.4581 Y-13.8477
G01 X-17.8961 Y-13.8466
G01 X-17.8961 Y-14.7789
G01 X-18.2896 Y-14.7791
G01 X-18.4089 Y-14.7900
G01 X-18.5800 Y-14.8373
G01 X-18.7278 Y-14.9136
G01 X-18.8615 Y-14.8715
G01 X-19.0005 Y-14.8543
G01 X-20.5789 Y-14.8539
G00 X-20.5789 Y-14.8539
G01 F60.00
G01 Z-0.0500
G01 F120.00
G01 X-19.0005 Y-14.8543
G01 X-18.8615 Y-14.8715
G01 X-18.7278 Y-14.9136
G01 X-18.5800 Y-14.8373
G01 X-18.4089 Y-14.7900
G01 X-18.2896 Y-14.7791
G01 X-17.8961 Y-14.7789
G01 X-17.8961 Y-13.8466
G01 X-18.4581 Y-13.8477
G01 X-18.5603 Y-13.9403
G01 X-18.6833 Y-14.0162
G01 X-18.8140 Y-14.0666
G01 X-18.9561 Y-14.0930
G01 X-20.5789 Y-14.0961
G01 X-20.5789 Y-14.8539
G01 X-20.3067 Y-14.5817
G01 X-19.0050 Y-14.5820
G01 X-18.8818 Y-14.5916
G01 X-18.7553 Y-14.6172
G01 X-18.6242 Y-14.5638
G01 X-18.4796 Y-14.5261
G01 X-18.3445 Y-14.5090
G01 X-18.1683 Y-14.5067
G01 X-18.1683 Y-14.1193
G01 X-18.3491 Y-14.1197
G01 X-18.4744 Y-14.2111
G01 X-18.6104 Y-14.2823
G01 X-18.7554 Y-14.3328
G01 X-18.9061 Y-14.3614
G01 X-19.0233 Y-14.3683
G01 X-20.3067 Y-14.3683
G01 X-20.3067 Y-14.5817
G00 X-20.3067 Y-14.5817
G01 F60.00
G01 Z-0.0750
G01 F120.00
G01 X-20.3067 Y-14.3683
G01 X-19.0233 Y-14.3683
G01 X-18.9061 Y-14.3614
G01 X-18.7554 Y-14.3328
G01 X-18.6104 Y-14.2823
G01 X-18.4744 Y-14.2111
G01 X-18.3491 Y-14.1197
G01 X-18.1683 Y-14.1193
G01 X-18.1683 Y-14.5067
G01 X-18.3445 Y-14.5090
G01 X-18.4796 Y-14.5261
G01 X-18.6242 Y-14.5638
G01 X-18.7553 Y-14.6172
G01 X-18.8818 Y-14.5916
G01 X-19.0050 Y-14.5820
G01 X-20.3067 Y-14.5817
G01 X-20.5789 Y-14.8539
G01 X-20.5789 Y-14.0961
G01 X-18.9561 Y-14.0930
G01 X-18.8140 Y-14.0666
G01 X-18.6833 Y-14.0162
G01 X-18.5603 Y-13.9403
G01 X-18.4581 Y-13.8477
G01 X-17.8961 Y-13.8466
G01 X-17.8961 Y-14.7789
G01 X-18.2896 Y-14.7791
G01 X-18.4089 Y-14.7900
G01 X-18.5800 Y-14.8373
G01 X-18.7278 Y-14.9136
G01 X-18.8615 Y-14.8715
G01 X-19.0005 Y-14.8543
G01 X-20.5789 Y-14.8539
G00 X-20.5789 Y-14.8539
G01 F60.00
G01 Z-0.1000
G01 F120.00
G01 X-19.0005 Y-14.8543
G01 X-18.8615 Y-14.8715
G01 X-18.7278 Y-14.9136
G01 X-18.5800 Y-14.8373
G01 X-18.4089 Y-14.7900
G01 X-18.2896 Y-14.7791
G01 X-17.8961 Y-14.7789
G01 X-17.8961 Y-13.8466
G01 X-18.4581 Y-13.8477
G01 X-18.5603 Y-13.9403
G01 X-18.6833 Y-14.0162
G01 X-18.8140 Y-14.0666
G01 X-18.9561 Y-14.0930
G01 X-20.5789 Y-14.0961
G01 X-20.5789 Y-14.8539
G01 X-20.3067 Y-14.5817
G01 X-19.0050 Y-14.5820
G01 X-18.8818 Y-14.5916
G01 X-18.7553 Y-14.6172
G01 X-18.6242 Y-14.5638
G01 X-18.4796 Y-14.5261
G01 X-18.3445 Y-14.5090
G01 X-18.1683 Y-14.5067
G01 X-18.1683 Y-14.1193
G01 X-18.3491 Y-14.1197
G01 X-18.4744 Y-14.2111
G01 X-18.6104 Y-14.2823
G01 X-18.7554 Y-14.3328
G01 X-18.9061 Y-14.3614
G01 X-19.0233 Y-14.3683
G01 X-20.3067 Y-14.3683
G01 X-20.3067 Y-14.5817
G00 Z2.0000
G00 X-20.9846 Y-17.0510
G01 F60.00
G01 Z-0.0250
G01 F120.00
G01 X-21.0240 Y-17.0510
G01 X-21.0086 Y-17.0355
G01 X-20.9846 Y-17.0510
G00 X-20.9846 Y-17.0510
G01 F60.00
G01 Z-0.0500
G01 F120.00
G01 X-21.0086 Y-17.0355
G01 X-21.0240 Y-17.0510
G01 X-20.9846 Y-17.0510
G00 X-20.9846 Y-17.0510
G01 F60.00
G01 Z-0.0750
G01 F120.00
G01 X-21.0240 Y-17.0510
G01 X-21.0086 Y-17.0355
G01 X-20.9846 Y-17.0510
G00 X-20.9846 Y-17.0510
G01 F60.00
G01 Z-0.1000
G01 F120.00
G01 X-21.0086 Y-17.0355
G01 X-21.0240 Y-17.0510
G01 X-20.9846 Y-17.0510
G00 Z2.0000
G00 X-20.5020 Y-17.2838
G01 F60.00
G01 Z-0.0250
G01 F120.00
G01 X-20.5483 Y-17.3721
G01 X-20.5747 Y-17.4832
G01 X-20.5747 Y-17.9668
G01 X-20.5584 Y-18.0489
G01 X-20.5264 Y-18.1262
G01 X-20.4799 Y-18.1958
G01 X-20.4292 Y-18.2476
G01 X-20.3777 Y-18.2858
G01 X-20.3029 Y-18.3233
G01 X-20.2333 Y-18.3436
G01 X-20.1556 Y-18.3517
G01 X-19.5582 Y-18.3497
G01 X-19.4655 Y-18.3299
G01 X-19.3723 Y-18.2858
G01 X-19.2982 Y-18.2268
G01 X-19.2392 Y-18.1527
G01 X-19.1951 Y-18.0595
G01 X-19.1753 Y-17.9668
G01 X-19.1744 Y-17.4943
G01 X-19.1951 Y-17.3905
G01 X-19.2465 Y-17.2859
G01 X-19.2475 Y-16.8518
G01 X-19.0250 Y-16.8518
G01 X-18.9699 Y-16.8450
G01 X-18.8990 Y-16.8136
G01 X-18.8371 Y-16.7520
G01 X-18.5386 Y-16.7520
G01 X-18.5033 Y-16.8128
G01 X-18.4566 Y-16.8615
G01 X-18.3997 Y-16.8978
G01 X-18.3410 Y-16.9188
G01 X-18.2796 Y-16.9267
G01 X-17.7804 Y-16.9267
G01 X-17.7132 Y-16.9174
G01 X-17.6503 Y-16.8928
G01 X-17.5906 Y-16.8502
G01 X-17.5467 Y-16.7989
G01 X-17.5161 Y-16.7388
G01 X-17.5009 Y-16.6783
G01 X-17.4982 Y-16.4564
G01 X-17.4552 Y-16.3751
G01 X-17.4300 Y-16.3070
G01 X-17.4074 Y-16.1975
G01 X-17.4030 Y-16.1250
G01 X-17.4074 Y-16.0525
G01 X-17.4300 Y-15.9430
G01 X-17.4552 Y-15.8749
G01 X-17.4982 Y-15.7936
G01 X-17.5009 Y-15.5717
G01 X-17.5141 Y-15.5169
G01 X-17.5407 Y-15.4605
G01 X-17.5906 Y-15.3998
G01 X-17.6503 Y-15.3572
G01 X-17.7132 Y-15.3326
G01 X-17.7860 Y-15.3232
G01 X-18.2796 Y-15.3233
G01 X-18.3410 Y-15.3312
G01 X-18.3997 Y-15.3522
G01 X-18.4566 Y-15.3885
G01 X-18.5033 Y-15.4372
G01 X-18.5386 Y-15.4980
G01 X-18.8371 Y-15.4980
G01 X-18.8727 Y-15.4570
G01 X-18.9181 Y-15.4250
G01 X-18.9699 Y-15.4050
G01 X-19.0139 Y-15.3985
G01 X-20.7250 Y-15.3982
G01 X-20.7908 Y-15.4080
G01 X-20.8416 Y-15.4305
G01 X-20.8854 Y-15.4646
G01 X-20.9195 Y-15.5084
G01 X-20.9420 Y-15.5592
G01 X-20.9507 Y-15.6028
G01 X-20.9474 Y-16.6692
G01 X-20.9300 Y-16.7220
G01 X-20.9003 Y-16.7689
G01 X-20.8601 Y-16.8072
G01 X-20.8118 Y-16.8345
G01 X-20.7361 Y-16.8515
G01 X-20.5020 Y-16.8518
G01 X-20.5020 Y-17.2838
G00 X-20.5020 Y-17.2838
G01 F60.00
G01 Z-0.0500
G01 F120.00
G01 X-20.5020 Y-16.8518
G01 X-20.7361 Y-16.8515
G01 X-20.8118 Y-16.8345
G01 X-20.8601 Y-16.8072
G01 X-20.9003 Y-16.7689
G01 X-20.9300 Y-16.7220
G01 X-20.9474 Y-16.6692
G01 X-20.9507 Y-15.6028
G01 X-20.9420 Y-15.5592
G01 X-20.9195 Y-15.5084
G01 X-20.8854 Y-15.4646
G01 X-20.8416 Y-15.4305
G01 X-20.7908 Y-15.4080
G01 X-20.7250 Y-15.3982
G01 X-19.0139 Y-15.3985
G01 X-18.9699 Y-15.4050
G01 X-18.9181 Y-15.4250
G01 X-18.8727 Y-15.4570
G01 X-18.8371 Y-15.4980
G01 X-18.5386 Y-15.4980
G01 X-18.5033 Y-15.4372
G01 X-18.4566 Y-15.3885
G01 X-18.3997 Y-15.3522
G01 X-18.3410 Y-15.3312
G01 X-18.2796 Y-15.3233
G01 X-17.7860 Y-15.3232
G01 X-17.7132 Y-15.3326
G01 X-17.6503 Y-15.3572
G01 X-17.5906 Y-15.3998
G01 X-17.5407 Y-15.4605
G01 X-17.5141 Y-15.5169
G01 X-17.5009 Y-15.5717
G01 X-17.4982 Y-15.7936
G01 X-17.4552 Y-15.8749
G01 X-17.4300 Y-15.9430
G01 X-17.4074 Y-16.0525
G01 X-17.4030 Y-16.1250
G01 X-17.4074 Y-16.1975
G01 X-17.4300 Y-16.3070
G01 X-17.4552 Y-16.3751
G01 X-17.4982 Y-16.4564
G01 X-17.5009 Y-16.6783
G01 X-17.5161 Y-16.7388
G01 X-17.5467 Y-16.7989
G01 X-17.5906 Y-16.8502
G01 X-17.6503 Y-16.8928
G01 X-17.7132 Y-16.9174
G01 X-17.7804 Y-16.9267
G01 X-18.2796 Y-16.9267
G01 X-18.3410 Y-16.9188
G01 X-18.3997 Y-16.8978
G01 X-18.4566 Y-16.8615
G01 X-18.5033 Y-16.8128
G01 X-18.5386 Y-16.7520
G01 X-18.8371 Y-16.7520
G01 X-18.8990 Y-16.8136
G01 X-18.9699 Y-16.8450
G01 X-19.0250 Y-16.8518
G01 X-19.2475 Y-16.8518
G01 X-19.2465 Y-17.2859
G01 X-19.1951 Y-17.3905
G01 X-19.1744 Y-17.4943
G01 X-19.1753 Y-17.9668
G01 X-19.1951 Y-18.0595
G01 X-19.2392 Y-18.1527
G01 X-19.2982 Y-18.2268
G01 X-19.3723 Y-18.2858
G01 X-19.4655 Y-18.3299
G01 X-19.5582 Y-18.3497
G01 X-20.1556 Y-18.3517
G01 X-20.2333 Y-18.3436
G01 X-20.3029 Y-18.3233
G01 X-20.3777 Y-18.2858
G01 X-20.4292 Y-18.2476
G01 X-20.4799 Y-18.1958
G01 X-20.5264 Y-18.1262
G01 X-20.5584 Y-18.0489
G01 X-20.5747 Y-17.9668
G01 X-20.5747 Y-17.4832
G01 X-20.5483 Y-17.3721
G01 X-20.5020 Y-17.2838
G00 X-20.5020 Y-17.2838
G01 F60.00
G01 Z-0.0750
G01 F120.00
G01 X-20.5483 Y-17.3721
G01 X-20.5747 Y-17.4832
G01 X-20.5747 Y-17.9668
G01 X-20.5584 Y-18.0489
G01 X-20.5264 Y-18.1262
G01 X-20.4799 Y-18.1958
G01 X-20.4292 Y-18.2476
G01 X-20.3777 Y-18.2858
G01 X-20.3029 Y-18.3233
G01 X-20.2333 Y-18.3436
G01 X-20.1556 Y-18.3517
G01 X-19.5582 Y-18.3497
G01 X-19.4655 Y-18.3299
G01 X-19.3723 Y-18.2858
G01 X-19.2982 Y-18.2268
G01 X-19.2392 Y-18.1527
G01 X-19.1951 Y-18.0595
G01 X-19.1753 Y-17.9668
G01 X-19.1744 Y-17.4943
G01 X-19.1951 Y-17.3905
G01 X-19.2465 Y-17.2859
G01 X-19.2475 Y-16.8518
G01 X-19.0250 Y-16.8518
G01 X-18.9699 Y-16.8450
G01 X-18.8990 Y-16.8136
G01 X-18.8371 Y-16.7520
G01 X-18.5386 Y-16.7520
G01 X-18.5033 Y-16.8128
G01 X-18.4566 Y-16.8615
G01 X-18.3997 Y-16.8978
G01 X-18.3410 Y-16.9188
G01 X-18.2796 Y-16.9267
G01 X-17.7804 Y-16.9267
G01 X-17.7132 Y-16.9174
G01 X-17.6503 Y-16.8928
G01 X-17.5906 Y-16.8502
G01 X-17.5467 Y-16.7989
G01 X-17.5161 Y-16.7388
G01 X-17.5009 Y-16.6783
G01 X-17.4982 Y-16.4564
G01 X-17.4552 Y-16.3751
G01 X-17.4300 Y-16.3070
G01 X-17.4074 Y-16.1975
G01 X-17.4030 Y-16.1250
G01 X-17.4074 Y-16.0525
G01 X-17.4300 Y-15.9430
G01 X-17.4552 Y-15.8749
G01 X-17.4982 Y-15.7936
G01 X-17.5009 Y-15.5717
G01 X-17.5141 Y-15.5169
G01 X-17.5407 Y-15.4605
G01 X-17.5906 Y-15.3998
G01 X-17.6503 Y-15.3572
G01 X-17.7132 Y-15.3326
G01 X-17.7860 Y-15.3232
G01 X-18.2796 Y-15.3233
G01 X-18.3410 Y-15.3312
G01 X-18.3997 Y-15.3522
G01 X-18.4566 Y-15.3885
G01 X-18.5033 Y-15.4372
G01 X-18.5386 Y-15.4980
G01 X-18.8371 Y-15.4980
G01 X-18.8727 Y-15.4570
G01 X-18.9181 Y-15.4250
G01 X-18.9699 Y-15.4050
G01 X-19.0139 Y-15.3985
G01 X-20.7250 Y-15.3982
G01 X-20.7908 Y-15.4080
G01 X-20.8416 Y-15.4305
G01 X-20.8854 Y-15.4646
G01 X-20.9195 Y-15.5084
G01 X-20.9420 Y-15.5592
G01 X-20.9507 Y-15.6028
G01 X-20.9474 Y-16.6692
G01 X-20.9300 Y-16.7220
G01 X-20.9003 Y-16.7689
G01 X-20.8601 Y-16.8072
G01 X-20.8118 Y-16.8345
G01 X-20.7361 Y-16.8515
G01 X-20.5020 Y-16.8518
G01 X-20.5020 Y-17.2838
G00 X-20.5020 Y-17.2838
G01 F60.00
G01 Z-0.1000
G01 F120.00
G01 X-20.5020 Y-16.8518
G01 X-20.7361 Y-16.8515
G01 X-20.8118 Y-16.8345
G01 X-20.8601 Y-16.8072
G01 X-20.9003 Y-16.7689
G01 X-20.9300 Y-16.7220
G01 X-20.9474 Y-16.6692
G01 X-20.9507 Y-15.6028
G01 X-20.9420 Y-15.5592
G01 X-20.9195 Y-15.5084
G01 X-20.8854 Y-15.4646
G01 X-20.8416 Y-15.4305
G01 X-20.7908 Y-15.4080
G01 X-20.7250 Y-15.3982
G01 X-19.0139 Y-15.3985
G01 X-18.9699 Y-15.4050
G01 X-18.9181 Y-15.4250
G01 X-18.8727 Y-15.4570
G01 X-18.8371 Y-15.4980
G01 X-18.5386 Y-15.4980
G01 X-18.5033 Y-15.4372
G01 X-18.4566 Y-15.3885
G01 X-18.3997 Y-15.3522
G01 X-18.3410 Y-15.3312
G01 X-18.2796 Y-15.3233
G01 X-17.7860 Y-15.3232
G01 X-17.7132 Y-15.3326
G01 X-17.6503 Y-15.3572
G01 X-17.5906 Y-15.3998
G01 X-17.5407 Y-15.4605
G01 X-17.5141 Y-15.5169
G01 X-17.5009 Y-15.5717
G01 X-17.4982 Y-15.7936
G01 X-17.4552 Y-15.8749
G01 X-17.4300 Y-15.9430
G01 X-17.4074 Y-16.0525
G01 X-17.4030 Y-16.1250
G01 X-17.4074 Y-16.1975
G01 X-17.4300 Y-16.3070
G01 X-17.4552 Y-16.3751
G01 X-17.4982 Y-16.4564
G01 X-17.5009 Y-16.6783
G01 X-17.5161 Y-16.7388
G01 X-17.5467 Y-16.7989
G01 X-17.5906 Y-16.8502
G01 X-17.6503 Y-16.8928
G01 X-17.7132 Y-16.9174
G01 X-17.7804 Y-16.9267
G01 X-18.2796 Y-16.9267
G01 X-18.3410 Y-16.9188
G01 X-18.3997 Y-16.8978
G01 X-18.4566 Y-16.8615
G01 X-18.5033 Y-16.8128
G01 X-18.5386 Y-16.7520
G01 X-18.8371 Y-16.7520
G01 X-18.8990 Y-16.8136
G01 X-18.9699 Y-16.8450
G01 X-19.0250 Y-16.8518
G01 X-19.2475 Y-16.8518
G01 X-19.2465 Y-17.2859
G01 X-19.1951 Y-17.3905
G01 X-19.1744 Y-17.4943
G01 X-19.1753 Y-17.9668
G01 X-19.1951 Y-18.0595
G01 X-19.2392 Y-18.1527
G01 X-19.2982 Y-18.2268
G01 X-19.3723 Y-18.2858
G01 X-19.4655 Y-18.3299
G01 X-19.5582 Y-18.3497
G01 X-20.1556 Y-18.3517
G01 X-20.2333 Y-18.3436
G01 X-20.3029 Y-18.3233
G01 X-20.3777 Y-18.2858
G01 X-20.4292 Y-18.2476
G01 X-20.4799 Y-18.1958
G01 X-20.5264 Y-18.1262
G01 X-20.5584 Y-18.0489
G01 X-20.5747 Y-17.9668
G01 X-20.5747 Y-17.4832
G01 X-20.5483 Y-17.3721
G01 X-20.5020 Y-17.2838
G00 Z2.0000
G00 X-18.6531 Y-17.0510
G01 F60.00
G01 Z-0.0250
G01 F120.00
G01 X-18.7654 Y-17.0510
G01 X-18.7257 Y-17.0242
G01 X-18.6803 Y-17.0242
G01 X-18.6531 Y-17.0510
G00 X-18.6531 Y-17.0510
G01 F60.00
G01 Z-0.0500
G01 F120.00
G01 X-18.6803 Y-17.0242
G01 X-18.7257 Y-17.0242
G01 X-18.7654 Y-17.0510
G01 X-18.6531 Y-17.0510
G00 X-18.6531 Y-17.0510
G01 F60.00
G01 Z-0.0750
G01 F120.00
G01 X-18.7654 Y-17.0510
G01 X-18.7257 Y-17.0242
G01 X-18.6803 Y-17.0242
G01 X-18.6531 Y-17.0510
G00 X-18.6531 Y-17.0510
G01 F60.00
G01 Z-0.1000
G01 F120.00
G01 X-18.6803 Y-17.0242
G01 X-18.7257 Y-17.0242
G01 X-18.7654 Y-17.0510
G01 X-18.6531 Y-17.0510
G00 Z2.0000
G00 X-17.6240 Y-15.0751
G01 F60.00
G01 Z-0.0250
G01 F120.00
G01 X-17.7704 Y-15.0513
G01 X-18.3532 Y-15.0567
G01 X-18.4429 Y-15.0772
G01 X-18.5320 Y-15.1141
G01 X-18.6099 Y-15.1631
G01 X-18.6803 Y-15.2258
G01 X-18.7257 Y-15.2258
G01 X-18.7957 Y-15.1819
G01 X-18.8738 Y-15.1495
G01 X-19.0072 Y-15.1264
G01 X-20.7250 Y-15.1260
G01 X-20.8510 Y-15.1423
G01 X-20.8510 Y-13.8077
G01 X-20.7250 Y-13.8240
G01 X-18.9939 Y-13.8229
G01 X-18.8738 Y-13.8005
G01 X-18.7628 Y-13.7495
G01 X-18.6675 Y-13.6730
G01 X-18.5927 Y-13.5740
G01 X-17.6240 Y-13.5740
G01 X-17.6240 Y-15.0751
G00 X-17.6240 Y-15.0751
G01 F60.00
G01 Z-0.0500
G01 F120.00
G01 X-17.6240 Y-13.5740
G01 X-18.5927 Y-13.5740
G01 X-18.6675 Y-13.6730
G01 X-18.7628 Y-13.7495
G01 X-18.8738 Y-13.8005
G01 X-18.9939 Y-13.8229
G01 X-20.7250 Y-13.8240
G01 X-20.8510 Y-13.8077
G01 X-20.8510 Y-15.1423
G01 X-20.7250 Y-15.1260
G01 X-19.0072 Y-15.1264
G01 X-18.8738 Y-15.1495
G01 X-18.7957 Y-15.1819
G01 X-18.7257 Y-15.2258
G01 X-18.6803 Y-15.2258
G01 X-18.6099 Y-15.1631
G01 X-18.5320 Y-15.1141
G01 X-18.4429 Y-15.0772
G01 X-18.3532 Y-15.0567
G01 X-17.7704 Y-15.0513
G01 X-17.6240 Y-15.0751
G00 X-17.6240 Y-15.0751
G01 F60.00
G01 Z-0.0750
G01 F120.00
G01 X-17.7704 Y-15.0513
G01 X-18.3532 Y-15.0567
G01 X-18.4429 Y-15.0772
G01 X-18.5320 Y-15.1141
G01 X-18.6099 Y-15.1631
G01 X-18.6803 Y-15.2258
G01 X-18.7257 Y-15.2258
G01 X-18.7957 Y-15.1819
G01 X-18.8738 Y-15.1495
G01 X-19.0072 Y-15.1264
G01 X-20.7250 Y-15.1260
G01 X-20.8510 Y-15.1423
G01 X-20.8510 Y-13.8077
G01 X-20.7250 Y-13.8240
G01 X-18.9939 Y-13.8229
G01 X-18.8738 Y-13.8005
G01 X-18.7628 Y-13.7495
G01 X-18.6675 Y-13.6730
G01 X-18.5927 Y-13.5740
G01 X-17.6240 Y-13.5740
G01 X-17.6240 Y-15.0751
G00 X-17.6240 Y-15.0751
G01 F60.00
G01 Z-0.1000
G01 F120.00
G01 X-17.6240 Y-13.5740
G01 X-18.5927 Y-13.5740
G01 X-18.6675 Y-13.6730
G01 X-18.7628 Y-13.7495
G01 X-18.8738 Y-13.8005
G01 X-18.9939 Y-13.8229
G01 X-20.7250 Y-13.8240
G01 X-20.8510 Y-13.8077
G01 X-20.8510 Y-15.1423
G01 X-20.7250 Y-15.1260
G01 X-19.0072 Y-15.1264
G01 X-18.8738 Y-15.1495
G01 X-18.7957 Y-15.1819
G01 X-18.7257 Y-15.2258
G01 X-18.6803 Y-15.2258
G01 X-18.6099 Y-15.1631
G01 X-18.5320 Y-15.1141
G01 X-18.4429 Y-15.0772
G01 X-18.3532 Y-15.0567
G01 X-17.7704 Y-15.0513
G01 X-17.6240 Y-15.0751
G00 Z2.0000
G00 X-20.6232 Y-19.6402
G01 F60.00
G01 Z-0.0250
G01 F120.00
G01 X-20.6256 Y-17.6444
G01 X-20.6599 Y-17.5198
G01 X-20.7067 Y-17.4516
G01 X-20.7698 Y-17.3904
G01 X-20.8095 Y-17.3645
G01 X-20.9449 Y-17.3251
G01 X-25.9020 Y-17.3232
G01 X-25.9589 Y-17.3305
G01 X-26.0773 Y-17.3703
G01 X-26.1310 Y-17.4116
G01 X-26.2108 Y-17.5077
G01 X-26.2335 Y-17.5660
G01 X-26.2523 Y-17.6844
G01 X-26.2373 Y-17.7662
G01 X-26.1998 Y-17.8579
G01 X-26.1578 Y-17.9177
G01 X-26.1268 Y-18.0143
G01 X-26.1268 Y-20.0732
G01 X-26.1732 Y-20.0732
G01 X-26.1743 Y-18.0278
G01 X-26.1905 Y-17.9632
G01 X-26.2320 Y-17.8977
G01 X-26.2931 Y-17.8500
G01 X-26.3558 Y-17.8276
G01 X-36.4000 Y-17.8232
G01 X-36.4764 Y-17.8365
G01 X-36.5439 Y-17.8747
G01 X-36.5886 Y-17.9240
G01 X-36.6170 Y-17.9842
G01 X-36.6268 Y-18.0500
G01 X-36.6268 Y-23.0500
G01 X-36.6135 Y-23.1264
G01 X-36.5753 Y-23.1939
