(G-code generated by FlatCAM Evo vUnstable - Version Date: 2022/4/31)

(Name: circuit_protection.drl_cnc)
(Type: G-code from Excellon)
(Units: MM)

(Created on Tuesday, 18 April 2023 at 18:54)

(This preprocessor is the default preprocessor.)
(It is made to work with MACH3 compatible motion controllers.)


(TOOLS DIAMETER: )
(Tool: 1 -> Dia: 0.8000999999999999)

(FEEDRATE Z: )
(Tool: 1 -> Feedrate: 120.0)

(FEEDRATE RAPIDS: )
(Tool: 1 -> Feedrate Rapids: 1500)

(Z_CUT: )
(Tool: 1 -> Z_Cut: -2.5)

(Tools Offset: )
(Tool: 1 -> Offset Z: 0.0)

(Z_MOVE: )
(Tool: 1 -> Z_Move: 2)

(Z Start: None mm)
(Z End: 15 mm)
(X,Y End: 0.0000, 0.0000 mm)
(Steps per circle: 16)
(Preprocessor Excellon: default)

(X range:  -36.4744 ...   -2.8499  mm)
(Y range:   -6.0503 ...   -2.8499  mm)

(Spindle Speed: 13000 RPM)
G21
G90
G94

G01 F120.00
G00 Z2.0000

M03 S13000
G4 P1
G00 X-18.3490 Y-5.0013
G01 Z-2.5000
G01 Z0
G00 Z2.0000
G00 X-27.5742 Y-5.0013
G01 Z-2.5000
G01 Z0
G00 Z2.0000
M05
G00 Z15.00
G00 X0.0 Y0.0


