(G-code generated by FlatCAM Evo vUnstable - Version Date: 2022/4/31)

(Name: circuit_protection.drl_exc_cnc_cnc)
(Type: G-code from Geometry)
(Units: MM)

(Created on Tuesday, 18 April 2023 at 18:54)

(This preprocessor is the default preprocessor.)
(It is made to work with MACH3 compatible motion controllers.)

(TOOL DIAMETER: 1.0 mm)
(Feedrate_XY: 120.0 mm/min)
(Feedrate_Z: 60.0 mm/min)
(Feedrate rapids 1500.0 mm/min)

(Z_Cut: -2.5 mm)
(DepthPerCut: 0.5 mm <=>5 passes)
(Z_Move: 2.0 mm)
(Z Start: None mm)
(Z End: 15.0 mm)
(X,Y End: 0.0000, 0.0000 mm)
(Steps per circle: 16)
(Preprocessor Geometry: default)

(X range:  -36.4744 ...   -2.8499  mm)
(Y range:   -6.0503 ...   -2.8499  mm)

(Spindle Speed: 13000.0 RPM)
G21
G90
G94

G01 F120.00
G00 Z2.0000

M03 S13000.0
G4 P1.0
G01 F120.00
G00 X-3.3505 Y-4.4501
G01 F60.00
G01 Z-0.5000
G01 F120.00
G01 X-3.3558 Y-4.5579
G01 X-3.3716 Y-4.6646
G01 X-3.3978 Y-4.7693
G01 X-3.4342 Y-4.8709
G01 X-3.4803 Y-4.9684
G01 X-3.5358 Y-5.0610
G01 X-3.6001 Y-5.1477
G01 X-3.6725 Y-5.2276
G01 X-3.7525 Y-5.3001
G01 X-3.8392 Y-5.3644
G01 X-3.9317 Y-5.4198
G01 X-4.0293 Y-5.4660
G01 X-4.1309 Y-5.5023
G01 X-4.2356 Y-5.5285
G01 X-4.3423 Y-5.5444
G01 X-4.4501 Y-5.5497
G01 X-4.5579 Y-5.5444
G01 X-4.6646 Y-5.5285
G01 X-4.7693 Y-5.5023
G01 X-4.8709 Y-5.4660
G01 X-4.9684 Y-5.4198
G01 X-5.0610 Y-5.3644
G01 X-5.1477 Y-5.3001
G01 X-5.2276 Y-5.2276
G01 X-5.3001 Y-5.1477
G01 X-5.3644 Y-5.0610
G01 X-5.4198 Y-4.9684
G01 X-5.4660 Y-4.8709
G01 X-5.5023 Y-4.7693
G01 X-5.5285 Y-4.6646
G01 X-5.5444 Y-4.5579
G01 X-5.5497 Y-4.4501
G01 X-5.5444 Y-4.3423
G01 X-5.5285 Y-4.2356
G01 X-5.5023 Y-4.1309
G01 X-5.4660 Y-4.0293
G01 X-5.4198 Y-3.9317
G01 X-5.3644 Y-3.8392
G01 X-5.3001 Y-3.7525
G01 X-5.2276 Y-3.6725
G01 X-5.1477 Y-3.6001
G01 X-5.0610 Y-3.5358
G01 X-4.9684 Y-3.4803
G01 X-4.8709 Y-3.4342
G01 X-4.7693 Y-3.3978
G01 X-4.6646 Y-3.3716
G01 X-4.5579 Y-3.3558
G01 X-4.4501 Y-3.3505
G01 X-4.3423 Y-3.3558
G01 X-4.2356 Y-3.3716
G01 X-4.1309 Y-3.3978
G01 X-4.0293 Y-3.4342
G01 X-3.9317 Y-3.4803
G01 X-3.8392 Y-3.5358
G01 X-3.7525 Y-3.6001
G01 X-3.6725 Y-3.6725
G01 X-3.6001 Y-3.7525
G01 X-3.5358 Y-3.8392
G01 X-3.4803 Y-3.9317
G01 X-3.4342 Y-4.0293
G01 X-3.3978 Y-4.1309
G01 X-3.3716 Y-4.2356
G01 X-3.3558 Y-4.3423
G01 X-3.3505 Y-4.4501
G00 X-3.3505 Y-4.4501
G01 F60.00
G01 Z-1.0000
G01 F120.00
G01 X-3.3558 Y-4.3423
G01 X-3.3716 Y-4.2356
G01 X-3.3978 Y-4.1309
G01 X-3.4342 Y-4.0293
G01 X-3.4803 Y-3.9317
G01 X-3.5358 Y-3.8392
G01 X-3.6001 Y-3.7525
G01 X-3.6725 Y-3.6725
G01 X-3.7525 Y-3.6001
G01 X-3.8392 Y-3.5358
G01 X-3.9317 Y-3.4803
G01 X-4.0293 Y-3.4342
G01 X-4.1309 Y-3.3978
G01 X-4.2356 Y-3.3716
G01 X-4.3423 Y-3.3558
G01 X-4.4501 Y-3.3505
G01 X-4.5579 Y-3.3558
G01 X-4.6646 Y-3.3716
G01 X-4.7693 Y-3.3978
G01 X-4.8709 Y-3.4342
G01 X-4.9684 Y-3.4803
G01 X-5.0610 Y-3.5358
G01 X-5.1477 Y-3.6001
G01 X-5.2276 Y-3.6725
G01 X-5.3001 Y-3.7525
G01 X-5.3644 Y-3.8392
G01 X-5.4198 Y-3.9317
G01 X-5.4660 Y-4.0293
G01 X-5.5023 Y-4.1309
G01 X-5.5285 Y-4.2356
G01 X-5.5444 Y-4.3423
G01 X-5.5497 Y-4.4501
G01 X-5.5444 Y-4.5579
G01 X-5.5285 Y-4.6646
G01 X-5.5023 Y-4.7693
G01 X-5.4660 Y-4.8709
G01 X-5.4198 Y-4.9684
G01 X-5.3644 Y-5.0610
G01 X-5.3001 Y-5.1477
G01 X-5.2276 Y-5.2276
G01 X-5.1477 Y-5.3001
G01 X-5.0610 Y-5.3644
G01 X-4.9684 Y-5.4198
G01 X-4.8709 Y-5.4660
G01 X-4.7693 Y-5.5023
G01 X-4.6646 Y-5.5285
G01 X-4.5579 Y-5.5444
G01 X-4.4501 Y-5.5497
G01 X-4.3423 Y-5.5444
G01 X-4.2356 Y-5.5285
G01 X-4.1309 Y-5.5023
G01 X-4.0293 Y-5.4660
G01 X-3.9317 Y-5.4198
G01 X-3.8392 Y-5.3644
G01 X-3.7525 Y-5.3001
G01 X-3.6725 Y-5.2276
G01 X-3.6001 Y-5.1477
G01 X-3.5358 Y-5.0610
G01 X-3.4803 Y-4.9684
G01 X-3.4342 Y-4.8709
G01 X-3.3978 Y-4.7693
G01 X-3.3716 Y-4.6646
G01 X-3.3558 Y-4.5579
G01 X-3.3505 Y-4.4501
G00 X-3.3505 Y-4.4501
G01 F60.00
G01 Z-1.5000
G01 F120.00
G01 X-3.3558 Y-4.5579
G01 X-3.3716 Y-4.6646
G01 X-3.3978 Y-4.7693
G01 X-3.4342 Y-4.8709
G01 X-3.4803 Y-4.9684
G01 X-3.5358 Y-5.0610
G01 X-3.6001 Y-5.1477
G01 X-3.6725 Y-5.2276
G01 X-3.7525 Y-5.3001
G01 X-3.8392 Y-5.3644
G01 X-3.9317 Y-5.4198
G01 X-4.0293 Y-5.4660
G01 X-4.1309 Y-5.5023
G01 X-4.2356 Y-5.5285
G01 X-4.3423 Y-5.5444
G01 X-4.4501 Y-5.5497
G01 X-4.5579 Y-5.5444
G01 X-4.6646 Y-5.5285
G01 X-4.7693 Y-5.5023
G01 X-4.8709 Y-5.4660
G01 X-4.9684 Y-5.4198
G01 X-5.0610 Y-5.3644
G01 X-5.1477 Y-5.3001
G01 X-5.2276 Y-5.2276
G01 X-5.3001 Y-5.1477
G01 X-5.3644 Y-5.0610
G01 X-5.4198 Y-4.9684
G01 X-5.4660 Y-4.8709
G01 X-5.5023 Y-4.7693
G01 X-5.5285 Y-4.6646
G01 X-5.5444 Y-4.5579
G01 X-5.5497 Y-4.4501
G01 X-5.5444 Y-4.3423
G01 X-5.5285 Y-4.2356
G01 X-5.5023 Y-4.1309
G01 X-5.4660 Y-4.0293
G01 X-5.4198 Y-3.9317
G01 X-5.3644 Y-3.8392
G01 X-5.3001 Y-3.7525
G01 X-5.2276 Y-3.6725
G01 X-5.1477 Y-3.6001
G01 X-5.0610 Y-3.5358
G01 X-4.9684 Y-3.4803
G01 X-4.8709 Y-3.4342
G01 X-4.7693 Y-3.3978
G01 X-4.6646 Y-3.3716
G01 X-4.5579 Y-3.3558
G01 X-4.4501 Y-3.3505
G01 X-4.3423 Y-3.3558
G01 X-4.2356 Y-3.3716
G01 X-4.1309 Y-3.3978
G01 X-4.0293 Y-3.4342
G01 X-3.9317 Y-3.4803
G01 X-3.8392 Y-3.5358
G01 X-3.7525 Y-3.6001
G01 X-3.6725 Y-3.6725
G01 X-3.6001 Y-3.7525
G01 X-3.5358 Y-3.8392
G01 X-3.4803 Y-3.9317
G01 X-3.4342 Y-4.0293
G01 X-3.3978 Y-4.1309
G01 X-3.3716 Y-4.2356
G01 X-3.3558 Y-4.3423
G01 X-3.3505 Y-4.4501
G00 X-3.3505 Y-4.4501
G01 F60.00
G01 Z-2.0000
G01 F120.00
G01 X-3.3558 Y-4.3423
G01 X-3.3716 Y-4.2356
G01 X-3.3978 Y-4.1309
G01 X-3.4342 Y-4.0293
G01 X-3.4803 Y-3.9317
G01 X-3.5358 Y-3.8392
G01 X-3.6001 Y-3.7525
G01 X-3.6725 Y-3.6725
G01 X-3.7525 Y-3.6001
G01 X-3.8392 Y-3.5358
G01 X-3.9317 Y-3.4803
G01 X-4.0293 Y-3.4342
G01 X-4.1309 Y-3.3978
G01 X-4.2356 Y-3.3716
G01 X-4.3423 Y-3.3558
G01 X-4.4501 Y-3.3505
G01 X-4.5579 Y-3.3558
G01 X-4.6646 Y-3.3716
G01 X-4.7693 Y-3.3978
G01 X-4.8709 Y-3.4342
G01 X-4.9684 Y-3.4803
G01 X-5.0610 Y-3.5358
G01 X-5.1477 Y-3.6001
G01 X-5.2276 Y-3.6725
G01 X-5.3001 Y-3.7525
G01 X-5.3644 Y-3.8392
G01 X-5.4198 Y-3.9317
G01 X-5.4660 Y-4.0293
G01 X-5.5023 Y-4.1309
G01 X-5.5285 Y-4.2356
G01 X-5.5444 Y-4.3423
G01 X-5.5497 Y-4.4501
G01 X-5.5444 Y-4.5579
G01 X-5.5285 Y-4.6646
G01 X-5.5023 Y-4.7693
G01 X-5.4660 Y-4.8709
G01 X-5.4198 Y-4.9684
G01 X-5.3644 Y-5.0610
G01 X-5.3001 Y-5.1477
G01 X-5.2276 Y-5.2276
G01 X-5.1477 Y-5.3001
G01 X-5.0610 Y-5.3644
G01 X-4.9684 Y-5.4198
G01 X-4.8709 Y-5.4660
G01 X-4.7693 Y-5.5023
G01 X-4.6646 Y-5.5285
G01 X-4.5579 Y-5.5444
G01 X-4.4501 Y-5.5497
G01 X-4.3423 Y-5.5444
G01 X-4.2356 Y-5.5285
G01 X-4.1309 Y-5.5023
G01 X-4.0293 Y-5.4660
G01 X-3.9317 Y-5.4198
G01 X-3.8392 Y-5.3644
G01 X-3.7525 Y-5.3001
G01 X-3.6725 Y-5.2276
G01 X-3.6001 Y-5.1477
G01 X-3.5358 Y-5.0610
G01 X-3.4803 Y-4.9684
G01 X-3.4342 Y-4.8709
G01 X-3.3978 Y-4.7693
G01 X-3.3716 Y-4.6646
G01 X-3.3558 Y-4.5579
G01 X-3.3505 Y-4.4501
G00 X-3.3505 Y-4.4501
G01 F60.00
G01 Z-2.5000
G01 F120.00
G01 X-3.3558 Y-4.5579
G01 X-3.3716 Y-4.6646
G01 X-3.3978 Y-4.7693
G01 X-3.4342 Y-4.8709
G01 X-3.4803 Y-4.9684
G01 X-3.5358 Y-5.0610
G01 X-3.6001 Y-5.1477
G01 X-3.6725 Y-5.2276
G01 X-3.7525 Y-5.3001
G01 X-3.8392 Y-5.3644
G01 X-3.9317 Y-5.4198
G01 X-4.0293 Y-5.4660
G01 X-4.1309 Y-5.5023
G01 X-4.2356 Y-5.5285
G01 X-4.3423 Y-5.5444
G01 X-4.4501 Y-5.5497
G01 X-4.5579 Y-5.5444
G01 X-4.6646 Y-5.5285
G01 X-4.7693 Y-5.5023
G01 X-4.8709 Y-5.4660
G01 X-4.9684 Y-5.4198
G01 X-5.0610 Y-5.3644
G01 X-5.1477 Y-5.3001
G01 X-5.2276 Y-5.2276
G01 X-5.3001 Y-5.1477
G01 X-5.3644 Y-5.0610
G01 X-5.4198 Y-4.9684
G01 X-5.4660 Y-4.8709
G01 X-5.5023 Y-4.7693
G01 X-5.5285 Y-4.6646
G01 X-5.5444 Y-4.5579
G01 X-5.5497 Y-4.4501
G01 X-5.5444 Y-4.3423
G01 X-5.5285 Y-4.2356
G01 X-5.5023 Y-4.1309
G01 X-5.4660 Y-4.0293
G01 X-5.4198 Y-3.9317
G01 X-5.3644 Y-3.8392
G01 X-5.3001 Y-3.7525
G01 X-5.2276 Y-3.6725
G01 X-5.1477 Y-3.6001
G01 X-5.0610 Y-3.5358
G01 X-4.9684 Y-3.4803
G01 X-4.8709 Y-3.4342
G01 X-4.7693 Y-3.3978
G01 X-4.6646 Y-3.3716
G01 X-4.5579 Y-3.3558
G01 X-4.4501 Y-3.3505
G01 X-4.3423 Y-3.3558
G01 X-4.2356 Y-3.3716
G01 X-4.1309 Y-3.3978
G01 X-4.0293 Y-3.4342
G01 X-3.9317 Y-3.4803
G01 X-3.8392 Y-3.5358
G01 X-3.7525 Y-3.6001
G01 X-3.6725 Y-3.6725
G01 X-3.6001 Y-3.7525
G01 X-3.5358 Y-3.8392
G01 X-3.4803 Y-3.9317
G01 X-3.4342 Y-4.0293
G01 X-3.3978 Y-4.1309
G01 X-3.3716 Y-4.2356
G01 X-3.3558 Y-4.3423
G01 X-3.3505 Y-4.4501
G00 Z2.0000
G00 X-4.0001 Y-4.4501
G01 F60.00
G01 Z-0.5000
G01 F120.00
G01 X-4.0087 Y-4.5379
G01 X-4.0343 Y-4.6223
G01 X-4.0759 Y-4.7001
G01 X-4.1319 Y-4.7683
G01 X-4.2001 Y-4.8242
G01 X-4.2779 Y-4.8658
G01 X-4.3623 Y-4.8914
G01 X-4.4501 Y-4.9001
G01 X-4.5379 Y-4.8914
G01 X-4.6223 Y-4.8658
G01 X-4.7001 Y-4.8242
G01 X-4.7683 Y-4.7683
G01 X-4.8242 Y-4.7001
G01 X-4.8658 Y-4.6223
G01 X-4.8914 Y-4.5379
G01 X-4.9001 Y-4.4501
G01 X-4.8914 Y-4.3623
G01 X-4.8658 Y-4.2779
G01 X-4.8242 Y-4.2001
G01 X-4.7683 Y-4.1319
G01 X-4.7001 Y-4.0759
G01 X-4.6223 Y-4.0343
G01 X-4.5379 Y-4.0087
G01 X-4.4501 Y-4.0001
G01 X-4.3623 Y-4.0087
G01 X-4.2779 Y-4.0343
G01 X-4.2001 Y-4.0759
G01 X-4.1319 Y-4.1319
G01 X-4.0759 Y-4.2001
G01 X-4.0343 Y-4.2779
G01 X-4.0087 Y-4.3623
G01 X-4.0001 Y-4.4501
G00 X-4.0001 Y-4.4501
G01 F60.00
G01 Z-1.0000
G01 F120.00
G01 X-4.0087 Y-4.3623
G01 X-4.0343 Y-4.2779
G01 X-4.0759 Y-4.2001
G01 X-4.1319 Y-4.1319
G01 X-4.2001 Y-4.0759
G01 X-4.2779 Y-4.0343
G01 X-4.3623 Y-4.0087
G01 X-4.4501 Y-4.0001
G01 X-4.5379 Y-4.0087
G01 X-4.6223 Y-4.0343
G01 X-4.7001 Y-4.0759
G01 X-4.7683 Y-4.1319
G01 X-4.8242 Y-4.2001
G01 X-4.8658 Y-4.2779
G01 X-4.8914 Y-4.3623
G01 X-4.9001 Y-4.4501
G01 X-4.8914 Y-4.5379
G01 X-4.8658 Y-4.6223
G01 X-4.8242 Y-4.7001
G01 X-4.7683 Y-4.7683
G01 X-4.7001 Y-4.8242
G01 X-4.6223 Y-4.8658
G01 X-4.5379 Y-4.8914
G01 X-4.4501 Y-4.9001
G01 X-4.3623 Y-4.8914
G01 X-4.2779 Y-4.8658
G01 X-4.2001 Y-4.8242
G01 X-4.1319 Y-4.7683
G01 X-4.0759 Y-4.7001
G01 X-4.0343 Y-4.6223
G01 X-4.0087 Y-4.5379
G01 X-4.0001 Y-4.4501
G00 X-4.0001 Y-4.4501
G01 F60.00
G01 Z-1.5000
G01 F120.00
G01 X-4.0087 Y-4.5379
G01 X-4.0343 Y-4.6223
G01 X-4.0759 Y-4.7001
G01 X-4.1319 Y-4.7683
G01 X-4.2001 Y-4.8242
G01 X-4.2779 Y-4.8658
G01 X-4.3623 Y-4.8914
G01 X-4.4501 Y-4.9001
G01 X-4.5379 Y-4.8914
G01 X-4.6223 Y-4.8658
G01 X-4.7001 Y-4.8242
G01 X-4.7683 Y-4.7683
G01 X-4.8242 Y-4.7001
G01 X-4.8658 Y-4.6223
G01 X-4.8914 Y-4.5379
G01 X-4.9001 Y-4.4501
G01 X-4.8914 Y-4.3623
G01 X-4.8658 Y-4.2779
G01 X-4.8242 Y-4.2001
G01 X-4.7683 Y-4.1319
G01 X-4.7001 Y-4.0759
G01 X-4.6223 Y-4.0343
G01 X-4.5379 Y-4.0087
G01 X-4.4501 Y-4.0001
G01 X-4.3623 Y-4.0087
G01 X-4.2779 Y-4.0343
G01 X-4.2001 Y-4.0759
G01 X-4.1319 Y-4.1319
G01 X-4.0759 Y-4.2001
G01 X-4.0343 Y-4.2779
G01 X-4.0087 Y-4.3623
G01 X-4.0001 Y-4.4501
G00 X-4.0001 Y-4.4501
G01 F60.00
G01 Z-2.0000
G01 F120.00
G01 X-4.0087 Y-4.3623
G01 X-4.0343 Y-4.2779
G01 X-4.0759 Y-4.2001
G01 X-4.1319 Y-4.1319
G01 X-4.2001 Y-4.0759
G01 X-4.2779 Y-4.0343
G01 X-4.3623 Y-4.0087
G01 X-4.4501 Y-4.0001
G01 X-4.5379 Y-4.0087
G01 X-4.6223 Y-4.0343
G01 X-4.7001 Y-4.0759
G01 X-4.7683 Y-4.1319
G01 X-4.8242 Y-4.2001
G01 X-4.8658 Y-4.2779
G01 X-4.8914 Y-4.3623
G01 X-4.9001 Y-4.4501
G01 X-4.8914 Y-4.5379
G01 X-4.8658 Y-4.6223
G01 X-4.8242 Y-4.7001
G01 X-4.7683 Y-4.7683
G01 X-4.7001 Y-4.8242
G01 X-4.6223 Y-4.8658
G01 X-4.5379 Y-4.8914
G01 X-4.4501 Y-4.9001
G01 X-4.3623 Y-4.8914
G01 X-4.2779 Y-4.8658
G01 X-4.2001 Y-4.8242
G01 X-4.1319 Y-4.7683
G01 X-4.0759 Y-4.7001
G01 X-4.0343 Y-4.6223
G01 X-4.0087 Y-4.5379
G01 X-4.0001 Y-4.4501
G00 X-4.0001 Y-4.4501
G01 F60.00
G01 Z-2.5000
G01 F120.00
G01 X-4.0087 Y-4.5379
G01 X-4.0343 Y-4.6223
G01 X-4.0759 Y-4.7001
G01 X-4.1319 Y-4.7683
G01 X-4.2001 Y-4.8242
G01 X-4.2779 Y-4.8658
G01 X-4.3623 Y-4.8914
G01 X-4.4501 Y-4.9001
G01 X-4.5379 Y-4.8914
G01 X-4.6223 Y-4.8658
G01 X-4.7001 Y-4.8242
G01 X-4.7683 Y-4.7683
G01 X-4.8242 Y-4.7001
G01 X-4.8658 Y-4.6223
G01 X-4.8914 Y-4.5379
G01 X-4.9001 Y-4.4501
G01 X-4.8914 Y-4.3623
G01 X-4.8658 Y-4.2779
G01 X-4.8242 Y-4.2001
G01 X-4.7683 Y-4.1319
G01 X-4.7001 Y-4.0759
G01 X-4.6223 Y-4.0343
G01 X-4.5379 Y-4.0087
G01 X-4.4501 Y-4.0001
G01 X-4.3623 Y-4.0087
G01 X-4.2779 Y-4.0343
G01 X-4.2001 Y-4.0759
G01 X-4.1319 Y-4.1319
G01 X-4.0759 Y-4.2001
G01 X-4.0343 Y-4.2779
G01 X-4.0087 Y-4.3623
G01 X-4.0001 Y-4.4501
G00 Z2.0000
G00 X-33.7746 Y-4.4501
G01 F60.00
G01 Z-0.5000
G01 F120.00
G01 X-33.7799 Y-4.5579
G01 X-33.7957 Y-4.6646
G01 X-33.8220 Y-4.7693
G01 X-33.8583 Y-4.8709
G01 X-33.9044 Y-4.9684
G01 X-33.9599 Y-5.0610
G01 X-34.0242 Y-5.1477
G01 X-34.0967 Y-5.2276
G01 X-34.1766 Y-5.3001
G01 X-34.2633 Y-5.3644
G01 X-34.3559 Y-5.4198
G01 X-34.4534 Y-5.4660
G01 X-34.5550 Y-5.5023
G01 X-34.6597 Y-5.5285
G01 X-34.7664 Y-5.5444
G01 X-34.8742 Y-5.5497
G01 X-34.9820 Y-5.5444
G01 X-35.0887 Y-5.5285
G01 X-35.1934 Y-5.5023
G01 X-35.2950 Y-5.4660
G01 X-35.3925 Y-5.4198
G01 X-35.4851 Y-5.3644
G01 X-35.5718 Y-5.3001
G01 X-35.6517 Y-5.2276
G01 X-35.7242 Y-5.1477
G01 X-35.7885 Y-5.0610
G01 X-35.8440 Y-4.9684
G01 X-35.8901 Y-4.8709
G01 X-35.9264 Y-4.7693
G01 X-35.9527 Y-4.6646
G01 X-35.9685 Y-4.5579
G01 X-35.9738 Y-4.4501
G01 X-35.9685 Y-4.3423
G01 X-35.9527 Y-4.2356
G01 X-35.9264 Y-4.1309
G01 X-35.8901 Y-4.0293
G01 X-35.8440 Y-3.9317
G01 X-35.7885 Y-3.8392
G01 X-35.7242 Y-3.7525
G01 X-35.6517 Y-3.6725
G01 X-35.5718 Y-3.6001
G01 X-35.4851 Y-3.5358
G01 X-35.3925 Y-3.4803
G01 X-35.2950 Y-3.4342
G01 X-35.1934 Y-3.3978
G01 X-35.0887 Y-3.3716
G01 X-34.9820 Y-3.3558
G01 X-34.8742 Y-3.3505
G01 X-34.7664 Y-3.3558
G01 X-34.6597 Y-3.3716
G01 X-34.5550 Y-3.3978
G01 X-34.4534 Y-3.4342
G01 X-34.3559 Y-3.4803
G01 X-34.2633 Y-3.5358
G01 X-34.1766 Y-3.6001
G01 X-34.0967 Y-3.6725
G01 X-34.0242 Y-3.7525
G01 X-33.9599 Y-3.8392
G01 X-33.9044 Y-3.9317
G01 X-33.8583 Y-4.0293
G01 X-33.8220 Y-4.1309
G01 X-33.7957 Y-4.2356
G01 X-33.7799 Y-4.3423
G01 X-33.7746 Y-4.4501
G00 X-33.7746 Y-4.4501
G01 F60.00
G01 Z-1.0000
G01 F120.00
G01 X-33.7799 Y-4.3423
G01 X-33.7957 Y-4.2356
G01 X-33.8220 Y-4.1309
G01 X-33.8583 Y-4.0293
G01 X-33.9044 Y-3.9317
G01 X-33.9599 Y-3.8392
G01 X-34.0242 Y-3.7525
G01 X-34.0967 Y-3.6725
G01 X-34.1766 Y-3.6001
G01 X-34.2633 Y-3.5358
G01 X-34.3559 Y-3.4803
G01 X-34.4534 Y-3.4342
G01 X-34.5550 Y-3.3978
G01 X-34.6597 Y-3.3716
G01 X-34.7664 Y-3.3558
G01 X-34.8742 Y-3.3505
G01 X-34.9820 Y-3.3558
G01 X-35.0887 Y-3.3716
G01 X-35.1934 Y-3.3978
G01 X-35.2950 Y-3.4342
G01 X-35.3925 Y-3.4803
G01 X-35.4851 Y-3.5358
G01 X-35.5718 Y-3.6001
G01 X-35.6517 Y-3.6725
G01 X-35.7242 Y-3.7525
G01 X-35.7885 Y-3.8392
G01 X-35.8440 Y-3.9317
G01 X-35.8901 Y-4.0293
G01 X-35.9264 Y-4.1309
G01 X-35.9527 Y-4.2356
G01 X-35.9685 Y-4.3423
G01 X-35.9738 Y-4.4501
G01 X-35.9685 Y-4.5579
G01 X-35.9527 Y-4.6646
G01 X-35.9264 Y-4.7693
G01 X-35.8901 Y-4.8709
G01 X-35.8440 Y-4.9684
G01 X-35.7885 Y-5.0610
G01 X-35.7242 Y-5.1477
G01 X-35.6517 Y-5.2276
G01 X-35.5718 Y-5.3001
G01 X-35.4851 Y-5.3644
G01 X-35.3925 Y-5.4198
G01 X-35.2950 Y-5.4660
G01 X-35.1934 Y-5.5023
G01 X-35.0887 Y-5.5285
G01 X-34.9820 Y-5.5444
G01 X-34.8742 Y-5.5497
G01 X-34.7664 Y-5.5444
G01 X-34.6597 Y-5.5285
G01 X-34.5550 Y-5.5023
G01 X-34.4534 Y-5.4660
G01 X-34.3559 Y-5.4198
G01 X-34.2633 Y-5.3644
G01 X-34.1766 Y-5.3001
G01 X-34.0967 Y-5.2276
G01 X-34.0242 Y-5.1477
G01 X-33.9599 Y-5.0610
G01 X-33.9044 Y-4.9684
G01 X-33.8583 Y-4.8709
G01 X-33.8220 Y-4.7693
G01 X-33.7957 Y-4.6646
G01 X-33.7799 Y-4.5579
G01 X-33.7746 Y-4.4501
G00 X-33.7746 Y-4.4501
G01 F60.00
G01 Z-1.5000
G01 F120.00
G01 X-33.7799 Y-4.5579
G01 X-33.7957 Y-4.6646
G01 X-33.8220 Y-4.7693
G01 X-33.8583 Y-4.8709
G01 X-33.9044 Y-4.9684
G01 X-33.9599 Y-5.0610
G01 X-34.0242 Y-5.1477
G01 X-34.0967 Y-5.2276
G01 X-34.1766 Y-5.3001
G01 X-34.2633 Y-5.3644
G01 X-34.3559 Y-5.4198
G01 X-34.4534 Y-5.4660
G01 X-34.5550 Y-5.5023
G01 X-34.6597 Y-5.5285
G01 X-34.7664 Y-5.5444
G01 X-34.8742 Y-5.5497
G01 X-34.9820 Y-5.5444
G01 X-35.0887 Y-5.5285
G01 X-35.1934 Y-5.5023
G01 X-35.2950 Y-5.4660
G01 X-35.3925 Y-5.4198
G01 X-35.4851 Y-5.3644
G01 X-35.5718 Y-5.3001
G01 X-35.6517 Y-5.2276
G01 X-35.7242 Y-5.1477
G01 X-35.7885 Y-5.0610
G01 X-35.8440 Y-4.9684
G01 X-35.8901 Y-4.8709
G01 X-35.9264 Y-4.7693
G01 X-35.9527 Y-4.6646
G01 X-35.9685 Y-4.5579
G01 X-35.9738 Y-4.4501
G01 X-35.9685 Y-4.3423
G01 X-35.9527 Y-4.2356
G01 X-35.9264 Y-4.1309
G01 X-35.8901 Y-4.0293
G01 X-35.8440 Y-3.9317
G01 X-35.7885 Y-3.8392
G01 X-35.7242 Y-3.7525
G01 X-35.6517 Y-3.6725
G01 X-35.5718 Y-3.6001
G01 X-35.4851 Y-3.5358
G01 X-35.3925 Y-3.4803
G01 X-35.2950 Y-3.4342
G01 X-35.1934 Y-3.3978
G01 X-35.0887 Y-3.3716
G01 X-34.9820 Y-3.3558
G01 X-34.8742 Y-3.3505
G01 X-34.7664 Y-3.3558
G01 X-34.6597 Y-3.3716
G01 X-34.5550 Y-3.3978
G01 X-34.4534 Y-3.4342
G01 X-34.3559 Y-3.4803
G01 X-34.2633 Y-3.5358
G01 X-34.1766 Y-3.6001
G01 X-34.0967 Y-3.6725
G01 X-34.0242 Y-3.7525
G01 X-33.9599 Y-3.8392
G01 X-33.9044 Y-3.9317
G01 X-33.8583 Y-4.0293
G01 X-33.8220 Y-4.1309
G01 X-33.7957 Y-4.2356
G01 X-33.7799 Y-4.3423
G01 X-33.7746 Y-4.4501
G00 X-33.7746 Y-4.4501
G01 F60.00
G01 Z-2.0000
G01 F120.00
G01 X-33.7799 Y-4.3423
G01 X-33.7957 Y-4.2356
G01 X-33.8220 Y-4.1309
G01 X-33.8583 Y-4.0293
G01 X-33.9044 Y-3.9317
G01 X-33.9599 Y-3.8392
G01 X-34.0242 Y-3.7525
G01 X-34.0967 Y-3.6725
G01 X-34.1766 Y-3.6001
G01 X-34.2633 Y-3.5358
G01 X-34.3559 Y-3.4803
G01 X-34.4534 Y-3.4342
G01 X-34.5550 Y-3.3978
G01 X-34.6597 Y-3.3716
G01 X-34.7664 Y-3.3558
G01 X-34.8742 Y-3.3505
G01 X-34.9820 Y-3.3558
G01 X-35.0887 Y-3.3716
G01 X-35.1934 Y-3.3978
G01 X-35.2950 Y-3.4342
G01 X-35.3925 Y-3.4803
G01 X-35.4851 Y-3.5358
G01 X-35.5718 Y-3.6001
G01 X-35.6517 Y-3.6725
G01 X-35.7242 Y-3.7525
G01 X-35.7885 Y-3.8392
G01 X-35.8440 Y-3.9317
G01 X-35.8901 Y-4.0293
G01 X-35.9264 Y-4.1309
G01 X-35.9527 Y-4.2356
G01 X-35.9685 Y-4.3423
G01 X-35.9738 Y-4.4501
G01 X-35.9685 Y-4.5579
G01 X-35.9527 Y-4.6646
G01 X-35.9264 Y-4.7693
G01 X-35.8901 Y-4.8709
G01 X-35.8440 Y-4.9684
G01 X-35.7885 Y-5.0610
G01 X-35.7242 Y-5.1477
G01 X-35.6517 Y-5.2276
G01 X-35.5718 Y-5.3001
G01 X-35.4851 Y-5.3644
G01 X-35.3925 Y-5.4198
G01 X-35.2950 Y-5.4660
G01 X-35.1934 Y-5.5023
G01 X-35.0887 Y-5.5285
G01 X-34.9820 Y-5.5444
G01 X-34.8742 Y-5.5497
G01 X-34.7664 Y-5.5444
G01 X-34.6597 Y-5.5285
G01 X-34.5550 Y-5.5023
G01 X-34.4534 Y-5.4660
G01 X-34.3559 Y-5.4198
G01 X-34.2633 Y-5.3644
G01 X-34.1766 Y-5.3001
G01 X-34.0967 Y-5.2276
G01 X-34.0242 Y-5.1477
G01 X-33.9599 Y-5.0610
G01 X-33.9044 Y-4.9684
G01 X-33.8583 Y-4.8709
G01 X-33.8220 Y-4.7693
G01 X-33.7957 Y-4.6646
G01 X-33.7799 Y-4.5579
G01 X-33.7746 Y-4.4501
G00 X-33.7746 Y-4.4501
G01 F60.00
G01 Z-2.5000
G01 F120.00
G01 X-33.7799 Y-4.5579
G01 X-33.7957 Y-4.6646
G01 X-33.8220 Y-4.7693
G01 X-33.8583 Y-4.8709
G01 X-33.9044 Y-4.9684
G01 X-33.9599 Y-5.0610
G01 X-34.0242 Y-5.1477
G01 X-34.0967 Y-5.2276
G01 X-34.1766 Y-5.3001
G01 X-34.2633 Y-5.3644
G01 X-34.3559 Y-5.4198
G01 X-34.4534 Y-5.4660
G01 X-34.5550 Y-5.5023
G01 X-34.6597 Y-5.5285
G01 X-34.7664 Y-5.5444
G01 X-34.8742 Y-5.5497
G01 X-34.9820 Y-5.5444
G01 X-35.0887 Y-5.5285
G01 X-35.1934 Y-5.5023
G01 X-35.2950 Y-5.4660
G01 X-35.3925 Y-5.4198
G01 X-35.4851 Y-5.3644
G01 X-35.5718 Y-5.3001
G01 X-35.6517 Y-5.2276
G01 X-35.7242 Y-5.1477
G01 X-35.7885 Y-5.0610
G01 X-35.8440 Y-4.9684
G01 X-35.8901 Y-4.8709
G01 X-35.9264 Y-4.7693
G01 X-35.9527 Y-4.6646
G01 X-35.9685 Y-4.5579
G01 X-35.9738 Y-4.4501
G01 X-35.9685 Y-4.3423
G01 X-35.9527 Y-4.2356
G01 X-35.9264 Y-4.1309
G01 X-35.8901 Y-4.0293
G01 X-35.8440 Y-3.9317
G01 X-35.7885 Y-3.8392
G01 X-35.7242 Y-3.7525
G01 X-35.6517 Y-3.6725
G01 X-35.5718 Y-3.6001
G01 X-35.4851 Y-3.5358
G01 X-35.3925 Y-3.4803
G01 X-35.2950 Y-3.4342
G01 X-35.1934 Y-3.3978
G01 X-35.0887 Y-3.3716
G01 X-34.9820 Y-3.3558
G01 X-34.8742 Y-3.3505
G01 X-34.7664 Y-3.3558
G01 X-34.6597 Y-3.3716
G01 X-34.5550 Y-3.3978
G01 X-34.4534 Y-3.4342
G01 X-34.3559 Y-3.4803
G01 X-34.2633 Y-3.5358
G01 X-34.1766 Y-3.6001
G01 X-34.0967 Y-3.6725
G01 X-34.0242 Y-3.7525
G01 X-33.9599 Y-3.8392
G01 X-33.9044 Y-3.9317
G01 X-33.8583 Y-4.0293
G01 X-33.8220 Y-4.1309
G01 X-33.7957 Y-4.2356
G01 X-33.7799 Y-4.3423
G01 X-33.7746 Y-4.4501
G00 Z2.0000
G00 X-34.4242 Y-4.4501
G01 F60.00
G01 Z-0.5000
G01 F120.00
G01 X-34.4328 Y-4.5379
G01 X-34.4585 Y-4.6223
G01 X-34.5000 Y-4.7001
G01 X-34.5560 Y-4.7683
G01 X-34.6242 Y-4.8242
G01 X-34.7020 Y-4.8658
G01 X-34.7864 Y-4.8914
G01 X-34.8742 Y-4.9001
G01 X-34.9620 Y-4.8914
G01 X-35.0464 Y-4.8658
G01 X-35.1242 Y-4.8242
G01 X-35.1924 Y-4.7683
G01 X-35.2484 Y-4.7001
G01 X-35.2899 Y-4.6223
G01 X-35.3156 Y-4.5379
G01 X-35.3242 Y-4.4501
G01 X-35.3156 Y-4.3623
G01 X-35.2899 Y-4.2779
G01 X-35.2484 Y-4.2001
G01 X-35.1924 Y-4.1319
G01 X-35.1242 Y-4.0759
G01 X-35.0464 Y-4.0343
G01 X-34.9620 Y-4.0087
G01 X-34.8742 Y-4.0001
G01 X-34.7864 Y-4.0087
G01 X-34.7020 Y-4.0343
G01 X-34.6242 Y-4.0759
G01 X-34.5560 Y-4.1319
G01 X-34.5000 Y-4.2001
G01 X-34.4585 Y-4.2779
G01 X-34.4328 Y-4.3623
G01 X-34.4242 Y-4.4501
G00 X-34.4242 Y-4.4501
G01 F60.00
G01 Z-1.0000
G01 F120.00
G01 X-34.4328 Y-4.3623
G01 X-34.4585 Y-4.2779
G01 X-34.5000 Y-4.2001
G01 X-34.5560 Y-4.1319
G01 X-34.6242 Y-4.0759
G01 X-34.7020 Y-4.0343
G01 X-34.7864 Y-4.0087
G01 X-34.8742 Y-4.0001
G01 X-34.9620 Y-4.0087
G01 X-35.0464 Y-4.0343
G01 X-35.1242 Y-4.0759
G01 X-35.1924 Y-4.1319
G01 X-35.2484 Y-4.2001
G01 X-35.2899 Y-4.2779
G01 X-35.3156 Y-4.3623
G01 X-35.3242 Y-4.4501
G01 X-35.3156 Y-4.5379
G01 X-35.2899 Y-4.6223
G01 X-35.2484 Y-4.7001
G01 X-35.1924 Y-4.7683
G01 X-35.1242 Y-4.8242
G01 X-35.0464 Y-4.8658
G01 X-34.9620 Y-4.8914
G01 X-34.8742 Y-4.9001
G01 X-34.7864 Y-4.8914
G01 X-34.7020 Y-4.8658
G01 X-34.6242 Y-4.8242
G01 X-34.5560 Y-4.7683
G01 X-34.5000 Y-4.7001
G01 X-34.4585 Y-4.6223
G01 X-34.4328 Y-4.5379
G01 X-34.4242 Y-4.4501
G00 X-34.4242 Y-4.4501
G01 F60.00
G01 Z-1.5000
G01 F120.00
G01 X-34.4328 Y-4.5379
G01 X-34.4585 Y-4.6223
G01 X-34.5000 Y-4.7001
G01 X-34.5560 Y-4.7683
G01 X-34.6242 Y-4.8242
G01 X-34.7020 Y-4.8658
G01 X-34.7864 Y-4.8914
G01 X-34.8742 Y-4.9001
G01 X-34.9620 Y-4.8914
G01 X-35.0464 Y-4.8658
G01 X-35.1242 Y-4.8242
G01 X-35.1924 Y-4.7683
G01 X-35.2484 Y-4.7001
G01 X-35.2899 Y-4.6223
G01 X-35.3156 Y-4.5379
G01 X-35.3242 Y-4.4501
G01 X-35.3156 Y-4.3623
G01 X-35.2899 Y-4.2779
G01 X-35.2484 Y-4.2001
G01 X-35.1924 Y-4.1319
G01 X-35.1242 Y-4.0759
G01 X-35.0464 Y-4.0343
G01 X-34.9620 Y-4.0087
G01 X-34.8742 Y-4.0001
G01 X-34.7864 Y-4.0087
G01 X-34.7020 Y-4.0343
G01 X-34.6242 Y-4.0759
G01 X-34.5560 Y-4.1319
G01 X-34.5000 Y-4.2001
G01 X-34.4585 Y-4.2779
G01 X-34.4328 Y-4.3623
G01 X-34.4242 Y-4.4501
G00 X-34.4242 Y-4.4501
G01 F60.00
G01 Z-2.0000
G01 F120.00
G01 X-34.4328 Y-4.3623
G01 X-34.4585 Y-4.2779
G01 X-34.5000 Y-4.2001
G01 X-34.5560 Y-4.1319
G01 X-34.6242 Y-4.0759
G01 X-34.7020 Y-4.0343
G01 X-34.7864 Y-4.0087
G01 X-34.8742 Y-4.0001
G01 X-34.9620 Y-4.0087
G01 X-35.0464 Y-4.0343
G01 X-35.1242 Y-4.0759
G01 X-35.1924 Y-4.1319
G01 X-35.2484 Y-4.2001
G01 X-35.2899 Y-4.2779
G01 X-35.3156 Y-4.3623
G01 X-35.3242 Y-4.4501
G01 X-35.3156 Y-4.5379
G01 X-35.2899 Y-4.6223
G01 X-35.2484 Y-4.7001
G01 X-35.1924 Y-4.7683
G01 X-35.1242 Y-4.8242
G01 X-35.0464 Y-4.8658
G01 X-34.9620 Y-4.8914
G01 X-34.8742 Y-4.9001
G01 X-34.7864 Y-4.8914
G01 X-34.7020 Y-4.8658
G01 X-34.6242 Y-4.8242
G01 X-34.5560 Y-4.7683
G01 X-34.5000 Y-4.7001
G01 X-34.4585 Y-4.6223
G01 X-34.4328 Y-4.5379
G01 X-34.4242 Y-4.4501
G00 X-34.4242 Y-4.4501
G01 F60.00
G01 Z-2.5000
G01 F120.00
G01 X-34.4328 Y-4.5379
G01 X-34.4585 Y-4.6223
G01 X-34.5000 Y-4.7001
G01 X-34.5560 Y-4.7683
G01 X-34.6242 Y-4.8242
G01 X-34.7020 Y-4.8658
G01 X-34.7864 Y-4.8914
G01 X-34.8742 Y-4.9001
G01 X-34.9620 Y-4.8914
G01 X-35.0464 Y-4.8658
G01 X-35.1242 Y-4.8242
G01 X-35.1924 Y-4.7683
G01 X-35.2484 Y-4.7001
G01 X-35.2899 Y-4.6223
G01 X-35.3156 Y-4.5379
G01 X-35.3242 Y-4.4501
G01 X-35.3156 Y-4.3623
G01 X-35.2899 Y-4.2779
G01 X-35.2484 Y-4.2001
G01 X-35.1924 Y-4.1319
G01 X-35.1242 Y-4.0759
G01 X-35.0464 Y-4.0343
G01 X-34.9620 Y-4.0087
G01 X-34.8742 Y-4.0001
G01 X-34.7864 Y-4.0087
G01 X-34.7020 Y-4.0343
G01 X-34.6242 Y-4.0759
G01 X-34.5560 Y-4.1319
G01 X-34.5000 Y-4.2001
G01 X-34.4585 Y-4.2779
G01 X-34.4328 Y-4.3623
G01 X-34.4242 Y-4.4501
G00 Z2.0000
M05
G00 Z2.0000
G00 Z15.00
G00 X0.0 Y0.0


