(G-code generated by FlatCAM Evo vUnstable - Version Date: 2022/4/31)

(Name: circuit_protection-Edge_Cuts_cutout_cnc)
(Type: G-code from Geometry)
(Units: MM)

(Created on Tuesday, 18 April 2023 at 18:56)

(This preprocessor is the default preprocessor.)
(It is made to work with MACH3 compatible motion controllers.)

(TOOL DIAMETER: 1.0 mm)
(Feedrate_XY: 120.0 mm/min)
(Feedrate_Z: 60.0 mm/min)
(Feedrate rapids 1500.0 mm/min)

(Z_Cut: -2.5 mm)
(DepthPerCut: 0.5 mm <=>5 passes)
(Z_Move: 2.0 mm)
(Z Start: None mm)
(Z End: 15.0 mm)
(X,Y End: 0.0000, 0.0000 mm)
(Steps per circle: 16)
(Preprocessor Geometry: default)

(X range:  -38.9750 ...   -0.3500  mm)
(Y range:  -35.9750 ...   -0.3500  mm)

(Spindle Speed: 13000.0 RPM)
G21
G90
G94

G01 F120.00
G00 Z2.0000

M03 S13000.0
G4 P1.0
G01 F120.00
G00 X-38.9624 Y-1.3732
G01 F60.00
G01 Z-0.5000
G01 F120.00
G01 X-38.9168 Y-1.1483
G01 X-38.8735 Y-1.0285
G01 X-38.7021 Y-0.7612
G01 X-38.6132 Y-0.6632
G01 X-38.3526 Y-0.4818
G01 X-38.2376 Y-0.4269
G01 X-37.9518 Y-0.3625
G01 X-37.8250 Y-0.3500
G01 X-1.5000 Y-0.3500
G01 X-1.3732 Y-0.3625
G01 X-1.0874 Y-0.4269
G01 X-0.9724 Y-0.4818
G01 X-0.7118 Y-0.6632
G01 X-0.6229 Y-0.7612
G01 X-0.4976 Y-0.9475
G01 X-0.4494 Y-1.0330
G01 X-0.4006 Y-1.1812
G01 X-0.3574 Y-1.4022
G01 X-0.3500 Y-1.5000
G01 X-0.3500 Y-34.8250
G01 X-0.3625 Y-34.9518
G01 X-0.4269 Y-35.2376
G01 X-0.4818 Y-35.3526
G01 X-0.6632 Y-35.6132
G01 X-0.7612 Y-35.7021
G01 X-0.9475 Y-35.8274
G01 X-1.0330 Y-35.8756
G01 X-1.1812 Y-35.9244
G01 X-1.4022 Y-35.9676
G01 X-1.5000 Y-35.9750
G01 X-37.8250 Y-35.9750
G01 X-37.9518 Y-35.9625
G01 X-38.2376 Y-35.8981
G01 X-38.3526 Y-35.8432
G01 X-38.6132 Y-35.6618
G01 X-38.7021 Y-35.5638
G01 X-38.8274 Y-35.3775
G01 X-38.8756 Y-35.2920
G01 X-38.9244 Y-35.1438
G01 X-38.9676 Y-34.9228
G01 X-38.9750 Y-34.8250
G01 X-38.9750 Y-1.5000
G01 X-38.9624 Y-1.3732
G00 X-38.9624 Y-1.3732
G01 F60.00
G01 Z-1.0000
G01 F120.00
G01 X-38.9750 Y-1.5000
G01 X-38.9750 Y-34.8250
G01 X-38.9676 Y-34.9228
G01 X-38.9244 Y-35.1438
G01 X-38.8756 Y-35.2920
G01 X-38.8274 Y-35.3775
G01 X-38.7021 Y-35.5638
G01 X-38.6132 Y-35.6618
G01 X-38.3526 Y-35.8432
G01 X-38.2376 Y-35.8981
G01 X-37.9518 Y-35.9625
G01 X-37.8250 Y-35.9750
G01 X-1.5000 Y-35.9750
G01 X-1.4022 Y-35.9676
G01 X-1.1812 Y-35.9244
G01 X-1.0330 Y-35.8756
G01 X-0.9475 Y-35.8274
G01 X-0.7612 Y-35.7021
G01 X-0.6632 Y-35.6132
G01 X-0.4818 Y-35.3526
G01 X-0.4269 Y-35.2376
G01 X-0.3625 Y-34.9518
G01 X-0.3500 Y-34.8250
G01 X-0.3500 Y-1.5000
G01 X-0.3574 Y-1.4022
G01 X-0.4006 Y-1.1812
G01 X-0.4494 Y-1.0330
G01 X-0.4976 Y-0.9475
G01 X-0.6229 Y-0.7612
G01 X-0.7118 Y-0.6632
G01 X-0.9724 Y-0.4818
G01 X-1.0874 Y-0.4269
G01 X-1.3732 Y-0.3625
G01 X-1.5000 Y-0.3500
G01 X-37.8250 Y-0.3500
G01 X-37.9518 Y-0.3625
G01 X-38.2376 Y-0.4269
G01 X-38.3526 Y-0.4818
G01 X-38.6132 Y-0.6632
G01 X-38.7021 Y-0.7612
G01 X-38.8735 Y-1.0285
G01 X-38.9168 Y-1.1483
G01 X-38.9624 Y-1.3732
G00 X-38.9624 Y-1.3732
G01 F60.00
G01 Z-1.5000
G01 F120.00
G01 X-38.9168 Y-1.1483
G01 X-38.8735 Y-1.0285
G01 X-38.7021 Y-0.7612
G01 X-38.6132 Y-0.6632
G01 X-38.3526 Y-0.4818
G01 X-38.2376 Y-0.4269
G01 X-37.9518 Y-0.3625
G01 X-37.8250 Y-0.3500
G01 X-1.5000 Y-0.3500
G01 X-1.3732 Y-0.3625
G01 X-1.0874 Y-0.4269
G01 X-0.9724 Y-0.4818
G01 X-0.7118 Y-0.6632
G01 X-0.6229 Y-0.7612
G01 X-0.4976 Y-0.9475
G01 X-0.4494 Y-1.0330
G01 X-0.4006 Y-1.1812
G01 X-0.3574 Y-1.4022
G01 X-0.3500 Y-1.5000
G01 X-0.3500 Y-34.8250
G01 X-0.3625 Y-34.9518
G01 X-0.4269 Y-35.2376
G01 X-0.4818 Y-35.3526
G01 X-0.6632 Y-35.6132
G01 X-0.7612 Y-35.7021
G01 X-0.9475 Y-35.8274
G01 X-1.0330 Y-35.8756
G01 X-1.1812 Y-35.9244
G01 X-1.4022 Y-35.9676
G01 X-1.5000 Y-35.9750
G01 X-37.8250 Y-35.9750
G01 X-37.9518 Y-35.9625
G01 X-38.2376 Y-35.8981
G01 X-38.3526 Y-35.8432
G01 X-38.6132 Y-35.6618
G01 X-38.7021 Y-35.5638
G01 X-38.8274 Y-35.3775
G01 X-38.8756 Y-35.2920
G01 X-38.9244 Y-35.1438
G01 X-38.9676 Y-34.9228
G01 X-38.9750 Y-34.8250
G01 X-38.9750 Y-1.5000
G01 X-38.9624 Y-1.3732
G00 X-38.9624 Y-1.3732
G01 F60.00
G01 Z-2.0000
G01 F120.00
G01 X-38.9750 Y-1.5000
G01 X-38.9750 Y-34.8250
G01 X-38.9676 Y-34.9228
G01 X-38.9244 Y-35.1438
G01 X-38.8756 Y-35.2920
G01 X-38.8274 Y-35.3775
G01 X-38.7021 Y-35.5638
G01 X-38.6132 Y-35.6618
G01 X-38.3526 Y-35.8432
G01 X-38.2376 Y-35.8981
G01 X-37.9518 Y-35.9625
G01 X-37.8250 Y-35.9750
G01 X-1.5000 Y-35.9750
G01 X-1.4022 Y-35.9676
G01 X-1.1812 Y-35.9244
G01 X-1.0330 Y-35.8756
G01 X-0.9475 Y-35.8274
G01 X-0.7612 Y-35.7021
G01 X-0.6632 Y-35.6132
G01 X-0.4818 Y-35.3526
G01 X-0.4269 Y-35.2376
G01 X-0.3625 Y-34.9518
G01 X-0.3500 Y-34.8250
G01 X-0.3500 Y-1.5000
G01 X-0.3574 Y-1.4022
G01 X-0.4006 Y-1.1812
G01 X-0.4494 Y-1.0330
G01 X-0.4976 Y-0.9475
G01 X-0.6229 Y-0.7612
G01 X-0.7118 Y-0.6632
G01 X-0.9724 Y-0.4818
G01 X-1.0874 Y-0.4269
G01 X-1.3732 Y-0.3625
G01 X-1.5000 Y-0.3500
G01 X-37.8250 Y-0.3500
G01 X-37.9518 Y-0.3625
G01 X-38.2376 Y-0.4269
G01 X-38.3526 Y-0.4818
G01 X-38.6132 Y-0.6632
G01 X-38.7021 Y-0.7612
G01 X-38.8735 Y-1.0285
G01 X-38.9168 Y-1.1483
G01 X-38.9624 Y-1.3732
G00 X-38.9624 Y-1.3732
G01 F60.00
G01 Z-2.5000
G01 F120.00
G01 X-38.9168 Y-1.1483
G01 X-38.8735 Y-1.0285
G01 X-38.7021 Y-0.7612
G01 X-38.6132 Y-0.6632
G01 X-38.3526 Y-0.4818
G01 X-38.2376 Y-0.4269
G01 X-37.9518 Y-0.3625
G01 X-37.8250 Y-0.3500
G01 X-1.5000 Y-0.3500
G01 X-1.3732 Y-0.3625
G01 X-1.0874 Y-0.4269
G01 X-0.9724 Y-0.4818
G01 X-0.7118 Y-0.6632
G01 X-0.6229 Y-0.7612
G01 X-0.4976 Y-0.9475
G01 X-0.4494 Y-1.0330
G01 X-0.4006 Y-1.1812
G01 X-0.3574 Y-1.4022
G01 X-0.3500 Y-1.5000
G01 X-0.3500 Y-34.8250
G01 X-0.3625 Y-34.9518
G01 X-0.4269 Y-35.2376
G01 X-0.4818 Y-35.3526
G01 X-0.6632 Y-35.6132
G01 X-0.7612 Y-35.7021
G01 X-0.9475 Y-35.8274
G01 X-1.0330 Y-35.8756
G01 X-1.1812 Y-35.9244
G01 X-1.4022 Y-35.9676
G01 X-1.5000 Y-35.9750
G01 X-37.8250 Y-35.9750
G01 X-37.9518 Y-35.9625
G01 X-38.2376 Y-35.8981
G01 X-38.3526 Y-35.8432
G01 X-38.6132 Y-35.6618
G01 X-38.7021 Y-35.5638
G01 X-38.8274 Y-35.3775
G01 X-38.8756 Y-35.2920
G01 X-38.9244 Y-35.1438
G01 X-38.9676 Y-34.9228
G01 X-38.9750 Y-34.8250
G01 X-38.9750 Y-1.5000
G01 X-38.9624 Y-1.3732
G00 Z2.0000
M05
G00 Z2.0000
G00 Z15.00
G00 X0.0 Y0.0


